arturo-sol653/Programmierung-und-Regelung-fuer-Mensch-Roboterinteraktion/Robot Programming/iiwa-exercises/logs/log_wireloop_3.log
TRANS_DIST	JS_DIST	ROT_DIST	X	Y	Z	A	B	C	TIME	MT0	MT1	MT2	MT3	MT4	MT5	MT6	FX	FY	FZ	TA	TB	TC	J0	J1	J2	J3	J4	J5	J6	
0.00000	0.00000	0.00000	449.354	69.941	-135.129	-1.571	0.000	-3.141	1	-0.274	52.723	-3.430	-7.800	0.432	0.147	-0.046	0.392	-1.897	0.878	-1.111	-0.475	-0.023	-0.016	0.967	0.202	-1.861	-0.486	0.362	-1.012	
0.00553	0.00004	0.00000	449.348	69.942	-135.129	-1.571	0.000	-3.141	214	-0.234	52.711	-3.410	-7.841	0.431	0.130	-0.044	0.347	-1.806	0.861	-1.053	-0.461	-0.022	-0.016	0.967	0.202	-1.861	-0.486	0.362	-1.012	
0.00184	0.00000	0.00000	449.350	69.942	-135.128	-1.571	0.000	-3.141	495	-0.300	52.712	-3.443	-7.908	0.423	0.127	-0.042	0.368	-1.776	0.845	-1.036	-0.466	-0.020	-0.016	0.967	0.202	-1.861	-0.486	0.362	-1.012	
0.00107	0.00000	0.00000	449.351	69.942	-135.127	-1.571	0.000	-3.141	714	1.843	52.682	-2.345	-7.775	0.437	0.090	0.035	0.490	-1.804	0.855	-1.048	-0.520	-0.023	-0.016	0.967	0.202	-1.861	-0.486	0.362	-1.012	
3.68834	0.00722	0.00021	449.496	66.257	-135.042	-1.571	0.000	-3.141	949	0.147	52.766	-3.470	-7.897	0.478	0.214	0.113	-0.837	-1.569	1.406	-0.861	0.213	0.137	-0.021	0.967	0.202	-1.862	-0.487	0.361	-1.016	
6.36230	0.02038	0.00035	449.308	59.898	-135.124	-1.571	0.000	-3.142	1231	-0.167	52.482	-3.399	-7.752	0.416	0.077	0.062	-0.165	-1.680	1.503	-0.863	-0.153	0.070	-0.037	0.966	0.202	-1.865	-0.490	0.359	-1.029	
0.10664	0.00182	0.00022	449.405	59.942	-135.111	-1.571	0.000	-3.141	1482	-0.157	52.797	-3.428	-7.761	0.412	0.083	0.058	-0.137	-1.580	1.334	-0.810	-0.149	0.065	-0.038	0.966	0.202	-1.865	-0.490	0.359	-1.030	
0.42673	0.00009	0.00023	449.435	59.517	-135.114	-1.571	0.000	-3.141	1730	0.056	52.658	-3.484	-7.647	0.458	0.195	0.119	-0.506	-1.662	1.485	-0.870	0.109	0.138	-0.038	0.966	0.202	-1.865	-0.490	0.359	-1.030	
7.00667	0.01833	0.00013	449.422	52.510	-135.120	-1.571	0.000	-3.141	2011	-1.100	52.564	-4.038	-7.585	0.430	0.200	0.083	-0.485	-1.727	1.415	-0.909	0.076	0.133	-0.052	0.966	0.202	-1.868	-0.492	0.358	-1.041	
2.54995	0.01120	0.00018	449.403	49.960	-135.120	-1.571	0.000	-3.141	2293	-0.253	52.611	-3.480	-7.676	0.422	0.151	0.043	0.018	-1.815	1.330	-0.987	-0.234	0.051	-0.060	0.965	0.202	-1.869	-0.493	0.357	-1.049	
0.09105	0.00013	0.00016	449.487	49.934	-135.096	-1.571	0.000	-3.141	2543	2.238	52.512	-2.156	-7.658	0.427	0.106	0.103	0.103	-1.797	1.236	-0.974	-0.265	0.051	-0.060	0.965	0.202	-1.869	-0.493	0.357	-1.049	
3.88764	0.00774	0.00047	449.331	46.049	-135.118	-1.571	-0.000	3.142	2791	-0.070	52.466	-3.392	-7.532	0.460	0.171	0.113	-0.417	-1.761	1.437	-0.914	0.058	0.132	-0.066	0.965	0.202	-1.870	-0.493	0.356	-1.054	
6.18152	0.02081	0.00017	449.383	39.868	-135.111	-1.571	0.000	-3.142	3075	0.004	52.595	-3.331	-7.653	0.414	0.146	0.038	0.038	-1.865	1.408	-0.986	-0.239	0.054	-0.081	0.964	0.202	-1.872	-0.495	0.355	-1.067	
0.05147	0.00129	0.00021	449.352	39.908	-135.116	-1.571	0.000	-3.142	3324	-0.137	52.592	-3.402	-7.644	0.413	0.138	0.037	-0.054	-1.783	1.293	-0.934	-0.185	0.051	-0.082	0.964	0.202	-1.872	-0.495	0.355	-1.068	
0.32168	0.00005	0.00010	449.356	39.587	-135.120	-1.571	0.000	-3.142	3559	0.128	52.410	-3.409	-7.624	0.468	0.182	0.108	-0.379	-1.692	1.506	-0.887	0.023	0.131	-0.082	0.964	0.202	-1.872	-0.495	0.355	-1.068	
6.93742	0.01825	0.00023	449.257	32.650	-135.156	-1.571	0.000	3.141	3840	-1.743	52.516	-4.419	-7.581	0.460	0.228	0.090	-0.975	-1.709	1.549	-0.859	0.286	0.151	-0.096	0.964	0.202	-1.873	-0.496	0.354	-1.080	
2.68952	0.01192	0.00052	449.449	29.968	-135.107	-1.571	0.000	-3.141	4122	-0.160	52.490	-3.432	-7.622	0.426	0.117	0.064	0.028	-1.751	1.395	-0.906	-0.242	0.068	-0.105	0.964	0.202	-1.874	-0.497	0.353	-1.088	
0.03632	0.00007	0.00008	449.441	29.933	-135.109	-1.571	0.000	-3.141	4371	2.163	52.552	-2.210	-7.630	0.423	0.098	0.107	0.023	-1.744	1.373	-0.904	-0.238	0.067	-0.105	0.964	0.202	-1.874	-0.497	0.353	-1.088	
3.60360	0.00719	0.00050	449.289	26.332	-135.150	-1.571	-0.000	3.141	4606	0.212	52.541	-3.287	-7.562	0.466	0.173	0.121	-0.181	-1.748	1.482	-0.888	0.005	0.141	-0.110	0.964	0.202	-1.874	-0.497	0.353	-1.093	
6.43367	0.02116	0.00022	449.385	19.900	-135.109	-1.571	-0.000	-3.142	4885	-0.130	52.504	-3.401	-7.530	0.430	0.168	0.082	-0.499	-1.845	1.424	-0.928	0.057	0.107	-0.126	0.963	0.202	-1.875	-0.499	0.352	-1.107	
0.01761	0.00222	0.00019	449.369	19.903	-135.114	-1.571	0.000	-3.142	5150	0.028	52.435	-3.340	-7.556	0.417	0.148	0.073	-0.118	-1.764	1.385	-0.912	-0.131	0.081	-0.127	0.963	0.202	-1.876	-0.499	0.352	-1.109	
0.35136	0.00006	0.00004	449.371	19.552	-135.116	-1.571	0.000	-3.142	5400	-0.172	52.649	-3.444	-7.595	0.472	0.173	0.097	-0.216	-1.671	1.428	-0.833	0.044	0.134	-0.127	0.963	0.202	-1.876	-0.499	0.352	-1.109	
7.10879	0.01913	0.00020	449.380	12.443	-135.098	-1.571	-0.000	3.142	5682	-1.028	52.488	-4.037	-7.456	0.447	0.194	0.090	-0.453	-1.766	1.380	-0.875	0.108	0.140	-0.141	0.963	0.202	-1.876	-0.499	0.352	-1.122	
2.51692	0.01166	0.00026	449.267	9.929	-135.135	-1.571	-0.000	3.141	5964	-0.105	52.426	-3.470	-7.525	0.418	0.165	0.067	-0.257	-1.759	1.386	-0.906	-0.057	0.089	-0.149	0.963	0.202	-1.877	-0.499	0.352	-1.130	
0.02484	0.00008	0.00005	449.281	9.908	-135.135	-1.571	-0.000	3.141	6213	2.245	52.451	-2.217	-7.664	0.418	0.120	0.111	0.046	-1.794	1.363	-0.917	-0.177	0.078	-0.149	0.963	0.202	-1.877	-0.499	0.352	-1.130	
3.88478	0.00825	0.00036	449.357	6.024	-135.136	-1.571	0.000	3.142	6464	0.530	52.556	-3.124	-7.510	0.458	0.150	0.106	-0.763	-1.548	1.549	-0.746	0.334	0.156	-0.155	0.963	0.202	-1.877	-0.499	0.352	-1.136	
6.16519	0.02154	0.00016	449.249	-0.140	-135.161	-1.571	-0.000	3.141	6743	0.052	52.275	-3.323	-7.422	0.416	0.153	0.076	-0.225	-1.736	1.518	-0.880	-0.044	0.099	-0.171	0.963	0.202	-1.877	-0.500	0.352	-1.151	
0.04620	0.00150	0.00029	449.269	-0.099	-135.156	-1.571	0.000	3.141	6992	0.031	52.406	-3.371	-7.554	0.418	0.165	0.061	-0.339	-1.745	1.462	-0.864	0.032	0.093	-0.172	0.963	0.202	-1.877	-0.500	0.351	-1.152	
0.25872	0.00007	0.00005	449.276	-0.357	-135.155	-1.571	0.000	3.141	7184	0.110	52.533	-3.484	-7.599	0.356	0.150	0.108	-0.164	-1.597	1.580	-0.758	0.057	0.111	-0.172	0.963	0.202	-1.877	-0.500	0.351	-1.152	
6.94041	0.01898	0.00026	449.399	-7.296	-135.122	-1.571	0.000	-3.141	7462	-1.321	52.258	-4.257	-7.389	0.302	0.132	0.065	-0.931	-1.485	1.769	-0.638	0.394	0.095	-0.185	0.963	0.202	-1.877	-0.500	0.351	-1.166	
2.74273	0.01261	0.00019	449.494	-10.038	-135.104	-1.571	0.000	-3.141	7746	-0.019	52.583	-3.451	-7.611	0.310	0.126	0.045	-0.078	-1.557	1.476	-0.746	-0.057	0.034	-0.194	0.963	0.202	-1.876	-0.499	0.351	-1.175	
0.03697	0.00008	0.00010	449.490	-10.074	-135.104	-1.571	0.000	-3.141	7999	2.238	52.501	-2.212	-7.672	0.312	0.101	0.084	-0.054	-1.535	1.419	-0.746	-0.078	0.031	-0.194	0.963	0.202	-1.876	-0.499	0.351	-1.175	
3.65549	0.00795	0.00036	449.347	-13.727	-135.136	-1.571	0.000	-3.142	8233	0.403	52.477	-3.276	-7.591	0.245	-0.000	0.100	-0.758	-0.991	1.764	-0.335	0.434	0.092	-0.199	0.963	0.202	-1.876	-0.499	0.352	-1.181	
6.35749	0.02221	0.00010	449.371	-20.084	-135.119	-1.571	0.000	-3.142	8514	0.207	52.478	-3.323	-7.560	0.230	-0.012	0.034	-0.229	-1.092	1.590	-0.417	0.071	0.018	-0.215	0.963	0.202	-1.876	-0.499	0.352	-1.197	
0.06322	0.00186	0.00014	449.433	-20.072	-135.118	-1.571	0.000	-3.141	8764	0.082	52.365	-3.390	-7.596	0.239	-0.006	0.033	-0.365	-1.129	1.716	-0.424	0.138	0.022	-0.216	0.963	0.202	-1.875	-0.498	0.352	-1.198	
0.37993	0.00008	0.00010	449.408	-20.451	-135.124	-1.571	0.000	-3.141	9012	0.492	52.513	-3.205	-7.625	0.210	-0.042	0.113	-0.522	-0.959	1.726	-0.298	0.327	0.078	-0.216	0.963	0.202	-1.875	-0.498	0.352	-1.198	
6.99942	0.02008	0.00023	449.503	-27.450	-135.114	-1.571	0.000	-3.141	9294	-1.092	52.482	-4.159	-7.454	0.163	-0.073	0.112	-0.948	-0.709	1.851	-0.121	0.563	0.088	-0.230	0.964	0.202	-1.875	-0.498	0.353	-1.213	
2.62833	0.01234	0.00055	449.279	-30.068	-135.159	-1.571	0.000	3.141	9575	0.035	52.380	-3.464	-7.628	0.203	-0.040	0.050	-0.306	-0.948	1.601	-0.309	0.163	0.024	-0.238	0.964	0.202	-1.874	-0.497	0.354	-1.222	
0.02920	0.00005	0.00006	449.294	-30.091	-135.150	-1.571	0.000	3.141	9829	2.449	52.477	-2.160	-7.824	0.217	-0.071	0.123	-0.162	-0.982	1.661	-0.330	0.097	0.027	-0.238	0.964	0.202	-1.874	-0.497	0.354	-1.222	
3.92362	0.00886	0.00033	449.380	-34.014	-135.128	-1.571	0.000	-3.141	10079	0.070	52.234	-3.638	-7.619	0.142	-0.099	0.140	-0.912	-0.721	2.028	-0.086	0.562	0.091	-0.244	0.964	0.202	-1.873	-0.497	0.354	-1.228	
6.10537	0.02268	0.00021	449.287	-40.118	-135.165	-1.571	0.000	3.141	10362	0.117	52.556	-3.384	-7.666	0.201	-0.111	0.084	-0.295	-0.847	1.967	-0.194	0.166	0.050	-0.259	0.964	0.202	-1.872	-0.495	0.355	-1.245	
0.04593	0.00129	0.00021	449.298	-40.075	-135.156	-1.571	0.000	3.141	10597	0.149	52.286	-3.376	-7.630	0.205	-0.110	0.083	-0.494	-0.826	1.916	-0.185	0.267	0.053	-0.260	0.965	0.202	-1.872	-0.495	0.355	-1.246	
0.37485	0.00007	0.00003	449.283	-40.449	-135.150	-1.571	0.000	3.141	10848	0.286	52.220	-3.335	-7.449	0.166	-0.160	0.123	-0.565	-0.557	1.736	-0.027	0.451	0.088	-0.260	0.965	0.202	-1.872	-0.495	0.355	-1.246	
7.01327	0.02044	0.00025	449.357	-47.462	-135.143	-1.571	0.000	-3.142	11129	-0.979	52.410	-4.173	-7.231	0.134	-0.136	0.115	-1.237	-0.511	1.984	0.021	0.775	0.105	-0.274	0.965	0.202	-1.870	-0.494	0.356	-1.261	
2.58917	0.01267	0.00026	449.284	-50.050	-135.158	-1.571	0.000	3.141	11411	0.274	52.609	-3.389	-7.732	0.195	-0.083	0.084	-0.701	-0.805	1.807	-0.147	0.394	0.061	-0.282	0.965	0.202	-1.869	-0.493	0.357	-1.270	
0.06081	0.00010	0.00012	449.226	-50.065	-135.165	-1.571	0.000	3.141	11693	2.492	52.838	-2.201	-8.130	0.224	-0.116	0.123	-0.323	-0.859	1.750	-0.213	0.215	0.052	-0.282	0.965	0.202	-1.869	-0.493	0.357	-1.270	
3.64697	0.00817	0.00041	449.350	-53.710	-135.136	-1.571	0.000	-3.142	11929	0.356	52.549	-3.364	-7.714	0.154	-0.142	0.140	-0.996	-0.621	2.054	-0.022	0.686	0.102	-0.287	0.965	0.202	-1.868	-0.492	0.357	-1.276	
6.42041	0.02350	0.00018	449.361	-60.130	-135.135	-1.571	0.000	3.142	12211	0.238	52.693	-3.355	-7.705	0.180	-0.058	0.098	-0.515	-0.854	1.627	-0.233	0.317	0.058	-0.302	0.966	0.202	-1.865	-0.490	0.359	-1.294	
0.09590	0.00185	0.00024	449.284	-60.078	-135.157	-1.571	0.000	3.141	12462	0.155	52.512	-3.395	-7.744	0.188	-0.054	0.092	-0.570	-0.935	1.783	-0.258	0.354	0.058	-0.303	0.966	0.202	-1.865	-0.490	0.359	-1.295	
0.19253	0.00003	0.00009	449.265	-60.270	-135.156	-1.571	0.000	3.141	12695	0.339	52.630	-3.535	-7.862	0.164	-0.122	0.134	-0.774	-0.805	1.814	-0.100	0.576	0.092	-0.303	0.966	0.202	-1.865	-0.490	0.359	-1.295	
6.90173	0.01984	0.00049	449.490	-67.168	-135.129	-1.571	0.000	-3.141	12974	-1.516	52.687	-4.500	-7.468	0.151	-0.122	0.121	-2.004	-0.555	2.074	0.047	1.175	0.132	-0.316	0.967	0.202	-1.863	-0.488	0.361	-1.310	
2.86041	0.01402	0.00040	449.301	-70.022	-135.165	-1.571	0.000	3.142	13255	0.223	52.607	-3.418	-7.782	0.193	-0.123	0.079	-0.712	-0.807	1.742	-0.133	0.475	0.066	-0.325	0.968	0.202	-1.861	-0.486	0.362	-1.321	
0.03651	0.00006	0.00008	449.296	-70.058	-135.165	-1.571	0.000	3.141	13519	2.577	52.934	-2.263	-8.383	0.213	-0.130	0.134	-0.547	-0.758	1.746	-0.131	0.375	0.063	-0.325	0.968	0.202	-1.861	-0.486	0.362	-1.321	
3.70795	0.00869	0.00030	449.365	-73.765	-135.144	-1.571	0.000	-3.141	13755	3.354	51.583	0.644	-5.874	0.472	-1.819	-0.012	-2.174	-1.476	1.957	0.037	0.803	0.089	-0.330	0.968	0.202	-1.860	-0.485	0.363	-1.327	
3.72595	0.01686	0.00031	449.577	-77.484	-135.035	-1.571	0.000	-3.141	14034	4.113	49.224	1.927	-3.397	0.446	-2.686	-0.138	-6.656	-8.857	0.115	-0.689	0.810	-0.128	-0.341	0.968	0.203	-1.857	-0.483	0.364	-1.340	
0.31952	0.00054	0.00049	449.337	-77.656	-135.157	-1.571	-0.000	3.142	14267	1.120	51.376	-1.467	-5.758	0.372	-1.118	-0.130	-3.719	-8.743	0.325	-0.890	-0.142	-0.187	-0.341	0.969	0.202	-1.857	-0.483	0.364	-1.340	
3.15992	0.00904	0.00057	448.870	-74.535	-135.307	-1.571	-0.000	3.141	14550	0.708	52.782	-2.845	-7.903	0.419	0.040	-0.069	1.094	-1.592	1.044	-0.756	-0.875	-0.064	-0.336	0.968	0.202	-1.859	-0.485	0.363	-1.333	
1.98460	0.00813	0.00076	449.337	-72.614	-135.132	-1.571	0.000	-3.142	14830	-0.098	52.787	-3.382	-7.814	0.396	0.053	-0.026	0.627	-1.512	1.236	-0.701	-0.543	0.014	-0.330	0.968	0.202	-1.860	-0.485	0.363	-1.327	
0.03491	0.00007	0.00008	449.355	-72.585	-135.125	-1.571	0.000	-3.142	15026	-0.113	52.812	-3.382	-7.871	0.421	0.053	0.102	0.400	-1.494	1.251	-0.678	-0.440	0.029	-0.330	0.968	0.202	-1.860	-0.485	0.363	-1.327	
0.02079	0.03164	0.05123	449.354	-72.605	-135.125	-1.519	0.000	-3.142	15286	-0.156	52.764	-3.334	-7.785	0.333	0.015	0.242	0.409	-1.371	1.311	-0.550	-0.374	0.114	-0.330	0.968	0.202	-1.860	-0.485	0.363	-1.359	
0.00393	0.19003	0.20618	449.358	-72.604	-135.125	-1.313	0.000	-3.142	15589	-0.134	52.820	-3.374	-7.786	0.323	0.038	0.208	0.611	-1.173	1.318	-0.427	-0.444	0.122	-0.330	0.968	0.202	-1.860	-0.485	0.363	-1.549	
0.00295	0.15280	0.12712	449.360	-72.602	-135.125	-1.186	-0.000	-3.142	15872	-0.108	52.750	-3.391	-7.841	0.393	0.048	0.093	0.688	-1.184	1.320	-0.418	-0.465	0.138	-0.330	0.968	0.202	-1.860	-0.485	0.363	-1.702	
0.00086	0.01813	0.00805	449.361	-72.602	-135.124	-1.178	-0.000	-3.142	16110	-0.148	52.762	-3.388	-7.818	0.394	0.053	0.095	0.881	-1.186	1.261	-0.423	-0.584	0.075	-0.330	0.968	0.202	-1.860	-0.485	0.363	-1.720	
0.00036	0.00001	0.00000	449.361	-72.602	-135.125	-1.178	-0.000	-3.142	16315	0.106	52.613	-3.676	-7.554	0.151	-0.165	0.196	-0.174	-1.136	1.505	-0.398	0.024	0.135	-0.330	0.968	0.202	-1.860	-0.485	0.363	-1.720	
5.20754	0.01704	0.00028	451.387	-77.399	-135.118	-1.178	-0.000	-3.142	16591	0.278	53.005	-3.739	-7.981	0.133	-0.152	0.179	-1.389	-1.033	2.003	-0.313	1.035	0.159	-0.337	0.969	0.202	-1.853	-0.480	0.367	-1.732	
4.78297	0.02568	0.00026	453.127	-81.854	-135.154	-1.178	0.000	3.141	16869	0.388	53.180	-3.403	-8.143	0.195	-0.075	0.103	-0.420	-0.863	1.499	-0.281	0.467	0.088	-0.348	0.972	0.202	-1.844	-0.473	0.373	-1.751	
0.06270	0.00028	0.00009	453.066	-81.845	-135.164	-1.178	0.000	3.141	17103	0.421	52.976	-3.347	-8.096	0.194	-0.073	0.103	-0.526	-1.034	1.399	-0.357	0.524	0.090	-0.348	0.972	0.202	-1.844	-0.473	0.373	-1.751	
1.75346	0.00210	0.00052	453.916	-83.376	-135.081	-1.178	-0.000	-3.141	17353	0.411	53.165	-3.449	-8.366	0.163	-0.202	0.193	-1.348	-1.054	1.519	-0.311	1.178	0.177	-0.348	0.972	0.202	-1.843	-0.473	0.373	-1.753	
7.08554	0.02974	0.00021	456.556	-89.951	-135.125	-1.178	0.000	-3.142	17635	0.637	53.465	-3.216	-8.614	0.217	-0.128	0.120	-0.607	-0.831	1.902	-0.258	0.768	0.153	-0.360	0.976	0.202	-1.831	-0.464	0.381	-1.775	
1.16475	0.01022	0.00019	456.944	-91.049	-135.156	-1.178	0.000	3.141	17915	0.379	53.396	-3.454	-8.354	0.203	-0.127	0.116	-0.772	-1.113	1.652	-0.359	0.713	0.116	-0.364	0.977	0.202	-1.827	-0.461	0.384	-1.782	
0.02100	0.00007	0.00004	456.933	-91.066	-135.157	-1.178	0.000	3.141	18147	0.422	53.836	-3.472	-8.771	0.177	-0.157	0.189	-1.543	-1.011	1.607	-0.317	1.177	0.171	-0.364	0.977	0.202	-1.827	-0.461	0.384	-1.782	
6.15627	0.02036	0.00057	459.532	-96.647	-135.102	-1.178	-0.000	-3.141	18429	4.651	52.687	2.436	-6.707	0.882	-1.884	-0.113	-5.078	-6.912	1.394	-0.613	0.910	-0.009	-0.373	0.980	0.202	-1.819	-0.455	0.389	-1.797	
1.29092	0.01051	0.00033	459.962	-97.864	-135.103	-1.178	0.000	-3.142	18710	6.393	52.051	4.315	-5.917	1.022	-2.533	-0.121	-7.027	-12.035	1.051	-1.145	1.038	-0.072	-0.376	0.981	0.203	-1.815	-0.453	0.392	-1.804	
0.76064	0.00151	0.00082	459.409	-97.341	-135.110	-1.179	-0.000	3.141	18943	0.382	53.407	-2.289	-7.672	0.520	-0.362	-0.071	-0.915	-6.956	0.541	-0.749	-0.894	-0.149	-0.376	0.981	0.202	-1.815	-0.453	0.391	-1.803	
3.73290	0.01504	0.00040	457.816	-93.967	-135.230	-1.179	0.000	3.141	19224	-0.042	53.650	-3.405	-8.475	0.386	0.061	0.006	1.217	-1.211	1.321	-0.405	-0.830	-0.015	-0.371	0.979	0.202	-1.822	-0.457	0.388	-1.792	
0.66201	0.00442	0.00087	458.074	-93.368	-135.116	-1.178	-0.000	-3.141	19475	-0.036	53.589	-3.423	-8.408	0.391	0.064	0.007	1.062	-1.124	1.392	-0.394	-0.657	0.008	-0.368	0.978	0.202	-1.823	-0.458	0.386	-1.789	
0.01298	0.00017	0.00246	458.086	-93.368	-135.112	-1.176	-0.000	-3.141	19727	-0.116	53.662	-3.457	-8.438	0.394	0.062	0.228	0.752	-1.184	1.320	-0.424	-0.434	0.127	-0.368	0.978	0.202	-1.823	-0.458	0.386	-1.789	
0.00360	0.07941	0.10618	458.090	-93.367	-135.112	-1.069	-0.000	-3.141	20010	-0.036	53.728	-3.430	-8.395	0.386	0.057	0.206	0.836	-1.132	1.361	-0.377	-0.446	0.141	-0.368	0.978	0.202	-1.823	-0.458	0.386	-1.869	
0.01313	0.20292	0.20207	458.082	-93.357	-135.115	-0.867	-0.000	-3.141	20292	-0.081	53.740	-3.441	-8.435	0.417	0.070	0.127	1.117	-0.878	1.373	-0.230	-0.579	0.118	-0.368	0.978	0.202	-1.823	-0.458	0.386	-2.072	
0.00996	0.10694	0.08170	458.074	-93.362	-135.118	-0.786	-0.000	-3.141	20573	-0.099	53.708	-3.451	-8.412	0.404	0.072	0.075	1.245	-0.770	1.334	-0.163	-0.642	0.073	-0.368	0.978	0.202	-1.823	-0.459	0.386	-2.179	
0.00480	0.00300	0.00040	458.071	-93.366	-135.119	-0.785	-0.000	-3.141	20823	-0.095	53.695	-3.456	-8.412	0.401	0.070	0.074	1.255	-0.771	1.326	-0.164	-0.647	0.065	-0.368	0.978	0.202	-1.823	-0.459	0.386	-2.182	
0.41540	0.00005	0.00023	458.308	-93.707	-135.131	-0.785	-0.000	3.142	21071	0.812	54.063	-3.182	-8.641	0.181	-0.202	0.177	-0.275	-1.053	1.680	-0.472	0.496	0.135	-0.368	0.978	0.202	-1.823	-0.459	0.386	-2.182	
7.02640	0.03019	0.00020	463.266	-98.686	-135.167	-0.785	0.000	3.142	21354	0.046	54.168	-3.656	-8.565	0.176	-0.130	0.144	-0.608	-1.341	2.153	-0.645	0.765	0.140	-0.375	0.983	0.202	-1.807	-0.448	0.397	-2.201	
2.35286	0.01667	0.00020	464.891	-100.387	-135.164	-0.785	0.000	3.141	21625	0.472	54.169	-3.508	-8.835	0.192	-0.071	0.066	0.086	-1.345	1.636	-0.601	0.317	0.069	-0.378	0.986	0.202	-1.798	-0.442	0.403	-2.211	
0.05793	0.00007	0.00010	464.936	-100.419	-135.147	-0.785	0.000	3.141	21841	0.438	54.290	-3.617	-8.818	0.135	-0.135	0.157	-0.651	-1.551	1.940	-0.742	0.755	0.131	-0.378	0.986	0.202	-1.798	-0.442	0.403	-2.211	
5.24451	0.01865	0.00019	468.681	-104.091	-135.154	-0.785	-0.000	3.142	22110	0.518	54.281	-3.676	-8.792	0.129	-0.181	0.160	-0.703	-1.715	1.520	-0.845	0.928	0.160	-0.382	0.989	0.202	-1.787	-0.436	0.409	-2.222	
4.82150	0.02717	0.00009	472.087	-107.503	-135.151	-0.785	-0.000	3.142	22390	0.536	54.595	-3.481	-9.188	0.193	-0.111	0.068	-0.086	-1.368	1.504	-0.616	0.432	0.077	-0.387	0.994	0.202	-1.772	-0.427	0.419	-2.238	
0.05627	0.00027	0.00007	472.031	-107.495	-135.150	-0.785	0.000	3.142	22670	0.749	55.160	-3.425	-10.004	0.217	-0.056	0.101	-0.144	-1.390	1.534	-0.646	0.474	0.084	-0.387	0.994	0.202	-1.772	-0.427	0.419	-2.238	
3.07088	0.00798	0.00026	474.255	-109.613	-135.118	-0.785	-0.000	-3.142	22920	0.526	55.202	-3.125	-9.413	0.276	-0.283	0.110	-0.587	-1.436	1.693	-0.719	0.791	0.132	-0.389	0.995	0.202	-1.767	-0.424	0.422	-2.243	
5.88747	0.03136	0.00073	478.634	-113.548	-135.162	-0.785	0.000	-3.141	23202	5.317	55.930	2.514	-10.181	1.225	-0.814	-0.106	-4.292	-8.595	1.053	-1.160	0.562	-0.047	-0.395	1.001	0.203	-1.749	-0.414	0.434	-2.262	
0.39769	0.00149	0.00048	478.490	-113.918	-135.134	-0.785	0.000	3.141	23439	5.749	55.306	2.993	-9.576	1.214	-1.072	-0.149	-6.133	-10.703	0.305	-1.299	0.756	-0.087	-0.395	1.001	0.202	-1.748	-0.414	0.435	-2.262	
1.42670	0.00493	0.00087	477.259	-113.197	-135.130	-0.786	-0.000	3.141	23702	-0.380	55.466	-3.666	-9.124	0.473	0.109	-0.064	0.526	-3.473	0.983	-0.354	-0.763	-0.059	-0.395	1.000	0.202	-1.751	-0.415	0.432	-2.259	
3.49397	0.01569	0.00060	474.997	-110.534	-135.130	-0.785	-0.000	-3.142	23985	-0.108	55.117	-3.442	-9.413	0.434	0.102	-0.057	1.720	-0.530	1.251	-0.024	-0.907	-0.037	-0.392	0.997	0.202	-1.760	-0.420	0.427	-2.250	
0.19010	0.00186	0.00020	475.133	-110.402	-135.113	-0.785	-0.000	-3.141	24217	-0.008	55.340	-3.529	-9.333	0.413	0.098	-0.053	1.568	-0.702	1.229	-0.117	-0.797	-0.032	-0.391	0.997	0.202	-1.761	-0.421	0.426	-2.249	
0.02551	0.00278	0.00968	475.109	-110.409	-135.119	-0.776	-0.000	-3.141	24421	-0.007	55.294	-3.515	-9.393	0.497	0.090	0.218	1.273	-0.917	1.419	-0.251	-0.577	0.109	-0.391	0.997	0.202	-1.761	-0.421	0.426	-2.252	
0.00821	0.10572	0.13088	475.102	-110.407	-135.121	-0.645	-0.000	-3.141	24701	-0.128	55.239	-3.544	-9.359	0.408	0.076	0.203	1.423	-0.554	1.363	-0.065	-0.613	0.106	-0.391	0.997	0.202	-1.761	-0.421	0.426	-2.358	
0.01544	0.20145	0.19450	475.096	-110.393	-135.124	-0.450	-0.000	-3.142	24980	-0.069	55.289	-3.514	-9.371	0.456	0.071	0.135	1.458	-0.395	1.352	0.016	-0.597	0.122	-0.391	0.997	0.202	-1.761	-0.421	0.426	-2.559	
0.01871	0.08219	0.05769	475.086	-110.408	-135.127	-0.393	-0.000	3.142	25261	-0.039	55.274	-3.526	-9.378	0.459	0.075	0.102	1.508	-0.379	1.362	0.032	-0.615	0.113	-0.391	0.997	0.202	-1.761	-0.421	0.426	-2.641	
0.00860	0.00038	0.00011	475.084	-110.417	-135.127	-0.393	-0.000	3.142	25546	-0.052	55.243	-3.538	-9.369	0.458	0.078	0.096	1.524	-0.343	1.350	0.054	-0.628	0.097	-0.391	0.997	0.202	-1.761	-0.421	0.426	-2.642	
1.64204	0.00242	0.00036	476.600	-111.046	-135.153	-0.393	-0.000	3.142	25754	0.101	55.426	-3.698	-9.262	0.134	-0.237	0.153	0.851	-0.498	1.355	-0.196	-0.001	0.060	-0.391	0.998	0.202	-1.759	-0.420	0.427	-2.643	
7.07652	0.03221	0.00017	483.142	-113.745	-135.135	-0.393	-0.000	3.142	26034	0.401	56.077	-3.355	-9.938	0.257	-0.099	0.114	0.803	-0.726	1.891	-0.358	0.033	0.062	-0.392	1.005	0.202	-1.738	-0.409	0.441	-2.657	
1.17861	0.01124	0.00026	484.216	-114.229	-135.123	-0.393	-0.000	3.141	26314	0.148	55.909	-3.601	-9.860	0.245	-0.094	0.106	0.820	-0.710	1.576	-0.316	-0.059	0.071	-0.392	1.007	0.202	-1.730	-0.405	0.446	-2.662	
0.01477	0.00003	0.00002	484.228	-114.234	-135.115	-0.393	-0.000	3.141	26547	0.199	55.957	-3.644	-10.305	0.177	-0.130	0.146	0.365	-0.899	1.358	-0.461	0.208	0.077	-0.392	1.007	0.202	-1.730	-0.405	0.446	-2.662	
6.07529	0.02198	0.00030	489.851	-116.533	-135.153	-0.392	-0.000	3.142	26827	0.302	56.413	-3.623	-9.502	0.129	-0.230	0.138	0.129	-0.857	1.447	-0.488	0.310	0.082	-0.392	1.012	0.202	-1.715	-0.398	0.455	-2.671	
3.86347	0.02323	0.00042	493.409	-118.038	-135.153	-0.393	0.000	3.141	27109	0.441	56.554	-3.564	-10.245	0.215	-0.043	0.102	0.810	-1.096	1.527	-0.587	-0.048	0.073	-0.393	1.017	0.202	-1.699	-0.391	0.465	-2.681	
0.00650	0.00008	0.00001	493.404	-118.036	-135.149	-0.393	0.000	3.141	27359	0.336	56.808	-3.628	-10.610	0.210	-0.054	0.107	0.777	-1.007	1.483	-0.544	-0.047	0.074	-0.393	1.017	0.202	-1.699	-0.391	0.465	-2.681	
2.85408	0.00661	0.00033	496.052	-119.102	-135.111	-0.393	-0.000	3.142	27591	0.362	57.196	-3.699	-10.785	0.144	-0.116	0.148	0.246	-1.121	1.517	-0.640	0.311	0.098	-0.393	1.019	0.202	-1.694	-0.389	0.468	-2.684	
6.53208	0.03146	0.00063	502.135	-121.479	-135.223	-0.393	0.000	3.142	27873	4.490	59.135	0.849	-12.796	1.159	-0.040	-0.102	-2.584	-7.018	1.289	-0.986	0.238	-0.043	-0.393	1.026	0.202	-1.672	-0.380	0.482	-2.696	
0.49736	0.00559	0.00047	502.487	-121.821	-135.141	-0.393	-0.000	3.141	28117	4.673	59.534	1.200	-12.803	1.216	-0.115	-0.050	-2.488	-8.583	2.182	-0.989	0.085	-0.048	-0.393	1.028	0.202	-1.668	-0.378	0.485	-2.698	
2.82284	0.00427	0.00027	502.553	-121.906	-132.320	-0.393	-0.000	3.141	28387	3.264	61.278	0.235	-13.062	1.002	-0.207	0.032	-2.547	-7.476	2.511	-0.930	0.335	-0.028	-0.393	1.025	0.202	-1.669	-0.377	0.486	-2.699	
18.12155	0.05295	0.00062	502.570	-122.219	-114.201	-0.393	-0.001	3.141	28669	0.466	55.405	-3.421	-11.375	0.144	-0.188	0.135	0.701	-1.345	2.007	-0.563	0.054	0.059	-0.393	0.988	0.202	-1.683	-0.353	0.506	-2.717	
9.10730	0.03967	0.00067	502.508	-121.792	-105.104	-0.393	-0.000	3.141	28949	0.282	56.585	-3.499	-11.654	0.224	-0.076	0.110	1.123	-0.756	1.737	-0.384	-0.152	0.056	-0.393	0.960	0.202	-1.693	-0.336	0.523	-2.730	
0.04021	0.00061	0.00027	502.472	-121.787	-105.122	-0.393	-0.000	3.141	29175	0.360	56.477	-3.509	-11.621	0.413	-0.020	-0.091	1.336	-0.495	1.610	-0.201	-0.287	-0.066	-0.393	0.960	0.202	-1.693	-0.336	0.523	-2.730	
0.00212	0.11758	0.16558	502.471	-121.786	-105.122	-0.559	-0.000	3.141	29466	0.136	56.421	-3.427	-11.613	0.106	-0.090	-0.192	1.115	-0.840	1.728	-0.276	-0.246	-0.081	-0.393	0.960	0.202	-1.693	-0.336	0.523	-2.613	
0.00193	0.39051	0.41596	502.469	-121.786	-105.123	-0.975	-0.000	3.141	29746	0.203	56.516	-3.463	-11.713	0.243	-0.063	-0.122	0.648	-1.223	1.598	-0.385	-0.116	-0.081	-0.393	0.960	0.202	-1.693	-0.336	0.523	-2.222	
0.00234	0.43954	0.43963	502.467	-121.785	-105.123	-1.414	-0.000	3.142	30026	0.259	56.512	-3.488	-11.710	0.377	-0.086	0.102	0.041	-1.439	1.697	-0.444	0.053	-0.084	-0.393	0.960	0.202	-1.693	-0.336	0.523	-1.783	
0.00169	0.42730	0.40837	502.465	-121.785	-105.124	-1.823	-0.000	3.142	30307	0.262	56.410	-3.499	-11.680	0.421	-0.047	-0.190	-0.343	-1.413	1.640	-0.449	0.147	-0.106	-0.393	0.960	0.202	-1.693	-0.336	0.523	-1.356	
0.00081	0.19292	0.14095	502.464	-121.784	-105.124	-1.963	-0.000	-3.142	30585	0.253	56.477	-3.495	-11.691	0.259	-0.064	-0.070	-0.531	-1.297	1.670	-0.403	0.226	-0.066	-0.393	0.960	0.202	-1.693	-0.336	0.523	-1.163	
0.00010	0.00291	0.00000	502.464	-121.784	-105.124	-1.963	-0.000	-3.142	30826	0.234	56.487	-3.504	-11.677	0.267	-0.066	-0.174	-0.413	-1.347	1.643	-0.446	0.141	-0.111	-0.393	0.960	0.202	-1.693	-0.336	0.523	-1.160	
0.00102	0.07766	0.11764	502.463	-121.784	-105.124	-2.081	-0.000	-3.142	31098	0.214	56.401	-3.548	-11.658	0.020	-0.013	0.054	-0.756	-1.221	1.668	-0.409	0.256	-0.104	-0.393	0.960	0.202	-1.693	-0.336	0.523	-1.082	
0.00122	0.35955	0.39183	502.462	-121.784	-105.125	-2.473	-0.000	-3.142	31381	0.175	56.464	-3.435	-11.650	0.358	-0.075	-0.419	-1.237	-0.833	1.647	-0.305	0.410	-0.104	-0.393	0.960	0.202	-1.693	-0.336	0.523	-0.722	
0.00115	0.44296	0.44611	502.461	-121.783	-105.125	-2.919	-0.000	-3.141	31662	0.229	56.415	-3.460	-11.720	0.332	-0.023	-0.215	-1.451	-0.244	1.648	-0.146	0.481	-0.104	-0.393	0.960	0.202	-1.693	-0.336	0.523	-0.280	
0.00064	0.43954	0.42573	502.461	-121.783	-105.125	2.938	-0.000	-3.141	31944	0.261	56.502	-3.521	-11.699	0.240	-0.043	-0.163	-1.387	0.310	1.666	0.029	0.470	-0.103	-0.393	0.960	0.202	-1.693	-0.336	0.523	0.160	
0.00061	0.23986	0.18774	502.460	-121.783	-105.125	2.751	0.000	-3.141	32227	0.254	56.453	-3.498	-11.683	0.260	-0.060	-0.085	-1.330	0.482	1.647	0.082	0.445	-0.082	-0.393	0.960	0.202	-1.693	-0.336	0.523	0.400	
0.00014	0.01123	0.00176	502.460	-121.782	-105.125	2.749	0.000	-3.141	32492	0.306	54.835	-3.416	-11.705	0.414	0.067	-0.108	-1.346	0.520	1.932	0.086	0.459	-0.067	-0.393	0.960	0.202	-1.693	-0.336	0.523	0.411	
4.54247	0.00838	0.00006	502.422	-121.765	-109.667	2.749	-0.000	-3.141	32730	-0.118	57.585	-3.899	-11.523	0.567	0.135	-0.155	-1.111	0.729	-0.035	0.116	0.634	-0.015	-0.393	0.966	0.202	-1.691	-0.340	0.519	0.414	
18.90951	0.05802	0.00024	502.551	-121.825	-128.576	2.749	0.000	-3.141	33009	0.332	58.847	-3.845	-11.175	0.539	0.207	-0.131	-1.548	0.747	1.513	0.132	0.855	-0.002	-0.393	1.006	0.202	-1.676	-0.365	0.496	0.433	
6.57424	0.03117	0.00013	502.571	-121.824	-135.151	2.749	0.000	-3.141	33293	0.493	57.413	-3.595	-10.846	0.489	0.149	-0.075	-1.379	0.911	1.037	0.307	0.676	0.039	-0.393	1.028	0.202	-1.668	-0.379	0.485	0.444	
0.00571	0.00006	0.00002	502.577	-121.824	-135.153	2.749	0.000	-3.141	33519	0.609	57.640	-3.556	-10.462	0.527	0.160	-0.134	-2.028	0.813	1.291	0.199	0.946	0.003	-0.393	1.028	0.202	-1.668	-0.379	0.485	0.444	
2.80544	0.00989	0.00002	499.985	-120.753	-135.089	2.749	0.000	-3.141	33762	0.272	57.281	-3.810	-10.253	0.554	0.188	-0.126	-1.938	0.692	1.513	0.081	0.998	0.008	-0.393	1.025	0.202	-1.675	-0.381	0.480	0.447	
2.16999	0.01263	0.00012	497.984	-119.914	-135.109	2.749	0.000	-3.142	34042	0.372	57.160	-3.566	-10.571	0.524	0.006	-0.095	-1.519	0.650	1.654	0.057	0.642	0.024	-0.393	1.022	0.202	-1.684	-0.385	0.475	0.452	
0.05049	0.00024	0.00013	497.941	-119.907	-135.135	2.749	0.000	-3.141	34291	0.352	57.157	-3.625	-10.504	0.500	0.001	0.091	-1.443	0.734	1.582	0.102	0.598	0.029	-0.393	1.022	0.202	-1.684	-0.385	0.475	0.452	
0.00827	0.01957	0.03428	497.933	-119.906	-135.137	2.783	0.000	-3.141	34542	0.265	57.191	-3.609	-10.484	0.285	0.008	0.189	-1.401	0.903	1.609	0.275	0.553	0.168	-0.393	1.022	0.202	-1.684	-0.385	0.475	0.433	
0.00538	0.15240	0.17497	497.928	-119.904	-135.138	2.958	0.000	-3.141	34821	0.259	57.137	-3.669	-10.528	0.592	0.072	0.098	-1.580	0.688	1.582	0.205	0.618	0.188	-0.393	1.022	0.202	-1.684	-0.385	0.475	0.280	
0.00289	0.18198	0.16109	497.925	-119.903	-135.138	3.119	0.000	-3.141	35102	0.250	57.170	-3.635	-10.493	0.516	0.028	0.118	-1.636	0.486	1.577	0.116	0.635	0.181	-0.393	1.022	0.202	-1.684	-0.385	0.475	0.098	
0.00245	0.03855	0.02222	497.925	-119.900	-135.138	3.142	0.000	-3.141	35384	0.265	57.156	-3.647	-10.493	0.510	0.015	0.095	-1.613	0.410	1.587	0.077	0.619	0.159	-0.393	1.022	0.202	-1.684	-0.385	0.475	0.060	
0.00107	0.00005	0.00004	497.925	-119.899	-135.139	3.142	0.000	-3.141	35648	-0.390	56.584	-3.937	-11.437	0.349	0.034	0.119	-1.573	0.533	1.591	0.133	0.584	0.159	-0.393	1.022	0.202	-1.684	-0.385	0.475	0.060	
3.89881	0.01210	0.00019	501.824	-119.912	-135.173	3.142	-0.000	-3.141	35898	-0.552	57.399	-3.904	-10.797	0.134	-0.173	0.109	-0.647	-0.442	1.101	-0.339	0.108	-0.019	-0.391	1.025	0.202	-1.675	-0.381	0.480	0.057	
6.09548	0.02894	0.00007	507.919	-119.877	-135.158	3.142	0.000	-3.141	36179	-0.109	57.930	-3.753	-10.972	0.243	-0.118	0.101	-0.783	-0.276	1.255	-0.234	0.181	0.021	-0.386	1.033	0.202	-1.653	-0.373	0.494	0.050	
0.11985	0.00131	0.00021	507.802	-119.851	-135.150	-3.142	-0.000	-3.141	36461	0.016	57.741	-3.595	-10.974	0.254	-0.110	0.082	-0.820	-0.305	1.080	-0.278	0.211	0.004	-0.386	1.033	0.202	-1.652	-0.373	0.495	0.050	
1.84630	0.00202	0.00044	509.643	-119.961	-135.062	-3.142	0.000	-3.141	36709	-0.220	58.136	-3.625	-10.811	0.186	-0.232	0.118	-0.383	-0.484	1.148	-0.315	0.014	0.008	-0.386	1.033	0.202	-1.651	-0.372	0.495	0.050	
6.93066	0.03008	0.00034	516.573	-119.849	-135.133	-3.141	-0.000	-3.141	36991	-0.070	58.878	-3.691	-11.539	0.225	-0.104	0.097	-0.973	-0.421	1.482	-0.345	0.213	-0.018	-0.381	1.041	0.202	-1.628	-0.364	0.510	0.044	
1.24448	0.01036	0.00026	517.817	-119.870	-135.150	3.141	-0.000	-3.141	37272	-0.214	58.482	-3.773	-11.370	0.237	-0.098	0.090	-0.974	-0.385	1.291	-0.294	0.267	-0.002	-0.379	1.044	0.202	-1.620	-0.361	0.514	0.042	
0.00313	0.00001	0.00000	517.814	-119.869	-135.150	3.142	-0.000	-3.141	37504	-0.194	58.531	-3.659	-11.312	0.157	-0.154	0.116	-0.555	-0.350	1.553	-0.301	0.113	-0.000	-0.379	1.044	0.202	-1.620	-0.361	0.514	0.042	
5.19051	0.01682	0.00015	523.004	-119.842	-135.149	3.142	0.000	-3.141	37746	0.153	59.252	-3.622	-11.602	0.173	-0.222	0.104	-0.830	-0.497	0.960	-0.304	0.139	-0.016	-0.376	1.049	0.202	-1.607	-0.357	0.522	0.038	
4.86004	0.02599	0.00012	527.864	-119.858	-135.157	-3.142	-0.000	-3.141	38028	-0.079	59.174	-3.709	-11.815	0.234	-0.100	0.079	-0.966	-0.321	1.327	-0.225	0.264	-0.007	-0.372	1.056	0.202	-1.587	-0.351	0.534	0.034	
0.08111	0.00029	0.00014	527.789	-119.831	-135.170	-3.141	-0.000	-3.141	38307	-0.099	59.628	-3.754	-12.288	0.256	-0.067	0.079	-0.904	-0.326	1.217	-0.255	0.252	-0.012	-0.372	1.056	0.202	-1.588	-0.351	0.534	0.034	
2.60676	0.00545	0.00035	530.392	-119.943	-135.093	3.141	0.000	-3.141	38541	-0.223	60.283	-3.380	-13.587	0.390	0.271	0.081	-0.662	-0.341	1.391	-0.231	0.101	-0.007	-0.371	1.057	0.202	-1.583	-0.350	0.537	0.033	
5.67465	0.03035	0.00169	536.028	-119.408	-135.474	-3.141	-0.001	3.141	38822	4.859	64.820	0.883	-17.895	1.564	1.516	-0.153	6.385	8.095	1.359	0.307	-0.201	-0.213	-0.366	1.066	0.202	-1.560	-0.343	0.552	0.027	
1.21982	0.00382	0.00162	537.147	-119.811	-135.200	-3.141	0.000	-3.141	39036	6.555	65.407	2.642	-17.753	1.919	1.329	-0.194	5.911	12.435	4.470	0.644	0.018	-0.217	-0.366	1.067	0.202	-1.557	-0.342	0.553	0.027	
1.52771	0.00491	0.00104	535.712	-120.254	-134.917	3.141	0.001	-3.141	39308	0.742	60.351	-3.281	-12.352	0.632	0.227	-0.055	-0.516	4.540	1.685	0.254	0.798	-0.010	-0.367	1.065	0.202	-1.560	-0.343	0.550	0.028	
3.39705	0.01539	0.00034	532.316	-120.200	-134.965	3.141	0.001	-3.141	39594	0.280	59.890	-3.803	-12.193	0.495	0.107	-0.026	-1.812	0.375	1.265	0.098	0.777	0.062	-0.370	1.061	0.202	-1.572	-0.347	0.543	0.030	
0.39756	0.00159	0.00053	532.138	-119.902	-135.159	-3.141	0.000	-3.141	39874	0.393	59.713	-3.749	-11.978	0.484	0.098	0.006	-1.954	0.321	1.412	0.061	0.813	0.059	-0.369	1.061	0.202	-1.574	-0.347	0.543	0.030	
0.00831	0.00907	0.01948	532.139	-119.894	-135.158	-3.122	0.000	-3.141	40124	0.433	59.772	-3.768	-12.022	0.495	0.090	0.213	-1.884	0.499	1.523	0.217	0.764	0.180	-0.369	1.061	0.202	-1.574	-0.347	0.543	0.021	
0.01061	0.12847	0.15333	532.137	-119.884	-135.159	-2.969	0.000	-3.141	40404	0.359	59.756	-3.761	-12.086	0.518	0.054	0.024	-1.939	0.158	1.493	0.079	0.790	0.179	-0.369	1.061	0.202	-1.574	-0.347	0.543	-0.107	
0.00725	0.19641	0.18188	532.133	-119.878	-135.161	-2.787	0.000	-3.141	40686	0.375	59.784	-3.751	-12.031	0.496	0.083	0.158	-1.965	-0.110	1.512	-0.017	0.815	0.200	-0.369	1.061	0.202	-1.574	-0.347	0.543	-0.304	
0.00323	0.05855	0.03784	532.130	-119.876	-135.161	-2.749	0.000	-3.141	40968	0.390	59.784	-3.743	-12.018	0.486	0.090	0.102	-1.954	-0.237	1.501	-0.092	0.816	0.154	-0.369	1.061	0.202	-1.574	-0.347	0.543	-0.362	
0.00115	0.00000	0.00000	532.129	-119.875	-135.161	-2.749	0.000	-3.141	41220	-0.181	59.865	-4.029	-12.159	0.477	0.032	0.093	-1.960	-0.260	1.482	-0.110	0.819	0.147	-0.369	1.061	0.202	-1.574	-0.347	0.543	-0.362	
2.80219	0.00632	0.00029	534.700	-118.761	-135.130	-2.749	-0.000	-3.141	41453	-0.011	60.111	-3.688	-12.662	0.249	-0.126	0.048	-0.334	-0.821	1.338	-0.452	-0.041	-0.062	-0.367	1.062	0.202	-1.569	-0.346	0.546	-0.362	
6.87647	0.02635	0.00014	541.073	-116.178	-135.160	-2.749	-0.000	-3.141	41736	-0.117	60.114	-3.801	-12.749	0.339	-0.052	0.015	-0.383	-0.903	0.782	-0.491	0.028	-0.065	-0.358	1.069	0.202	-1.549	-0.340	0.557	-0.361	
0.23775	0.00507	0.00010	541.276	-116.055	-135.146	-2.749	-0.000	-3.141	42019	-0.130	60.064	-3.786	-12.412	0.328	-0.056	0.016	-0.812	-0.810	1.039	-0.455	0.201	-0.032	-0.357	1.071	0.202	-1.546	-0.339	0.560	-0.361	
0.72567	0.00007	0.00057	541.991	-115.956	-135.069	-2.749	0.000	-3.141	42264	-0.109	60.724	-3.721	-12.358	0.202	-0.234	-0.011	-0.653	-0.574	0.900	-0.287	0.058	-0.084	-0.357	1.071	0.202	-1.545	-0.339	0.560	-0.361	
7.01199	0.02444	0.00038	548.408	-113.130	-135.145	-2.749	-0.000	-3.141	42546	0.191	61.567	-3.695	-12.966	0.243	-0.076	-0.029	-0.567	-0.976	1.524	-0.470	0.002	-0.127	-0.349	1.078	0.202	-1.527	-0.334	0.571	-0.361	
2.29228	0.01368	0.00031	550.516	-112.232	-135.152	-2.749	-0.000	-3.141	42815	-0.110	61.033	-3.766	-12.810	0.252	-0.033	-0.023	-1.021	-0.893	1.334	-0.465	0.293	-0.091	-0.344	1.081	0.202	-1.517	-0.331	0.577	-0.360	
0.06029	0.00011	0.00010	550.554	-112.205	-135.113	-2.749	-0.000	-3.141	43029	-0.278	61.005	-3.627	-12.508	0.190	-0.224	-0.032	-0.184	-1.102	1.356	-0.605	-0.064	-0.114	-0.344	1.081	0.202	-1.517	-0.331	0.577	-0.360	
5.11094	0.01504	0.00012	555.286	-110.276	-135.151	-2.749	0.000	-3.141	43295	0.616	63.204	-3.301	-15.557	0.412	0.726	-0.124	-0.248	-0.228	1.031	-0.228	-0.068	-0.135	-0.340	1.086	0.202	-1.505	-0.329	0.584	-0.360	
4.58913	0.02368	0.00104	559.344	-108.148	-135.410	-2.749	-0.001	3.141	43577	2.246	66.012	-1.858	-18.699	0.975	1.821	-0.210	4.228	5.967	2.371	-0.083	-0.063	-0.273	-0.332	1.093	0.202	-1.488	-0.324	0.595	-0.359	
0.59393	0.00077	0.00114	559.837	-108.357	-135.152	-2.749	0.000	-3.141	43856	2.565	65.919	-1.528	-18.572	1.036	1.783	-0.201	3.495	7.188	2.785	0.067	-0.028	-0.256	-0.332	1.092	0.202	-1.487	-0.324	0.595	-0.359	
0.08220	0.00011	0.00012	559.903	-108.382	-135.110	-2.749	0.000	-3.141	44041	2.554	65.798	-1.500	-18.360	1.037	1.712	-0.192	3.218	6.959	2.538	0.014	0.014	-0.247	-0.332	1.092	0.202	-1.487	-0.324	0.595	-0.359	
0.04525	0.00005	0.00003	559.868	-108.412	-135.110	-2.749	0.000	-3.141	44276	0.980	62.440	-3.128	-14.294	0.774	0.532	-0.012	0.541	3.874	1.668	-0.160	0.435	-0.065	-0.332	1.092	0.202	-1.487	-0.324	0.595	-0.359	
3.17284	0.01088	0.00068	557.097	-109.935	-134.858	-2.749	0.001	-3.141	44554	-0.462	60.951	-4.150	-12.875	0.578	0.118	0.041	-2.385	-0.257	1.422	-0.137	0.997	0.138	-0.336	1.089	0.202	-1.495	-0.326	0.590	-0.359	
1.85445	0.00865	0.00059	555.316	-110.397	-135.093	-2.749	0.000	-3.141	44835	0.425	61.600	-3.742	-13.062	0.482	0.090	0.039	-1.925	-0.367	1.293	-0.167	0.790	0.096	-0.338	1.087	0.202	-1.502	-0.328	0.586	-0.359	
0.09981	0.00018	0.00020	555.255	-110.351	-135.157	-2.749	0.000	-3.141	45044	0.367	61.311	-3.818	-12.905	0.468	0.094	0.143	-1.975	-0.359	1.440	-0.164	0.817	0.096	-0.338	1.087	0.202	-1.502	-0.328	0.586	-0.360	
0.01084	0.01925	0.03502	555.257	-110.340	-135.157	-2.714	0.000	-3.141	45269	0.364	61.501	-3.834	-12.976	0.451	0.081	0.244	-1.955	-0.312	1.485	-0.083	0.816	0.184	-0.338	1.087	0.202	-1.502	-0.328	0.586	-0.379	
0.00835	0.15351	0.17724	555.260	-110.333	-135.154	-2.537	0.000	-3.141	45549	0.351	61.430	-3.765	-12.919	0.537	0.059	0.156	-1.846	-0.694	1.434	-0.253	0.772	0.181	-0.338	1.087	0.202	-1.502	-0.328	0.586	-0.532	
0.00454	0.18004	0.15724	555.262	-110.335	-135.151	-2.379	0.000	-3.141	45829	0.390	61.435	-3.753	-12.937	0.514	0.073	0.169	-1.787	-0.890	1.457	-0.331	0.758	0.202	-0.338	1.087	0.202	-1.502	-0.328	0.586	-0.712	
0.00111	0.03982	0.02322	555.262	-110.336	-135.150	-2.356	0.000	-3.141	46112	0.363	61.407	-3.777	-12.945	0.523	0.078	0.080	-1.677	-1.042	1.433	-0.425	0.694	0.134	-0.338	1.087	0.202	-1.502	-0.328	0.586	-0.752	
0.00016	0.00001	0.00000	555.262	-110.336	-135.150	-2.356	0.000	-3.141	46375	-1.750	61.380	-4.791	-13.879	0.522	0.064	0.023	-1.879	-0.923	1.419	-0.381	0.766	0.136	-0.338	1.087	0.202	-1.502	-0.328	0.586	-0.752	
3.72232	0.00816	0.00015	557.884	-107.693	-135.145	-2.356	-0.000	-3.141	46609	-0.294	61.342	-3.864	-13.338	0.240	-0.120	-0.100	0.237	-1.052	0.777	-0.491	-0.314	-0.171	-0.334	1.089	0.202	-1.497	-0.327	0.589	-0.750	
6.24577	0.02128	0.00025	562.258	-103.235	-135.164	-2.356	-0.000	-3.141	46891	-0.325	61.431	-3.933	-13.213	0.292	-0.111	-0.059	-0.186	-1.097	1.249	-0.493	-0.141	-0.126	-0.323	1.094	0.202	-1.483	-0.324	0.597	-0.744	
0.03972	0.00165	0.00012	562.229	-103.254	-135.145	-2.356	-0.000	-3.141	47141	-0.269	61.549	-3.838	-13.197	0.298	-0.110	-0.052	-0.191	-1.105	1.145	-0.496	-0.118	-0.112	-0.322	1.094	0.202	-1.482	-0.323	0.598	-0.743	
0.25464	0.00004	0.00027	562.438	-103.113	-135.107	-2.356	-0.000	-3.141	47376	0.183	61.885	-3.511	-12.994	0.209	-0.238	-0.085	0.153	-0.946	1.242	-0.443	-0.300	-0.174	-0.322	1.094	0.202	-1.482	-0.323	0.598	-0.743	
6.93921	0.01855	0.00011	567.389	-98.251	-135.101	-2.356	-0.000	-3.141	47658	1.426	62.102	-2.950	-13.073	0.234	-0.249	-0.086	0.195	-0.879	1.314	-0.428	-0.363	-0.195	-0.312	1.099	0.202	-1.470	-0.321	0.605	-0.738	
2.75766	0.01294	0.00047	569.269	-96.234	-135.159	-2.356	-0.000	-3.141	47937	-0.122	62.065	-3.739	-13.351	0.263	-0.063	-0.036	-0.398	-1.243	1.124	-0.561	-0.012	-0.118	-0.306	1.102	0.202	-1.461	-0.319	0.610	-0.735	
0.04702	0.00005	0.00008	569.274	-96.187	-135.162	-2.356	-0.000	-3.141	48202	-2.487	61.973	-4.854	-14.116	0.247	-0.122	-0.086	-0.429	-1.176	1.186	-0.532	0.000	-0.114	-0.306	1.102	0.202	-1.461	-0.319	0.610	-0.735	
3.94198	0.00821	0.00019	572.052	-93.391	-135.181	-2.356	-0.000	-3.141	48449	-0.203	62.310	-3.525	-13.549	0.244	-0.205	-0.109	0.045	-0.848	0.688	-0.359	-0.251	-0.184	-0.302	1.104	0.202	-1.456	-0.318	0.614	-0.733	
6.05642	0.02233	0.00021	576.287	-89.061	-135.220	-2.356	-0.000	-3.141	48732	0.052	63.018	-3.593	-14.449	0.377	0.212	-0.097	0.472	0.204	1.095	-0.384	-0.215	-0.158	-0.291	1.110	0.202	-1.441	-0.315	0.622	-0.727	
0.16127	0.00132	0.00023	576.373	-89.154	-135.120	-2.356	-0.000	-3.141	48982	-0.246	63.225	-3.875	-14.632	0.340	0.257	-0.097	0.740	-0.062	1.209	-0.457	-0.215	-0.157	-0.290	1.110	0.202	-1.440	-0.314	0.623	-0.727	
0.31600	0.00010	0.00037	576.565	-88.903	-135.123	-2.356	-0.000	-3.141	49170	3.322	67.093	-2.451	-18.537	0.331	2.010	-0.231	4.541	3.479	0.260	-0.200	-0.689	-0.332	-0.290	1.110	0.202	-1.440	-0.314	0.623	-0.727	
2.84857	0.01035	0.00055	578.401	-86.739	-135.368	-2.356	-0.000	3.142	49447	0.777	67.031	-3.359	-19.619	0.732	2.301	-0.223	3.578	6.819	2.242	-0.177	-0.234	-0.273	-0.285	1.114	0.202	-1.433	-0.313	0.627	-0.724	
0.32254	0.00049	0.00048	578.620	-86.878	-135.176	-2.356	-0.000	-3.141	49681	0.780	64.739	-3.324	-16.038	0.752	0.994	-0.013	1.892	5.251	1.132	-0.170	0.155	-0.109	-0.285	1.113	0.202	-1.433	-0.313	0.627	-0.724	
3.06591	0.00855	0.00127	576.949	-89.419	-134.795	-2.356	0.000	-3.140	49962	-0.565	62.704	-4.297	-14.029	0.570	0.186	0.082	-1.851	-1.033	1.370	-0.468	0.796	0.149	-0.289	1.110	0.202	-1.438	-0.314	0.623	-0.726	
2.05027	0.00774	0.00098	575.210	-90.452	-135.131	-2.356	-0.000	-3.141	50246	0.364	62.739	-3.775	-13.650	0.534	0.047	0.069	-1.626	-0.984	1.337	-0.405	0.635	0.120	-0.293	1.109	0.202	-1.444	-0.315	0.620	-0.728	
0.04484	0.00013	0.00011	575.196	-90.426	-135.165	-2.356	-0.000	-3.141	50465	0.219	62.690	-3.845	-13.697	0.534	0.039	0.127	-1.637	-0.948	1.393	-0.380	0.644	0.123	-0.293	1.109	0.202	-1.444	-0.315	0.620	-0.728	
0.01986	0.02139	0.03710	575.191	-90.445	-135.167	-2.319	-0.000	-3.141	50701	0.268	62.681	-3.824	-13.681	0.539	0.056	0.233	-1.713	-1.000	1.337	-0.369	0.719	0.205	-0.293	1.109	0.202	-1.444	-0.315	0.620	-0.750	
0.01379	0.15838	0.18139	575.193	-90.431	-135.169	-2.138	-0.000	-3.141	50983	0.222	62.720	-3.777	-13.603	0.504	0.051	0.164	-1.449	-1.343	1.356	-0.517	0.601	0.179	-0.293	1.109	0.202	-1.444	-0.315	0.620	-0.908	
0.02197	0.17856	0.15462	575.195	-90.410	-135.170	-1.983	-0.000	-3.141	51267	0.440	62.651	-3.713	-13.659	0.535	0.053	0.107	-1.177	-1.508	1.303	-0.587	0.485	0.156	-0.293	1.109	0.202	-1.444	-0.315	0.620	-1.087	
0.00924	0.03413	0.01936	575.193	-90.419	-135.170	-1.964	-0.000	-3.141	51548	0.297	62.655	-3.813	-13.656	0.535	0.051	0.078	-1.099	-1.556	1.372	-0.605	0.449	0.126	-0.293	1.109	0.202	-1.444	-0.315	0.620	-1.121	
0.00086	0.00001	0.00001	575.193	-90.419	-135.171	-1.964	-0.000	-3.141	51750	-1.887	62.688	-4.852	-13.950	0.502	0.045	-0.013	-1.207	-1.529	1.352	-0.591	0.486	0.121	-0.293	1.109	0.202	-1.444	-0.315	0.620	-1.121	
3.54044	0.00594	0.00019	576.585	-87.165	-135.094	-1.964	-0.000	-3.141	51983	0.000	62.202	-3.519	-13.549	0.301	-0.146	-0.102	0.443	-1.033	0.976	-0.427	-0.453	-0.173	-0.289	1.110	0.202	-1.442	-0.315	0.622	-1.117	
6.39979	0.01752	0.00029	578.988	-81.234	-135.171	-1.963	-0.000	-3.141	52266	-0.362	62.422	-3.720	-13.857	0.312	-0.127	-0.049	0.508	-1.192	1.189	-0.437	-0.455	-0.159	-0.277	1.112	0.202	-1.435	-0.314	0.626	-1.107	
0.17348	0.00168	0.00040	578.828	-81.168	-135.188	-1.964	-0.001	-3.142	52529	-0.304	62.621	-3.762	-13.813	0.315	-0.096	-0.047	0.389	-1.206	1.037	-0.469	-0.380	-0.129	-0.276	1.112	0.202	-1.435	-0.313	0.626	-1.106	
0.21045	0.00006	0.00025	578.985	-81.036	-135.141	-1.963	-0.000	-3.141	52762	-0.355	62.418	-3.641	-13.772	0.291	-0.186	-0.120	0.478	-1.037	0.840	-0.375	-0.479	-0.186	-0.276	1.112	0.202	-1.435	-0.313	0.626	-1.106	
6.85597	0.01459	0.00037	581.745	-74.760	-135.125	-1.964	-0.000	-3.141	53045	1.558	63.669	-2.677	-14.381	0.356	-0.155	-0.109	1.145	-1.117	1.211	-0.423	-0.760	-0.230	-0.266	1.115	0.202	-1.429	-0.312	0.629	-1.098	
2.96509	0.01071	0.00042	582.760	-71.974	-135.157	-1.964	-0.000	-3.141	53324	-0.401	63.005	-3.787	-13.957	0.343	-0.084	-0.069	0.238	-1.230	0.967	-0.496	-0.329	-0.135	-0.258	1.116	0.202	-1.425	-0.311	0.632	-1.092	
0.05015	0.00004	0.00009	582.770	-71.926	-135.149	-1.964	-0.000	-3.141	53592	-3.038	63.256	-5.136	-14.539	0.304	-0.028	-0.119	0.315	-1.251	1.051	-0.503	-0.359	-0.136	-0.258	1.116	0.202	-1.425	-0.311	0.632	-1.092	
3.85411	0.00664	0.00007	584.214	-68.352	-135.178	-1.964	-0.000	-3.141	53844	-1.207	65.551	-4.898	-17.606	0.169	1.554	-0.242	1.653	0.691	0.530	-0.264	-0.634	-0.248	-0.254	1.117	0.202	-1.423	-0.311	0.633	-1.089	
4.62421	0.01527	0.00124	585.421	-63.907	-135.582	-1.964	-0.001	3.141	54125	-0.960	67.979	-5.228	-20.504	0.291	2.918	-0.231	3.871	7.912	1.784	-0.067	-0.495	-0.292	-0.243	1.120	0.202	-1.417	-0.310	0.637	-1.080	
0.66744	0.00085	0.00122	585.996	-63.920	-135.243	-1.964	-0.000	-3.141	54342	0.032	67.262	-4.439	-20.098	0.634	2.813	-0.108	4.448	11.205	2.404	0.227	-0.318	-0.284	-0.244	1.120	0.202	-1.417	-0.310	0.637	-1.080	
2.58881	0.00504	0.00117	585.667	-66.448	-134.790	-1.963	-0.000	-3.140	54623	0.106	62.924	-3.952	-13.766	0.530	0.080	0.094	-1.260	-0.780	1.540	-0.625	0.724	0.135	-0.247	1.118	0.202	-1.418	-0.310	0.635	-1.083	
2.51713	0.00772	0.00074	584.351	-68.572	-135.092	-1.963	-0.000	-3.141	54903	0.188	63.247	-3.869	-13.968	0.469	0.039	0.047	-1.031	-1.413	1.474	-0.475	0.410	0.098	-0.252	1.117	0.202	-1.421	-0.311	0.633	-1.087	
0.23591	0.00069	0.00051	584.133	-68.529	-135.171	-1.963	-0.000	-3.141	55169	0.368	63.247	-3.768	-13.941	0.462	0.028	0.111	-1.101	-1.593	1.470	-0.582	0.472	0.082	-0.252	1.118	0.202	-1.422	-0.311	0.634	-1.087	
0.03550	0.01751	0.03236	584.127	-68.494	-135.174	-1.931	-0.000	-3.142	55403	0.227	63.200	-3.869	-13.938	0.423	0.006	0.170	-1.049	-1.539	1.452	-0.525	0.495	0.140	-0.252	1.118	0.202	-1.422	-0.311	0.634	-1.105	
0.01148	0.15122	0.17353	584.125	-68.483	-135.176	-1.758	-0.000	-3.142	55685	0.388	63.231	-3.745	-13.874	0.463	0.016	0.169	-0.834	-1.725	1.472	-0.606	0.436	0.163	-0.252	1.118	0.202	-1.422	-0.311	0.634	-1.256	
0.02863	0.18325	0.16266	584.120	-68.511	-135.177	-1.595	-0.000	3.142	55967	0.284	63.133	-3.837	-13.906	0.449	0.007	0.153	-0.592	-1.746	1.467	-0.615	0.368	0.170	-0.252	1.118	0.202	-1.422	-0.311	0.634	-1.439	
0.00554	0.04084	0.02425	584.120	-68.506	-135.178	-1.571	-0.000	3.142	56249	0.282	63.188	-3.842	-13.927	0.442	0.010	0.109	-0.497	-1.793	1.483	-0.635	0.313	0.125	-0.252	1.118	0.202	-1.422	-0.311	0.634	-1.480	
0.00181	0.00003	0.00001	584.119	-68.504	-135.178	-1.571	-0.000	3.142	56515	-1.918	63.441	-4.855	-13.876	0.405	0.081	0.018	-0.678	-1.829	1.487	-0.648	0.372	0.119	-0.252	1.118	0.202	-1.422	-0.311	0.634	-1.480	
3.59179	0.00633	0.00040	584.180	-64.913	-135.145	-1.571	-0.000	-3.142	56749	-0.755	63.186	-4.066	-13.987	0.535	0.132	-0.083	1.325	-1.998	1.253	-0.856	-0.894	-0.108	-0.248	1.117	0.202	-1.423	-0.311	0.633	-1.476	
6.40448	0.01712	0.00018	584.163	-58.508	-135.157	-1.571	-0.000	-3.141	57030	-0.446	62.930	-3.871	-13.920	0.549	0.098	-0.036	1.000	-2.058	1.433	-0.853	-0.704	-0.065	-0.237	1.116	0.202	-1.425	-0.311	0.631	-1.463	
0.03795	0.00162	0.00010	584.197	-58.496	-135.148	-1.571	-0.000	-3.141	57296	-0.366	63.072	-3.816	-13.871	0.544	0.081	-0.031	0.985	-1.956	1.292	-0.806	-0.696	-0.059	-0.236	1.116	0.202	-1.426	-0.311	0.631	-1.462	
0.20402	0.00006	0.00007	584.209	-58.293	-135.149	-1.571	-0.000	-3.141	57530	-0.493	63.040	-3.872	-13.826	0.562	0.110	-0.086	1.446	-1.932	1.188	-0.834	-0.959	-0.116	-0.236	1.116	0.202	-1.426	-0.311	0.631	-1.462	
6.81340	0.01449	0.00017	584.271	-51.480	-135.167	-1.571	-0.000	-3.141	57811	1.421	63.036	-2.844	-13.898	0.607	0.080	-0.065	1.428	-1.945	1.188	-0.852	-0.970	-0.123	-0.226	1.115	0.202	-1.428	-0.312	0.630	-1.452	
2.94983	0.01026	0.00013	584.246	-48.530	-135.124	-1.571	-0.000	-3.141	58090	-0.524	63.221	-3.936	-13.907	0.558	0.092	-0.041	0.946	-1.876	1.336	-0.800	-0.680	-0.060	-0.219	1.115	0.202	-1.429	-0.312	0.629	-1.444	
0.04437	0.00007	0.00009	584.274	-48.497	-135.118	-1.571	-0.000	-3.141	58308	-3.038	62.814	-4.975	-13.423	0.504	0.078	-0.076	0.966	-1.907	1.287	-0.802	-0.704	-0.065	-0.219	1.115	0.202	-1.429	-0.312	0.629	-1.444	
3.80412	0.00641	0.00026	584.163	-44.695	-135.166	-1.571	-0.000	-3.142	58556	-0.434	63.139	-3.658	-13.702	0.590	0.090	-0.091	1.145	-2.176	1.202	-0.929	-0.879	-0.111	-0.215	1.114	0.202	-1.430	-0.312	0.629	-1.440	
6.21884	0.01700	0.00038	584.275	-38.477	-135.145	-1.571	-0.000	-3.141	58836	-0.507	62.969	-3.876	-13.815	0.557	0.091	-0.054	1.085	-2.054	1.341	-0.875	-0.785	-0.086	-0.203	1.114	0.202	-1.432	-0.313	0.628	-1.428	
0.04967	0.00128	0.00017	584.232	-38.500	-135.158	-1.571	-0.000	-3.141	59085	-0.430	62.982	-3.813	-13.778	0.553	0.073	-0.046	1.075	-1.971	1.317	-0.829	-0.773	-0.078	-0.202	1.114	0.202	-1.432	-0.313	0.627	-1.427	
0.22665	0.00006	0.00010	584.227	-38.273	-135.166	-1.571	-0.000	-3.141	59318	-0.324	62.946	-3.619	-13.702	0.556	0.089	-0.085	1.024	-2.166	1.225	-0.912	-0.814	-0.118	-0.202	1.114	0.202	-1.432	-0.313	0.627	-1.427	
6.82821	0.01433	0.00036	584.103	-31.446	-135.161	-1.571	-0.000	3.142	59599	1.541	62.910	-2.677	-13.809	0.634	0.077	-0.095	1.244	-2.273	1.368	-0.988	-0.958	-0.143	-0.192	1.113	0.202	-1.433	-0.313	0.627	-1.416	
2.92695	0.01018	0.00045	584.259	-28.524	-135.151	-1.571	-0.000	-3.141	59882	-0.423	62.942	-3.774	-13.759	0.558	0.066	-0.069	0.976	-1.958	1.232	-0.826	-0.741	-0.091	-0.185	1.113	0.202	-1.434	-0.313	0.626	-1.409	
0.03492	0.00005	0.00005	584.251	-28.490	-135.151	-1.571	-0.000	-3.141	60149	-2.843	62.841	-4.880	-13.591	0.512	0.073	-0.108	1.124	-1.954	1.234	-0.824	-0.795	-0.095	-0.185	1.113	0.202	-1.434	-0.313	0.626	-1.409	
3.50514	0.00560	0.00029	584.187	-24.985	-135.174	-1.571	-0.000	-3.142	60381	-0.975	62.903	-3.982	-13.709	0.565	0.114	-0.081	1.451	-2.095	1.198	-0.938	-1.029	-0.142	-0.181	1.113	0.202	-1.434	-0.313	0.626	-1.405	
6.44104	0.01709	0.00022	584.247	-18.545	-135.141	-1.571	-0.000	-3.141	60662	-0.468	62.841	-3.811	-13.772	0.565	0.101	-0.071	1.304	-2.029	1.173	-0.900	-0.895	-0.110	-0.169	1.112	0.202	-1.435	-0.313	0.626	-1.393	
0.03593	0.00169	0.00007	584.222	-18.523	-135.155	-1.571	-0.000	-3.141	60929	-0.544	62.962	-3.848	-13.773	0.556	0.095	-0.064	1.131	-1.968	1.128	-0.870	-0.821	-0.100	-0.168	1.112	0.202	-1.435	-0.314	0.625	-1.392	
0.25605	0.00008	0.00016	584.222	-18.267	-135.159	-1.571	-0.000	-3.141	61117	-0.669	63.201	-3.846	-13.898	0.547	0.117	-0.100	1.125	-1.948	1.046	-0.886	-0.913	-0.150	-0.168	1.112	0.202	-1.435	-0.314	0.625	-1.392	
6.79587	0.01424	0.00016	584.241	-11.471	-135.135	-1.571	-0.000	-3.141	61398	1.596	62.955	-2.619	-13.839	0.604	0.079	-0.093	1.882	-2.049	1.145	-0.944	-1.208	-0.157	-0.158	1.112	0.202	-1.436	-0.314	0.625	-1.381	
2.95161	0.01008	0.00025	584.243	-8.519	-135.132	-1.571	-0.000	-3.141	61680	-0.629	62.775	-3.835	-13.714	0.547	0.098	-0.050	1.052	-1.988	1.118	-0.886	-0.779	-0.086	-0.151	1.112	0.202	-1.436	-0.314	0.625	-1.374	
0.05094	0.00005	0.00009	584.244	-8.469	-135.135	-1.571	-0.000	-3.141	61943	-3.203	62.723	-5.064	-13.571	0.497	0.121	-0.106	1.075	-1.975	1.149	-0.881	-0.790	-0.091	-0.151	1.112	0.202	-1.436	-0.314	0.625	-1.374	
3.75798	0.00624	0.00014	584.206	-4.711	-135.167	-1.571	-0.000	-3.141	62192	-0.493	62.949	-3.660	-13.735	0.563	0.093	-0.102	1.309	-2.104	1.175	-0.956	-1.004	-0.156	-0.147	1.112	0.202	-1.436	-0.314	0.625	-1.370	
6.24228	0.01666	0.00005	584.189	1.531	-135.185	-1.571	-0.000	-3.141	62473	-0.614	62.876	-3.826	-13.762	0.558	0.100	-0.025	1.203	-2.002	1.141	-0.903	-0.868	-0.089	-0.135	1.112	0.202	-1.436	-0.314	0.625	-1.358	
0.01877	0.00126	0.00019	584.192	1.513	-135.186	-1.571	-0.000	-3.141	62722	-0.683	62.887	-3.881	-13.763	0.548	0.095	-0.025	1.140	-1.966	1.120	-0.888	-0.844	-0.082	-0.134	1.112	0.202	-1.436	-0.314	0.625	-1.357	
0.24189	0.00005	0.00007	584.193	1.755	-135.186	-1.571	-0.000	-3.141	62954	-0.645	62.920	-3.708	-13.670	0.548	0.077	-0.129	1.049	-2.041	1.043	-0.926	-0.912	-0.159	-0.134	1.112	0.202	-1.436	-0.314	0.625	-1.357	
6.86240	0.01419	0.00019	584.204	8.617	-135.165	-1.571	-0.000	-3.141	63237	1.144	62.884	-2.870	-13.950	0.585	-0.004	-0.078	2.010	-1.689	0.950	-0.802	-1.291	-0.170	-0.124	1.112	0.202	-1.436	-0.314	0.625	-1.347	
2.88393	0.00998	0.00018	584.214	11.501	-135.175	-1.571	-0.000	-3.141	63518	-0.634	62.798	-3.795	-13.728	0.541	0.012	-0.031	1.110	-1.627	1.142	-0.698	-0.815	-0.080	-0.117	1.112	0.202	-1.436	-0.314	0.625	-1.340	
0.04442	0.00004	0.00008	584.212	11.545	-135.176	-1.571	-0.000	-3.141	63785	-3.148	62.770	-5.015	-13.646	0.495	0.030	-0.091	1.151	-1.631	1.154	-0.703	-0.840	-0.083	-0.117	1.112	0.202	-1.436	-0.314	0.625	-1.340	
3.64950	0.00582	0.00025	584.169	15.194	-135.177	-1.571	-0.000	-3.141	64035	-0.703	62.918	-3.772	-13.867	0.521	-0.037	-0.105	1.735	-1.438	0.932	-0.635	-1.205	-0.186	-0.113	1.112	0.202	-1.436	-0.314	0.625	-1.336	
6.31225	0.01674	0.00025	584.282	21.506	-135.209	-1.571	-0.000	-3.141	64317	-0.581	62.551	-3.821	-13.806	0.489	-0.041	-0.051	1.348	-1.372	1.166	-0.573	-0.928	-0.122	-0.101	1.112	0.202	-1.435	-0.313	0.626	-1.324	
0.02956	0.00146	0.00003	584.283	21.494	-135.182	-1.571	-0.000	-3.141	64582	-0.641	62.736	-3.830	-13.819	0.488	-0.043	-0.048	1.290	-1.379	1.061	-0.575	-0.909	-0.119	-0.100	1.112	0.202	-1.435	-0.313	0.626	-1.323	
0.22829	0.00005	0.00010	584.274	21.722	-135.180	-1.571	-0.000	-3.141	64815	-0.708	62.568	-3.787	-13.715	0.452	-0.095	-0.106	1.633	-1.318	1.036	-0.558	-1.124	-0.184	-0.100	1.112	0.202	-1.435	-0.313	0.626	-1.323	
6.78967	0.01402	0.00040	584.112	28.509	-135.205	-1.571	-0.000	3.142	65096	0.901	62.962	-2.977	-14.041	0.437	-0.119	-0.086	1.648	-1.113	0.955	-0.462	-1.156	-0.230	-0.090	1.113	0.202	-1.434	-0.313	0.627	-1.314	
2.97058	0.01004	0.00011	584.158	31.480	-135.202	-1.571	-0.000	-3.142	65377	-0.671	62.841	-3.813	-13.840	0.390	-0.100	-0.062	1.140	-1.202	1.189	-0.451	-0.805	-0.156	-0.082	1.113	0.202	-1.433	-0.313	0.627	-1.307	
0.04594	0.00008	0.00004	584.137	31.520	-135.206	-1.571	-0.000	3.142	65642	-3.054	62.662	-4.942	-13.741	0.343	-0.070	-0.094	1.225	-1.176	1.085	-0.446	-0.837	-0.151	-0.082	1.113	0.202	-1.433	-0.313	0.627	-1.306	
3.42275	0.00535	0.00047	584.320	34.937	-135.131	-1.571	-0.000	-3.141	65877	-1.207	62.786	-3.956	-13.781	0.342	-0.131	-0.117	2.064	-1.167	0.861	-0.463	-1.288	-0.241	-0.079	1.113	0.202	-1.433	-0.313	0.627	-1.303	
6.51230	0.01667	0.00002	584.291	41.449	-135.179	-1.571	-0.000	-3.141	66156	-0.707	62.578	-3.851	-13.811	0.345	-0.119	-0.043	1.504	-1.075	1.142	-0.399	-0.956	-0.179	-0.067	1.114	0.202	-1.431	-0.313	0.628	-1.291	
0.14070	0.00196	0.00042	584.157	41.482	-135.204	-1.571	-0.000	-3.142	66421	-0.687	62.631	-3.812	-13.810	0.354	-0.060	-0.037	1.375	-1.230	1.034	-0.494	-0.892	-0.159	-0.065	1.114	0.202	-1.431	-0.313	0.628	-1.290	
0.31866	0.00010	0.00012	584.137	41.800	-135.200	-1.571	-0.000	-3.142	66657	-0.788	62.709	-3.709	-13.884	0.338	-0.134	-0.109	1.802	-1.128	0.775	-0.453	-1.157	-0.237	-0.065	1.114	0.202	-1.431	-0.313	0.628	-1.290	
6.90897	0.01439	0.00045	584.317	48.707	-135.175	-1.571	-0.000	-3.141	66938	1.141	62.962	-2.735	-13.966	0.371	-0.161	-0.098	1.791	-1.198	1.040	-0.456	-1.181	-0.256	-0.055	1.115	0.202	-1.429	-0.312	0.629	-1.280	
2.77371	0.00956	0.00050	584.145	51.475	-135.204	-1.571	-0.000	3.142	67217	-0.788	63.043	-3.875	-13.952	0.322	-0.063	-0.051	1.346	-1.246	0.949	-0.506	-0.858	-0.176	-0.048	1.115	0.202	-1.428	-0.312	0.630	-1.274	
0.03661	0.00005	0.00003	584.150	51.511	-135.200	-1.571	-0.000	3.142	67437	-3.491	62.966	-5.040	-13.837	0.287	-0.064	-0.113	1.377	-1.245	0.946	-0.515	-0.897	-0.180	-0.048	1.115	0.202	-1.428	-0.312	0.630	-1.274	
3.74165	0.00622	0.00017	584.221	55.252	-135.148	-1.571	-0.000	-3.141	67690	-1.475	62.682	-4.035	-13.714	0.289	-0.186	-0.118	2.194	-1.122	1.127	-0.460	-1.338	-0.269	-0.043	1.115	0.202	-1.427	-0.312	0.630	-1.270	
6.31078	0.01650	0.00018	584.190	61.562	-135.200	-1.571	-0.000	-3.141	67971	-0.651	62.811	-3.771	-13.840	0.353	-0.062	-0.071	1.325	-1.156	0.912	-0.460	-0.880	-0.191	-0.032	1.116	0.202	-1.424	-0.311	0.632	-1.259	
0.08247	0.00129	0.00019	584.145	61.493	-135.204	-1.571	-0.000	3.142	68222	-0.715	62.992	-3.784	-13.910	0.357	-0.065	-0.064	1.417	-1.303	0.897	-0.552	-0.931	-0.184	-0.031	1.117	0.202	-1.424	-0.311	0.632	-1.258	
0.23026	0.00003	0.00017	584.137	61.723	-135.198	-1.571	-0.000	-3.142	68460	-0.940	63.096	-3.912	-14.178	0.324	-0.110	-0.121	1.655	-1.149	0.714	-0.479	-1.158	-0.250	-0.031	1.117	0.202	-1.424	-0.311	0.632	-1.258	
6.83793	0.01379	0.00020	584.167	68.561	-135.218	-1.571	-0.000	-3.141	68740	1.428	63.244	-2.617	-14.093	0.348	-0.118	-0.090	2.312	-1.186	0.953	-0.460	-1.362	-0.269	-0.021	1.117	0.202	-1.422	-0.311	0.633	-1.249	
2.91807	0.01022	0.00029	584.174	71.479	-135.211	-1.571	-0.000	-3.142	69021	-0.808	63.133	-3.824	-13.988	0.308	-0.111	-0.057	1.344	-1.381	1.205	-0.528	-0.886	-0.195	-0.013	1.118	0.202	-1.420	-0.310	0.635	-1.242	
0.04268	0.00006	0.00003	584.166	71.521	-135.211	-1.571	-0.000	-3.142	69287	-3.500	63.170	-5.034	-13.909	0.274	-0.098	-0.100	1.317	-1.304	1.116	-0.503	-0.892	-0.190	-0.013	1.118	0.202	-1.420	-0.310	0.635	-1.242	
3.79481	0.00609	0.00042	584.308	75.313	-135.155	-1.571	-0.000	-3.141	69537	-1.137	62.684	-3.882	-13.685	0.278	-0.211	-0.106	2.051	-1.149	1.054	-0.454	-1.292	-0.280	-0.009	1.119	0.202	-1.419	-0.310	0.635	-1.238	
6.26395	0.01664	0.00025	584.220	81.576	-135.235	-1.571	-0.000	-3.141	69821	-0.785	63.375	-3.831	-14.147	0.312	-0.126	-0.062	1.426	-1.264	1.131	-0.460	-0.920	-0.201	0.003	1.120	0.202	-1.416	-0.310	0.637	-1.227	
0.09653	0.00115	0.00028	584.155	81.505	-135.244	-1.571	-0.000	-3.141	70069	-0.816	63.156	-3.803	-14.000	0.318	-0.139	-0.057	1.492	-1.333	1.179	-0.506	-0.983	-0.202	0.004	1.120	0.202	-1.415	-0.309	0.637	-1.226	
0.39737	0.00015	0.00019	584.246	81.888	-135.189	-1.571	-0.000	-3.141	70273	-0.940	63.357	-3.829	-14.164	0.295	-0.188	-0.093	1.688	-1.166	0.849	-0.443	-1.159	-0.253	0.004	1.120	0.202	-1.415	-0.309	0.637	-1.226	
6.90107	0.01475	0.00038	584.139	88.788	-135.208	-1.571	-0.000	-3.142	70553	0.643	63.240	-3.051	-14.202	0.319	-0.148	-0.088	2.104	-1.221	0.964	-0.480	-1.348	-0.295	0.014	1.121	0.202	-1.412	-0.309	0.639	-1.217	
2.70596	0.00929	0.00029	584.183	91.494	-135.208	-1.571	-0.000	-3.142	70834	-0.850	63.441	-3.825	-14.130	0.332	-0.131	-0.074	1.386	-1.396	1.223	-0.541	-0.939	-0.202	0.021	1.122	0.202	-1.410	-0.308	0.641	-1.211	
0.02475	0.00003	0.00004	584.184	91.517	-135.200	-1.571	-0.000	-3.142	71086	-3.464	63.423	-5.038	-14.096	0.285	-0.112	-0.113	1.375	-1.383	1.159	-0.544	-0.951	-0.205	0.021	1.122	0.202	-1.410	-0.308	0.641	-1.211	
3.64470	0.00594	0.00034	583.957	95.153	-135.323	-1.571	-0.000	3.141	71333	-1.335	66.714	-4.977	-18.984	0.276	2.258	-0.150	5.176	4.703	0.212	-0.143	-1.595	-0.348	0.025	1.123	0.202	-1.408	-0.308	0.641	-1.207	
0.80242	0.00480	0.00018	584.023	95.952	-135.340	-1.571	-0.000	3.141	71614	-1.862	68.668	-5.656	-20.860	0.237	2.982	-0.198	4.591	8.546	2.127	-0.095	-1.041	-0.330	0.029	1.123	0.202	-1.407	-0.308	0.642	-1.204	
0.92279	0.00067	0.00066	584.392	95.132	-135.130	-1.571	-0.000	-3.141	71846	-0.015	64.325	-4.104	-15.271	0.440	0.615	0.046	1.057	3.493	1.524	-0.406	0.045	-0.033	0.028	1.123	0.202	-1.407	-0.308	0.642	-1.205	
3.54135	0.00867	0.00053	584.658	91.607	-134.922	-1.571	-0.000	-3.141	72129	0.091	63.523	-3.753	-13.984	0.503	0.012	0.016	-0.259	-2.195	1.515	-0.893	0.038	0.049	0.022	1.122	0.202	-1.409	-0.308	0.641	-1.210	
0.78664	0.00293	0.00073	584.263	90.994	-135.216	-1.571	-0.000	-3.141	72393	-0.065	63.328	-3.809	-13.970	0.507	0.018	0.016	-0.161	-1.940	1.505	-0.767	-0.071	0.013	0.020	1.122	0.202	-1.410	-0.309	0.640	-1.212	
0.00673	0.00005	0.00209	584.258	90.990	-135.217	-1.569	-0.000	-3.141	72597	-0.091	63.477	-3.836	-14.042	0.500	0.028	0.175	-0.299	-1.854	1.451	-0.708	0.040	0.113	0.020	1.122	0.202	-1.410	-0.309	0.640	-1.212	
0.00660	0.07823	0.10310	584.255	90.984	-135.218	-1.466	-0.000	-3.141	72877	-0.078	63.434	-3.831	-13.985	0.509	0.045	0.046	-0.040	-1.942	1.428	-0.731	-0.052	0.128	0.020	1.122	0.202	-1.410	-0.309	0.640	-1.290	
0.00626	0.20081	0.20314	584.251	90.979	-135.220	-1.262	-0.000	-3.141	73157	-0.156	63.481	-3.814	-14.016	0.527	0.040	0.177	0.327	-1.859	1.407	-0.684	-0.198	0.132	0.020	1.122	0.202	-1.410	-0.309	0.640	-1.491	
0.00502	0.11030	0.08396	584.248	90.976	-135.221	-1.178	-0.001	-3.141	73441	-0.138	63.461	-3.846	-14.023	0.524	0.040	0.058	0.558	-1.883	1.391	-0.685	-0.321	0.061	0.020	1.122	0.202	-1.410	-0.309	0.640	-1.601	
0.00166	0.00311	0.00042	584.248	90.974	-135.221	-1.178	-0.001	-3.141	73694	-0.132	63.446	-3.835	-14.014	0.519	0.038	0.060	0.591	-1.881	1.403	-0.685	-0.342	0.048	0.020	1.122	0.202	-1.410	-0.309	0.640	-1.604	
0.40105	0.00005	0.00017	584.075	91.336	-135.206	-1.178	-0.001	-3.142	73896	-0.711	63.225	-3.630	-13.739	0.577	0.072	-0.057	2.244	-1.834	1.272	-0.707	-1.380	-0.132	0.020	1.122	0.202	-1.410	-0.309	0.640	-1.604	
6.88966	0.01632	0.00016	581.367	97.671	-135.171	-1.178	-0.001	3.141	74177	0.254	63.016	-3.272	-13.935	0.588	0.096	-0.058	2.482	-1.566	1.067	-0.642	-1.606	-0.173	0.030	1.120	0.202	-1.415	-0.310	0.637	-1.593	
2.69990	0.01034	0.00016	580.357	100.175	-135.208	-1.178	-0.001	-3.142	74458	-0.980	63.272	-3.813	-13.950	0.510	0.099	-0.035	2.003	-1.644	1.151	-0.646	-1.267	-0.138	0.036	1.119	0.202	-1.419	-0.310	0.635	-1.586	
0.05444	0.00012	0.00004	580.349	100.228	-135.208	-1.178	-0.001	-3.142	74708	-3.412	62.969	-4.986	-13.507	0.435	0.109	-0.072	1.948	-1.662	1.169	-0.651	-1.235	-0.135	0.036	1.119	0.202	-1.419	-0.310	0.635	-1.586	
3.71869	0.00662	0.00024	578.968	103.681	-135.231	-1.178	-0.001	-3.141	74958	-1.756	63.436	-4.120	-13.969	0.580	0.163	-0.075	2.779	-1.722	0.911	-0.709	-1.745	-0.185	0.040	1.118	0.202	-1.421	-0.311	0.634	-1.581	
6.32154	0.01849	0.00037	576.447	109.478	-135.211	-1.178	-0.000	3.141	75243	-0.872	62.873	-3.818	-13.711	0.551	0.091	-0.042	2.022	-1.737	1.358	-0.710	-1.322	-0.129	0.051	1.116	0.202	-1.426	-0.312	0.631	-1.568	
0.07992	0.00126	0.00015	576.513	109.433	-135.212	-1.178	-0.001	3.142	75493	-0.867	62.912	-3.818	-13.783	0.545	0.089	-0.037	2.061	-1.673	1.289	-0.673	-1.333	-0.132	0.052	1.116	0.202	-1.427	-0.312	0.631	-1.567	
0.30756	0.00004	0.00006	576.414	109.723	-135.231	-1.178	-0.001	3.142	75741	-1.145	62.756	-3.938	-13.575	0.559	0.115	-0.063	2.189	-1.830	1.154	-0.753	-1.522	-0.180	0.052	1.116	0.202	-1.427	-0.312	0.631	-1.567	
6.98955	0.01603	0.00023	573.772	116.194	-135.236	-1.178	-0.001	-3.141	76025	0.747	63.176	-2.994	-14.188	0.615	0.142	-0.073	3.230	-1.571	0.748	-0.682	-1.924	-0.200	0.062	1.114	0.202	-1.431	-0.313	0.628	-1.556	
2.69078	0.01019	0.00008	572.755	118.685	-135.215	-1.178	-0.001	-3.141	76303	-0.848	62.906	-3.778	-13.700	0.552	0.041	-0.050	1.996	-1.586	1.243	-0.605	-1.288	-0.131	0.068	1.113	0.202	-1.434	-0.313	0.626	-1.548	
0.02280	0.00002	0.00003	572.754	118.708	-135.211	-1.178	-0.001	-3.141	76522	-3.504	62.799	-4.973	-13.265	0.491	0.085	-0.095	1.898	-1.579	1.202	-0.600	-1.277	-0.137	0.068	1.113	0.202	-1.434	-0.313	0.626	-1.548	
3.83323	0.00679	0.00045	571.110	122.170	-135.258	-1.178	-0.001	3.141	76774	-2.717	65.285	-6.310	-17.548	0.077	2.173	-0.115	5.960	4.410	0.746	-0.272	-1.856	-0.287	0.072	1.112	0.202	-1.436	-0.314	0.625	-1.544	
0.66572	0.00545	0.00036	570.826	122.772	-135.269	-1.178	-0.001	3.141	77057	-4.786	66.251	-8.409	-18.164	-0.388	2.465	-0.234	6.697	7.118	1.720	-0.023	-1.732	-0.333	0.076	1.112	0.202	-1.437	-0.314	0.625	-1.540	
0.47346	0.00066	0.00065	571.194	122.476	-135.239	-1.178	-0.000	-3.141	77290	-0.395	63.181	-4.286	-14.326	0.382	0.289	0.103	1.389	3.413	1.463	-0.156	0.035	0.029	0.075	1.112	0.202	-1.437	-0.314	0.625	-1.540	
3.69100	0.00926	0.00024	572.766	119.137	-135.166	-1.178	-0.001	-3.141	77572	0.148	62.789	-3.696	-13.857	0.360	-0.023	0.105	0.554	-0.995	1.197	-0.256	-0.172	0.055	0.070	1.113	0.202	-1.434	-0.313	0.626	-1.547	
0.76547	0.00332	0.00072	572.738	118.377	-135.253	-1.178	-0.000	3.141	77840	0.004	62.775	-3.758	-13.800	0.407	-0.029	0.098	0.295	-1.307	1.182	-0.434	-0.156	0.048	0.068	1.113	0.202	-1.434	-0.313	0.627	-1.549	
0.03894	0.00014	0.00208	572.746	118.339	-135.255	-1.176	-0.001	3.141	78028	-0.069	62.817	-3.766	-13.801	0.392	-0.042	0.131	0.221	-1.286	1.190	-0.415	-0.110	0.097	0.068	1.113	0.202	-1.434	-0.313	0.627	-1.549	
0.00743	0.07546	0.10070	572.746	118.332	-135.256	-1.075	-0.001	3.141	78311	-0.030	62.854	-3.779	-13.786	0.342	-0.056	0.195	0.261	-1.254	1.200	-0.374	-0.087	0.121	0.068	1.113	0.202	-1.434	-0.313	0.627	-1.624	
0.03276	0.20229	0.20498	572.751	118.299	-135.257	-0.870	-0.000	3.141	78589	-0.093	62.790	-3.760	-13.780	0.409	-0.046	0.180	0.537	-1.101	1.215	-0.312	-0.167	0.116	0.068	1.113	0.202	-1.434	-0.313	0.627	-1.827	
0.01098	0.11101	0.08471	572.748	118.310	-135.256	-0.786	-0.000	3.141	78872	-0.089	62.813	-3.786	-13.794	0.386	-0.055	0.106	0.686	-1.057	1.206	-0.289	-0.229	0.072	0.068	1.113	0.202	-1.434	-0.313	0.627	-1.938	
0.00118	0.00411	0.00048	572.747	118.311	-135.256	-0.785	-0.000	3.141	79137	-0.121	62.815	-3.799	-13.805	0.382	-0.052	0.104	0.747	-1.040	1.190	-0.277	-0.272	0.042	0.068	1.113	0.202	-1.434	-0.313	0.627	-1.942	
0.30933	0.00002	0.00028	572.598	118.581	-135.242	-0.785	-0.000	3.141	79371	-0.733	62.879	-3.470	-13.599	0.594	0.163	-0.049	2.256	-1.080	0.783	-0.242	-1.348	-0.137	0.068	1.113	0.202	-1.434	-0.313	0.627	-1.942	
6.90676	0.02051	0.00011	567.701	123.452	-135.219	-0.786	-0.000	3.141	79649	0.501	62.599	-2.911	-14.222	0.637	0.207	-0.026	3.269	-0.650	1.014	-0.063	-1.966	-0.176	0.075	1.108	0.202	-1.446	-0.316	0.620	-1.930	
2.73987	0.01380	0.00025	565.800	125.425	-135.224	-0.785	-0.001	3.142	79930	-0.946	62.516	-3.765	-13.479	0.551	0.074	0.017	2.417	-0.834	1.207	-0.105	-1.462	-0.097	0.080	1.105	0.202	-1.454	-0.317	0.615	-1.922	
0.00694	0.00002	0.00003	565.801	125.431	-135.223	-0.785	-0.001	3.142	80179	-2.994	62.841	-4.709	-12.650	0.489	0.097	-0.045	2.457	-0.804	1.202	-0.085	-1.490	-0.107	0.080	1.105	0.202	-1.454	-0.317	0.615	-1.922	
3.80723	0.00885	0.00019	563.106	128.120	-135.235	-0.785	-0.000	3.141	80416	-1.272	62.336	-3.845	-13.449	0.593	0.183	-0.052	3.064	-0.873	1.026	-0.134	-1.891	-0.172	0.084	1.103	0.202	-1.459	-0.318	0.612	-1.917	
6.25107	0.02312	0.00003	558.674	132.528	-135.234	-0.785	-0.001	3.141	80694	-0.751	62.333	-3.703	-13.392	0.575	0.045	-0.018	2.462	-0.763	1.091	-0.064	-1.520	-0.122	0.093	1.098	0.202	-1.472	-0.321	0.604	-1.903	
0.05266	0.00183	0.00013	558.704	132.487	-135.247	-0.785	-0.001	3.141	80945	-1.007	62.157	-3.784	-13.325	0.549	0.048	-0.012	2.626	-0.633	1.130	0.003	-1.601	-0.133	0.093	1.098	0.202	-1.473	-0.322	0.603	-1.902	
0.23470	0.00007	0.00017	558.533	132.646	-135.270	-0.785	-0.000	3.141	81177	-0.910	61.872	-3.698	-13.153	0.610	0.154	-0.058	2.518	-1.386	0.956	-0.312	-1.713	-0.162	0.093	1.098	0.202	-1.473	-0.322	0.603	-1.902	
6.81673	0.01954	0.00014	553.730	137.483	-135.244	-0.785	-0.000	3.141	81457	0.945	61.072	-2.764	-13.389	0.659	0.172	-0.038	3.156	-0.622	0.943	-0.065	-2.034	-0.177	0.101	1.094	0.202	-1.484	-0.324	0.597	-1.890	
2.96348	0.01400	0.00005	551.618	139.562	-135.252	-0.785	-0.001	3.141	81739	-1.125	61.557	-3.839	-13.008	0.536	0.125	-0.003	2.454	-0.914	0.891	-0.198	-1.525	-0.116	0.107	1.091	0.202	-1.491	-0.326	0.592	-1.882	
0.03196	0.00005	0.00004	551.600	139.582	-135.269	-0.785	-0.000	3.141	81990	-3.436	61.427	-4.837	-11.916	0.469	0.038	-0.055	2.558	-0.835	0.953	-0.161	-1.579	-0.118	0.107	1.091	0.202	-1.491	-0.326	0.592	-1.882	
2.76363	0.00869	0.00047	549.446	141.314	-135.297	-0.786	-0.001	3.141	82227	-4.482	61.951	-8.330	-14.290	-0.702	1.265	-0.138	5.884	4.527	0.729	0.273	-1.566	-0.237	0.110	1.089	0.202	-1.496	-0.327	0.589	-1.876	
0.33160	0.00108	0.00043	549.416	141.643	-135.278	-0.786	-0.000	3.141	82457	-2.362	62.532	-6.013	-14.295	-0.068	0.851	-0.037	5.923	4.219	0.941	0.307	-1.813	-0.254	0.111	1.089	0.202	-1.497	-0.327	0.589	-1.876	
1.52109	0.00301	0.00080	550.764	140.971	-135.071	-0.785	-0.001	-3.141	82724	-0.250	61.286	-3.889	-13.052	0.269	-0.108	0.160	0.244	-0.995	1.308	-0.260	0.024	0.073	0.110	1.090	0.202	-1.495	-0.327	0.590	-1.878	
3.53202	0.01181	0.00039	553.014	138.255	-135.268	-0.785	-0.000	3.141	83006	-0.378	61.646	-3.929	-13.299	0.291	-0.006	0.104	0.419	-1.190	1.244	-0.340	-0.110	0.027	0.105	1.092	0.202	-1.489	-0.325	0.594	-1.885	
0.13748	0.00203	0.00037	552.955	138.131	-135.265	-0.785	-0.000	3.141	83256	-0.168	61.591	-3.806	-13.170	0.298	-0.030	0.101	0.769	-0.955	1.061	-0.273	-0.285	0.012	0.104	1.092	0.202	-1.488	-0.325	0.595	-1.886	
0.00907	0.00264	0.00938	552.954	138.122	-135.266	-0.776	-0.000	3.141	83508	-0.129	61.620	-3.803	-13.150	0.322	-0.060	0.138	0.613	-0.989	1.130	-0.282	-0.175	0.078	0.104	1.092	0.202	-1.488	-0.325	0.595	-1.889	
0.00689	0.10642	0.13320	552.956	138.116	-135.267	-0.643	-0.000	3.141	83791	-0.157	61.538	-3.825	-13.113	0.317	-0.047	0.153	0.814	-0.825	1.140	-0.209	-0.237	0.054	0.104	1.092	0.202	-1.488	-0.325	0.595	-1.995	
0.01286	0.20538	0.19425	552.959	138.103	-135.267	-0.449	-0.000	3.141	84073	-0.145	61.596	-3.795	-13.126	0.305	-0.063	0.128	0.922	-0.674	1.142	-0.152	-0.254	0.048	0.104	1.092	0.202	-1.488	-0.325	0.595	-2.200	
0.00331	0.07821	0.05593	552.960	138.100	-135.266	-0.393	-0.000	3.141	84353	-0.133	61.584	-3.783	-13.125	0.309	-0.050	0.090	1.034	-0.643	1.122	-0.131	-0.309	0.014	0.104	1.092	0.202	-1.488	-0.325	0.595	-2.279	
0.00121	0.00020	0.00003	552.960	138.099	-135.266	-0.393	-0.000	3.141	84601	-0.110	61.561	-3.793	-13.127	0.312	-0.051	0.086	1.045	-0.618	1.126	-0.120	-0.317	0.006	0.104	1.092	0.202	-1.488	-0.325	0.595	-2.279	
1.39696	0.00138	0.00050	551.652	138.588	-135.261	-0.393	-0.000	3.141	84836	-1.222	61.517	-3.844	-12.790	0.588	0.161	-0.089	2.754	0.060	1.278	0.468	-1.624	-0.163	0.104	1.092	0.202	-1.489	-0.325	0.594	-2.278	
7.15725	0.02911	0.00041	545.077	141.416	-135.239	-0.393	-0.000	3.141	85121	-1.465	61.126	-3.919	-12.815	0.511	0.107	-0.039	2.797	0.213	0.846	0.542	-1.668	-0.177	0.110	1.085	0.202	-1.509	-0.330	0.582	-2.265	
1.28353	0.01063	0.00029	543.918	141.968	-135.227	-0.393	-0.000	3.141	85401	-0.995	61.104	-3.781	-12.771	0.505	0.096	-0.041	2.689	0.379	1.056	0.580	-1.532	-0.163	0.112	1.082	0.202	-1.516	-0.332	0.578	-2.260	
0.01511	0.00005	0.00002	543.917	141.983	-135.229	-0.393	-0.000	3.141	85634	-1.070	60.950	-3.856	-12.762	0.570	0.225	-0.089	3.286	0.613	0.912	0.713	-1.848	-0.206	0.112	1.082	0.202	-1.516	-0.332	0.578	-2.260	
5.27756	0.01628	0.00020	539.034	143.984	-135.236	-0.393	-0.000	3.141	85872	-0.891	60.409	-3.474	-12.282	0.572	0.166	-0.082	3.463	0.353	0.757	0.620	-2.026	-0.216	0.116	1.078	0.202	-1.527	-0.334	0.571	-2.252	
4.81699	0.02468	0.00019	534.586	145.832	-135.234	-0.393	-0.000	3.141	86152	-0.962	60.608	-3.798	-12.456	0.486	0.131	-0.039	2.815	0.275	0.907	0.500	-1.596	-0.159	0.121	1.072	0.202	-1.544	-0.339	0.561	-2.240	
0.03314	0.00018	0.00007	534.581	145.811	-135.258	-0.393	-0.000	3.141	86434	-1.102	60.278	-3.800	-12.098	0.475	0.112	-0.052	2.792	0.346	0.875	0.549	-1.609	-0.166	0.121	1.072	0.202	-1.544	-0.339	0.561	-2.240	
3.06317	0.00711	0.00020	531.725	146.920	-135.292	-0.393	-0.000	3.141	86684	-1.057	60.412	-3.829	-11.957	0.560	0.116	-0.090	3.949	1.052	0.883	0.937	-2.269	-0.237	0.123	1.070	0.202	-1.548	-0.340	0.558	-2.237	
6.78410	0.02875	0.00013	525.464	149.530	-135.254	-0.393	-0.000	3.141	86966	-0.847	59.857	-3.688	-12.121	0.526	0.129	-0.045	3.232	0.547	1.154	0.658	-1.885	-0.177	0.129	1.063	0.202	-1.568	-0.345	0.546	-2.222	
0.11714	0.00463	0.00018	525.410	149.634	-135.260	-0.393	-0.000	3.141	87233	-0.903	59.913	-3.693	-12.068	0.523	0.132	-0.038	2.890	0.324	0.923	0.549	-1.698	-0.157	0.130	1.062	0.202	-1.571	-0.346	0.544	-2.220	
0.77227	0.00020	0.00056	524.660	149.797	-135.345	-0.393	-0.000	3.141	87482	-3.580	58.875	-6.715	-12.375	-0.203	0.599	-0.111	5.153	2.461	0.895	0.762	-2.144	-0.260	0.130	1.062	0.202	-1.571	-0.346	0.544	-2.220	
2.72913	0.01355	0.00035	522.161	150.893	-135.284	-0.393	-0.000	3.141	87761	-4.396	59.456	-7.826	-12.301	-0.562	0.784	-0.174	6.601	6.714	0.518	1.054	-1.945	-0.347	0.133	1.059	0.202	-1.580	-0.349	0.539	-2.213	
0.19067	0.00042	0.00023	522.222	151.070	-135.250	-0.393	-0.000	3.142	87996	-0.454	59.557	-3.935	-11.841	0.217	-0.122	0.101	2.895	2.762	1.611	0.517	-0.946	-0.121	0.133	1.059	0.202	-1.580	-0.349	0.539	-2.213	
3.33730	0.01113	0.00058	525.317	149.821	-135.239	-0.392	-0.000	3.141	88276	-1.059	59.315	-4.206	-11.621	0.210	-0.153	0.104	0.547	-0.521	1.500	-0.091	-0.078	0.017	0.131	1.061	0.202	-1.572	-0.347	0.543	-2.219	
1.62091	0.00929	0.00061	526.713	148.998	-135.278	-0.393	-0.000	3.141	88557	-0.032	59.966	-3.673	-12.228	0.277	-0.043	0.038	1.248	-0.682	1.376	-0.109	-0.441	-0.041	0.129	1.063	0.202	-1.566	-0.345	0.547	-2.223	
0.05746	0.00013	0.00011	526.658	148.989	-135.291	-0.393	0.000	3.141	88790	-0.102	59.900	-3.728	-12.077	0.289	-0.036	0.130	1.175	-0.779	1.384	-0.155	-0.397	0.001	0.129	1.063	0.202	-1.566	-0.345	0.547	-2.223	
0.00212	0.03494	0.05497	526.660	148.989	-135.290	-0.338	0.000	3.141	89057	-0.097	59.904	-3.725	-12.078	0.184	-0.059	0.169	1.195	-0.606	1.472	-0.096	-0.371	0.031	0.129	1.063	0.202	-1.566	-0.345	0.547	-2.258	
0.04549	0.17811	0.19509	526.692	148.957	-135.283	-0.143	0.000	3.141	89340	-0.137	59.901	-3.749	-12.132	0.277	-0.060	0.083	1.244	-0.378	1.400	-0.019	-0.355	0.022	0.129	1.063	0.202	-1.566	-0.345	0.547	-2.436	
0.03645	0.15814	0.13261	526.698	148.993	-135.277	-0.010	0.000	3.141	89620	-0.157	59.915	-3.742	-12.132	0.254	-0.050	0.070	1.286	-0.195	1.451	0.053	-0.359	0.012	0.129	1.063	0.202	-1.566	-0.345	0.547	-2.594	
0.01172	0.02184	0.01008	526.695	149.004	-135.275	-0.000	0.000	3.141	89872	-0.183	59.921	-3.762	-12.117	0.271	-0.052	0.068	1.352	-0.173	1.426	0.082	-0.396	-0.021	0.129	1.063	0.202	-1.566	-0.345	0.547	-2.616	
0.00223	0.00000	0.00000	526.697	149.003	-135.274	-0.000	0.000	3.141	90122	-0.453	59.745	-3.730	-11.296	0.464	0.071	-0.057	1.869	-0.391	1.712	0.039	-0.671	-0.035	0.129	1.063	0.202	-1.566	-0.345	0.547	-2.616	
4.90044	0.01716	0.00034	521.797	149.034	-135.227	0.000	-0.000	3.141	90381	-0.995	59.298	-3.698	-11.757	0.599	0.191	-0.085	2.731	1.102	1.186	1.037	-1.444	-0.141	0.130	1.059	0.202	-1.579	-0.348	0.540	-2.610	
4.95060	0.02753	0.00012	516.846	149.020	-135.228	-0.000	-0.000	3.141	90663	-0.925	59.291	-3.709	-11.705	0.457	0.123	-0.049	2.522	1.409	0.937	1.177	-1.349	-0.176	0.131	1.052	0.202	-1.599	-0.355	0.527	-2.599	
0.05279	0.00028	0.00016	516.857	149.066	-135.250	-0.000	-0.000	3.141	90942	-0.967	59.100	-3.719	-11.648	0.447	0.115	-0.048	2.434	1.329	0.917	1.129	-1.278	-0.175	0.131	1.052	0.202	-1.599	-0.354	0.527	-2.599	
1.76953	0.00188	0.00034	515.092	149.002	-135.347	-0.000	0.000	3.141	91148	-1.168	59.245	-3.595	-11.764	0.637	0.205	-0.079	2.890	1.572	1.383	1.360	-1.617	-0.179	0.131	1.051	0.202	-1.601	-0.355	0.526	-2.599	
7.04428	0.03148	0.00026	508.048	149.029	-135.266	0.000	-0.000	3.141	91430	-1.116	58.354	-3.755	-11.190	0.529	0.145	-0.060	2.662	1.255	0.475	1.201	-1.497	-0.166	0.133	1.043	0.202	-1.623	-0.362	0.512	-2.586	
1.18952	0.01096	0.00019	506.858	149.028	-135.268	-0.000	-0.000	3.141	91709	-0.991	58.437	-3.691	-11.226	0.518	0.129	-0.055	2.573	1.425	0.903	1.227	-1.403	-0.160	0.134	1.040	0.202	-1.631	-0.365	0.507	-2.582	
0.02101	0.00004	0.00002	506.849	149.047	-135.273	-0.000	-0.000	3.141	91946	-1.036	58.143	-3.551	-11.356	0.603	0.205	-0.087	2.815	1.693	1.163	1.430	-1.635	-0.192	0.134	1.041	0.202	-1.631	-0.365	0.507	-2.582	
6.02144	0.02167	0.00016	500.828	149.068	-135.235	-0.000	-0.000	3.141	92225	-0.852	57.624	-3.522	-11.204	0.562	0.248	-0.082	3.093	1.573	1.081	1.391	-1.728	-0.177	0.135	1.035	0.202	-1.646	-0.370	0.498	-2.573	
3.97885	0.02274	0.00020	496.849	149.045	-135.244	0.000	-0.000	3.141	92506	-1.077	57.722	-3.712	-10.830	0.495	0.136	-0.053	2.611	1.525	0.699	1.268	-1.452	-0.161	0.137	1.030	0.202	-1.662	-0.377	0.488	-2.564	
0.02149	0.00015	0.00003	496.867	149.040	-135.256	-0.000	-0.000	3.141	92755	-1.075	57.506	-3.669	-10.358	0.478	0.099	-0.063	2.564	1.477	0.727	1.264	-1.432	-0.163	0.137	1.030	0.202	-1.662	-0.377	0.488	-2.564	
2.48369	0.00634	0.00038	494.389	148.881	-135.209	-0.000	-0.000	3.141	92988	-4.697	56.055	-7.688	-9.416	-0.588	0.307	-0.161	5.314	6.361	1.132	1.772	-1.531	-0.291	0.137	1.028	0.202	-1.667	-0.378	0.485	-2.561	
0.31837	0.00564	0.00039	494.096	149.005	-135.213	-0.000	-0.000	3.141	93235	-5.058	55.090	-8.373	-8.129	-0.866	-0.032	-0.235	7.223	8.285	-0.601	1.720	-1.696	-0.383	0.138	1.027	0.202	-1.671	-0.380	0.483	-2.558	
0.94424	0.00063	0.00032	493.934	149.051	-134.284	0.000	0.000	3.141	93455	-3.585	57.530	-7.018	-9.806	-0.695	-0.183	-0.014	5.357	6.743	2.906	1.504	-1.130	-0.302	0.138	1.026	0.202	-1.671	-0.380	0.483	-2.559	
15.99786	0.04314	0.00024	493.952	149.140	-118.286	-0.000	0.000	3.142	93736	-0.788	55.069	-3.235	-10.996	0.162	-0.105	0.109	1.797	1.711	0.924	1.119	-0.630	-0.157	0.138	0.996	0.202	-1.683	-0.360	0.499	-2.573	
12.74027	0.05038	0.00021	494.013	149.009	-105.546	-0.000	0.000	3.141	94014	-0.750	56.480	-3.403	-11.555	0.239	-0.100	0.082	1.983	1.187	1.849	1.001	-0.806	-0.141	0.138	0.962	0.202	-1.695	-0.339	0.520	-2.590	
0.30098	0.00360	0.00015	493.987	149.014	-105.247	-0.000	0.000	3.141	94297	-0.813	56.460	-3.446	-11.629	0.238	-0.093	-0.068	1.847	1.160	1.424	0.990	-0.777	-0.143	0.138	0.959	0.202	-1.696	-0.337	0.521	-2.591	
0.00446	0.03739	0.06708	493.990	149.015	-105.243	-0.067	0.000	3.141	94530	-0.749	56.382	-3.551	-11.553	0.147	-0.096	0.242	2.282	1.212	1.292	1.043	-1.111	-0.266	0.138	0.959	0.202	-1.696	-0.337	0.521	-2.554	
0.00141	0.30227	0.34838	493.991	149.016	-105.243	-0.416	-0.000	3.141	94808	-0.899	56.520	-3.488	-11.570	0.366	-0.070	-0.333	2.500	0.108	1.274	0.451	-1.409	-0.252	0.138	0.959	0.202	-1.696	-0.337	0.521	-2.251	
0.00042	0.43830	0.43625	493.991	149.016	-105.243	-0.852	-0.000	3.141	95089	-0.864	56.420	-3.441	-11.573	0.184	-0.086	0.173	2.299	-0.966	1.279	-0.224	-1.485	-0.257	0.138	0.959	0.202	-1.696	-0.337	0.521	-1.813	
0.00027	0.44142	0.44171	493.991	149.016	-105.243	-1.294	-0.000	3.141	95368	-0.901	56.414	-3.455	-11.620	0.317	-0.092	-0.188	1.811	-1.893	1.251	-0.875	-1.322	-0.288	0.138	0.959	0.202	-1.696	-0.337	0.521	-1.372	
0.00031	0.30997	0.25826	493.991	149.016	-105.243	-1.552	-0.000	3.141	95648	-0.874	56.403	-3.486	-11.568	0.266	-0.076	-0.118	1.512	-2.161	1.227	-1.092	-1.185	-0.295	0.138	0.959	0.202	-1.696	-0.337	0.521	-1.062	
0.00013	0.04140	0.01906	493.991	149.016	-105.243	-1.571	-0.000	3.141	95889	-0.862	56.407	-3.466	-11.580	0.262	-0.076	-0.105	1.467	-2.102	1.241	-1.068	-1.162	-0.270	0.138	0.959	0.202	-1.696	-0.337	0.521	-1.020	
0.00020	0.00494	0.01794	493.991	149.016	-105.243	-1.589	-0.000	3.141	96133	-0.871	56.434	-3.476	-11.571	0.283	-0.077	-0.056	1.329	-2.230	1.225	-1.181	-1.108	-0.280	0.138	0.959	0.202	-1.696	-0.337	0.521	-1.015	
0.00006	0.20972	0.26336	493.990	149.016	-105.243	-1.852	-0.000	3.142	96415	-0.870	56.527	-3.459	-11.596	0.467	-0.084	-0.279	0.457	-2.579	1.235	-1.519	-0.635	-0.285	0.138	0.959	0.202	-1.696	-0.337	0.521	-0.806	
0.00052	0.43622	0.44493	493.990	149.016	-105.243	-2.297	-0.000	-3.141	96697	-0.868	56.272	-3.475	-11.608	0.197	-0.082	-0.096	-0.676	-2.525	1.234	-1.671	0.059	-0.284	0.138	0.959	0.202	-1.696	-0.337	0.521	-0.369	
0.00047	0.44136	0.43982	493.990	149.016	-105.243	-2.737	-0.000	-3.141	96980	-0.837	56.562	-3.518	-11.601	0.313	-0.068	0.200	-1.673	-2.000	1.230	-1.515	0.750	-0.277	0.138	0.959	0.202	-1.696	-0.337	0.521	0.072	
0.00046	0.38173	0.34520	493.990	149.017	-105.243	-3.082	-0.000	-3.141	97261	-0.874	56.417	-3.461	-11.589	0.274	-0.069	-0.148	-2.108	-1.586	1.211	-1.341	1.104	-0.307	0.138	0.959	0.202	-1.696	-0.337	0.521	0.454	
0.00009	0.09680	0.05952	493.990	149.017	-105.243	3.142	-0.000	-3.141	97543	-0.870	56.402	-3.476	-11.599	0.266	-0.073	-0.101	-2.094	-1.461	1.241	-1.278	1.087	-0.266	0.138	0.959	0.202	-1.696	-0.337	0.521	0.551	
0.38974	0.00007	0.00036	493.905	148.982	-105.622	-3.141	-0.000	-3.141	97761	-0.954	54.595	-3.433	-10.977	0.514	0.094	-0.144	-1.925	-1.414	0.291	-1.277	1.269	-0.207	0.138	0.959	0.202	-1.696	-0.337	0.521	0.551	
13.21425	0.03293	0.00152	494.557	148.423	-118.808	3.141	0.001	-3.141	98041	-5.925	55.682	-9.939	-8.644	-1.077	0.306	-0.364	-7.002	-8.403	-0.587	-1.304	1.700	-0.341	0.138	0.982	0.202	-1.688	-0.351	0.507	0.561	
15.43742	0.05723	0.00112	494.194	149.053	-134.228	3.142	0.000	-3.141	98321	-7.427	54.324	-11.456	-7.806	-1.409	0.468	-0.328	-9.259	-12.799	-1.918	-1.711	1.929	-0.424	0.138	1.021	0.202	-1.673	-0.376	0.485	0.581	
1.04974	0.00773	0.00018	494.091	149.078	-135.272	-3.142	0.000	-3.141	98556	-6.940	54.620	-11.393	-8.697	-1.410	0.665	-0.290	-8.136	-12.716	-1.441	-1.579	1.656	-0.360	0.138	1.027	0.202	-1.671	-0.380	0.483	0.583	
1.24335	0.00450	0.00080	495.311	149.309	-135.316	-3.141	-0.000	-3.141	98789	-0.999	57.464	-4.551	-10.881	0.025	-0.022	0.055	-2.689	-5.253	0.914	-0.789	0.535	-0.136	0.137	1.028	0.202	-1.668	-0.378	0.485	0.581	
3.63504	0.01567	0.00059	498.946	149.359	-135.284	-3.141	0.000	-3.142	99071	-0.199	57.714	-3.732	-11.054	0.290	-0.016	0.060	-1.077	0.033	1.325	-0.281	0.459	-0.026	0.137	1.032	0.203	-1.657	-0.374	0.492	0.574	
0.39828	0.00227	0.00049	498.938	148.961	-135.276	-3.142	-0.000	-3.141	99321	-0.269	57.659	-3.686	-10.939	0.325	-0.041	0.054	-1.215	0.034	0.937	-0.301	0.558	-0.012	0.136	1.032	0.202	-1.656	-0.374	0.493	0.574	
0.00796	0.00199	0.00837	498.943	148.955	-135.275	-3.133	-0.000	-3.141	99555	-0.195	57.659	-3.610	-10.900	0.267	-0.063	0.081	-1.149	-0.040	1.010	-0.317	0.514	0.018	0.136	1.032	0.202	-1.656	-0.374	0.493	0.572	
0.01559	0.10130	0.12768	498.949	148.969	-135.270	-3.006	-0.000	-3.141	99836	-0.226	57.679	-3.630	-10.958	0.256	-0.068	0.114	-1.072	-0.203	1.060	-0.358	0.407	0.018	0.136	1.032	0.202	-1.655	-0.374	0.493	0.470	
0.02888	0.20443	0.19540	498.974	148.979	-135.261	-2.810	-0.000	-3.141	100117	-0.220	57.589	-3.646	-10.897	0.248	-0.069	0.140	-0.987	-0.345	1.037	-0.376	0.332	0.014	0.136	1.032	0.202	-1.655	-0.374	0.493	0.266	
0.00332	0.08477	0.06130	498.977	148.980	-135.260	-2.749	-0.000	-3.141	100396	-0.216	57.641	-3.659	-10.903	0.236	-0.067	0.082	-0.998	-0.435	1.062	-0.418	0.340	-0.016	0.136	1.032	0.202	-1.655	-0.374	0.493	0.181	
0.00215	0.00053	0.00003	498.978	148.978	-135.259	-2.749	-0.000	-3.141	100663	-0.220	57.643	-3.651	-10.911	0.247	-0.067	0.081	-1.013	-0.454	1.043	-0.434	0.348	-0.023	0.136	1.032	0.202	-1.655	-0.374	0.493	0.181	
1.37266	0.00181	0.00028	497.698	148.483	-135.274	-2.749	-0.000	-3.141	100897	-0.104	57.912	-3.704	-10.590	0.543	0.161	-0.050	-2.106	-0.266	1.198	-0.485	0.978	-0.009	0.136	1.032	0.202	-1.657	-0.374	0.492	0.181	
7.09455	0.03020	0.00027	491.141	145.774	-135.273	-2.749	-0.000	-3.141	101180	-0.129	57.123	-3.741	-10.489	0.506	0.112	-0.047	-1.917	-0.653	0.785	-0.713	0.962	-0.011	0.133	1.024	0.202	-1.679	-0.383	0.478	0.190	
1.44377	0.01166	0.00006	489.809	145.217	-135.281	-2.749	-0.000	-3.141	101418	-0.044	57.120	-3.566	-10.436	0.504	0.113	-0.036	-1.913	-0.622	1.249	-0.699	0.891	-0.022	0.132	1.021	0.202	-1.688	-0.386	0.472	0.193	
0.03801	0.00007	0.00008	489.818	145.180	-135.284	-2.749	-0.000	-3.141	101620	0.180	57.086	-3.468	-10.306	0.587	0.172	-0.062	-2.362	-0.694	1.286	-0.702	1.064	-0.019	0.131	1.021	0.202	-1.688	-0.386	0.472	0.193	
4.87359	0.01607	0.00015	485.313	143.322	-135.219	-2.749	-0.000	-3.141	101885	-0.044	56.800	-3.516	-10.178	0.551	0.235	-0.066	-2.008	-0.375	1.280	-0.556	1.019	0.006	0.130	1.017	0.202	-1.699	-0.391	0.465	0.198	
5.10454	0.02761	0.00017	480.602	141.357	-135.234	-2.749	-0.000	-3.141	102166	-0.142	56.163	-3.527	-9.925	0.498	0.124	-0.017	-1.842	-0.543	1.053	-0.649	0.901	-0.001	0.127	1.011	0.202	-1.719	-0.400	0.452	0.206	
0.06862	0.00019	0.00009	480.664	141.384	-135.247	-2.749	0.000	-3.141	102417	-0.177	56.290	-3.608	-9.977	0.486	0.126	-0.017	-1.829	-0.412	1.149	-0.580	0.873	0.002	0.127	1.011	0.202	-1.719	-0.400	0.452	0.206	
1.66610	0.00155	0.00033	479.103	140.809	-135.341	-2.749	-0.000	-3.141	102651	-0.138	56.000	-3.656	-9.715	0.570	0.187	-0.086	-2.310	-0.515	1.171	-0.631	1.115	-0.021	0.127	1.010	0.202	-1.721	-0.401	0.452	0.207	
6.91920	0.03062	0.00024	472.722	138.134	-135.256	-2.749	-0.000	-3.141	102931	-1.399	54.183	-5.008	-7.922	0.048	-0.138	-0.110	-3.387	-2.559	1.296	-0.926	1.100	-0.050	0.124	1.003	0.202	-1.742	-0.411	0.438	0.217	
1.47789	0.01195	0.00021	471.375	137.527	-135.242	-2.749	0.000	-3.141	103168	-1.987	53.673	-5.509	-7.315	-0.104	-0.285	-0.128	-4.461	-4.796	0.153	-1.098	1.109	-0.124	0.122	1.001	0.202	-1.751	-0.416	0.433	0.221	
0.04593	0.00017	0.00005	471.351	137.547	-135.276	-2.749	-0.000	-3.141	103419	-1.827	53.701	-5.645	-7.071	-0.073	-0.372	-0.095	-6.142	-4.606	0.881	-0.909	1.389	-0.133	0.122	1.001	0.202	-1.751	-0.416	0.433	0.221	
0.55621	0.00222	0.00021	470.858	137.297	-135.221	-2.749	-0.000	-3.141	103679	-2.620	52.498	-6.371	-5.527	-0.493	-0.888	-0.177	-6.865	-6.622	0.879	-1.067	1.136	-0.173	0.122	1.000	0.202	-1.752	-0.416	0.432	0.222	
0.27211	0.00014	0.00043	471.080	137.437	-135.292	-2.749	-0.000	-3.141	103912	-0.577	55.581	-3.358	-9.405	0.153	-0.181	0.099	-2.092	-3.894	0.880	-1.065	0.434	-0.129	0.122	1.000	0.202	-1.752	-0.416	0.432	0.222	
3.58277	0.01469	0.00038	474.310	138.985	-135.336	-2.749	-0.000	3.142	104192	-0.961	55.837	-3.772	-10.179	0.211	-0.072	0.095	-0.823	-2.006	1.301	-1.469	0.305	-0.135	0.124	1.004	0.202	-1.742	-0.411	0.438	0.217	
1.06245	0.00732	0.00005	475.290	139.391	-135.267	-2.749	-0.000	3.142	104435	-0.993	55.930	-3.610	-9.801	0.214	0.003	0.086	-1.288	-1.998	1.080	-1.429	0.599	-0.114	0.124	1.005	0.202	-1.737	-0.408	0.442	0.214	
0.16950	0.00029	0.00023	475.354	139.235	-135.285	-2.749	-0.000	-3.141	104677	-0.820	55.840	-3.528	-9.731	0.199	-0.014	0.173	-1.279	-1.989	0.988	-1.479	0.598	-0.112	0.124	1.005	0.202	-1.737	-0.408	0.442	0.214	
0.01406	0.05209	0.07544	475.361	139.247	-135.284	-2.673	-0.000	-3.141	104962	-0.836	55.833	-3.603	-9.747	0.222	-0.007	0.105	-0.973	-1.868	1.053	-1.393	0.367	-0.076	0.124	1.005	0.202	-1.737	-0.408	0.441	0.162	
0.01979	0.19268	0.20348	475.381	139.248	-135.284	-2.470	-0.000	-3.142	105244	-0.800	55.789	-3.558	-9.784	0.268	-0.015	0.105	-0.623	-2.037	1.068	-1.439	0.106	-0.073	0.124	1.005	0.202	-1.737	-0.408	0.441	-0.031	
0.01104	0.13643	0.10975	475.392	139.247	-135.284	-2.360	-0.000	-3.142	105526	-0.825	55.815	-3.560	-9.730	0.215	0.007	0.054	-0.560	-2.120	1.008	-1.470	0.078	-0.092	0.124	1.005	0.202	-1.737	-0.408	0.441	-0.167	
0.00490	0.01157	0.00400	475.397	139.248	-135.283	-2.356	-0.000	-3.142	105792	-0.809	55.837	-3.558	-9.737	0.221	0.007	0.055	-0.547	-2.252	0.999	-1.555	0.071	-0.143	0.124	1.005	0.202	-1.737	-0.408	0.441	-0.179	
0.01824	0.00001	0.00003	475.390	139.231	-135.281	-2.356	-0.000	-3.142	106022	-0.210	55.768	-3.558	-10.000	0.525	0.185	-0.041	-1.309	-1.383	0.988	-1.047	0.484	-0.034	0.124	1.005	0.202	-1.737	-0.408	0.441	-0.179	
6.36509	0.02028	0.00014	470.901	134.719	-135.266	-2.356	-0.000	-3.142	106309	-1.213	55.085	-4.254	-9.900	0.543	0.290	-0.065	-2.071	-1.166	1.542	-0.917	0.857	0.017	0.118	1.000	0.202	-1.751	-0.416	0.432	-0.176	
3.52016	0.01853	0.00029	468.438	132.203	-135.231	-2.356	0.000	-3.141	106590	-0.144	55.265	-3.466	-9.315	0.428	0.015	-0.012	-1.241	-1.213	1.424	-0.922	0.401	-0.017	0.112	0.996	0.202	-1.764	-0.423	0.424	-0.173	
0.05006	0.00024	0.00013	468.415	132.172	-135.263	-2.356	-0.000	-3.141	106823	1.437	55.569	-2.643	-8.481	0.530	0.057	-0.041	-1.189	-1.147	1.364	-0.878	0.397	-0.014	0.112	0.996	0.202	-1.764	-0.423	0.424	-0.173	
3.91993	0.01054	0.00016	465.629	129.416	-135.223	-2.356	-0.000	-3.141	107060	-0.031	54.888	-3.566	-9.434	0.552	0.246	-0.072	-1.613	-1.065	1.181	-0.900	0.714	0.001	0.109	0.994	0.202	-1.771	-0.427	0.419	-0.172	
6.19288	0.02702	0.00007	461.234	125.052	-135.248	-2.356	-0.000	-3.142	107341	-0.186	54.392	-3.402	-8.797	0.475	0.142	-0.045	-1.579	-1.598	1.302	-1.194	0.636	-0.030	0.101	0.988	0.202	-1.790	-0.437	0.407	-0.167	
0.14815	0.00134	0.00022	461.363	125.125	-135.243	-2.356	0.000	-3.141	107620	-0.243	54.634	-3.504	-8.939	0.477	0.147	-0.045	-1.473	-1.354	1.259	-1.064	0.602	-0.022	0.100	0.988	0.202	-1.791	-0.438	0.407	-0.167	
1.57615	0.00098	0.00050	460.159	124.112	-135.337	-2.356	-0.000	3.142	107851	0.257	54.056	-3.286	-8.712	0.568	0.217	-0.114	-2.196	-1.188	1.376	-0.948	0.908	-0.004	0.100	0.988	0.202	-1.792	-0.438	0.406	-0.167	
7.02812	0.02769	0.00040	455.226	119.107	-135.275	-2.356	-0.000	3.142	108133	-0.009	53.816	-3.423	-8.490	0.458	0.158	-0.048	-1.276	-1.493	0.995	-1.178	0.593	-0.037	0.091	0.982	0.202	-1.810	-0.450	0.395	-0.162	
1.39799	0.01051	0.00038	454.279	118.079	-135.248	-2.356	0.000	-3.141	108370	-0.251	53.935	-3.483	-8.520	0.467	0.146	-0.054	-1.477	-1.379	1.144	-1.107	0.598	-0.031	0.088	0.980	0.202	-1.817	-0.455	0.390	-0.159	
0.03588	0.00007	0.00008	454.294	118.046	-135.253	-2.356	0.000	-3.141	108626	0.152	53.554	-3.670	-6.902	0.290	-0.362	-0.162	-1.619	-1.454	0.977	-1.096	0.678	-0.030	0.088	0.980	0.202	-1.817	-0.455	0.390	-0.159	
3.59290	0.01468	0.00127	452.171	115.164	-134.948	-2.356	0.001	-3.141	108880	-2.123	49.474	-5.164	-2.885	-0.507	-1.534	-0.215	-5.096	-7.696	-0.116	-1.416	0.620	-0.213	0.083	0.977	0.202	-1.826	-0.461	0.383	-0.157	
0.74217	0.00108	0.00135	451.482	115.222	-135.217	-2.356	-0.000	-3.141	109094	-3.389	50.071	-6.376	-3.932	-0.701	-1.208	-0.100	-6.974	-10.407	-1.059	-1.692	0.717	-0.272	0.082	0.977	0.202	-1.827	-0.462	0.383	-0.156	
1.84785	0.00657	0.00129	452.384	116.807	-135.516	-2.356	-0.001	3.141	109381	-0.937	53.810	-3.564	-8.714	0.131	-0.115	0.081	-0.053	-2.400	1.083	-1.517	-0.239	-0.141	0.085	0.979	0.202	-1.824	-0.459	0.386	-0.158	
3.20812	0.01313	0.00102	454.905	118.779	-135.292	-2.356	-0.000	-3.142	109664	-0.859	54.064	-3.452	-8.552	0.215	-0.039	0.059	-0.386	-2.394	1.055	-1.685	-0.043	-0.130	0.089	0.981	0.202	-1.815	-0.453	0.392	-0.160	
0.08445	0.00023	0.00008	454.837	118.747	-135.252	-2.356	-0.000	3.142	109948	-0.874	53.912	-3.465	-8.531	0.210	-0.039	0.093	-0.451	-2.358	0.957	-1.695	-0.008	-0.132	0.089	0.981	0.202	-1.815	-0.453	0.392	-0.160	
0.01906	0.01736	0.03205	454.847	118.731	-135.248	-2.324	-0.000	3.142	110181	-0.726	54.050	-3.285	-8.562	0.115	-0.085	0.105	-0.196	-2.217	1.031	-1.558	-0.166	-0.070	0.089	0.981	0.202	-1.815	-0.453	0.392	-0.178	
0.03178	0.15069	0.17374	454.874	118.714	-135.247	-2.150	-0.000	3.142	110461	-0.823	53.922	-3.391	-8.618	0.149	-0.071	0.128	0.217	-2.117	1.073	-1.420	-0.441	-0.055	0.089	0.981	0.202	-1.815	-0.453	0.392	-0.328	
0.02645	0.18212	0.16154	454.888	118.736	-135.245	-1.989	-0.000	3.141	110740	-0.812	53.902	-3.448	-8.574	0.185	-0.065	0.150	0.439	-2.047	1.066	-1.327	-0.581	-0.064	0.089	0.981	0.202	-1.815	-0.453	0.392	-0.510	
0.00730	0.04299	0.02554	454.893	118.741	-135.243	-1.963	-0.000	3.141	111020	-0.794	53.887	-3.429	-8.564	0.180	-0.065	0.093	0.541	-2.170	1.029	-1.400	-0.634	-0.116	0.089	0.981	0.202	-1.815	-0.453	0.392	-0.553	
0.00210	0.00003	0.00002	454.893	118.743	-135.243	-1.963	-0.000	3.141	111286	1.285	54.359	-2.494	-7.948	0.305	-0.067	0.122	0.604	-2.281	1.040	-1.448	-0.649	-0.116	0.089	0.981	0.202	-1.815	-0.453	0.392	-0.553	
3.96413	0.00899	0.00026	453.403	115.069	-135.240	-1.964	-0.000	3.142	111537	-0.056	53.550	-3.607	-8.188	0.487	0.179	0.137	-1.122	-1.124	1.481	-0.830	0.381	0.140	0.084	0.980	0.202	-1.820	-0.456	0.388	-0.554	
6.05623	0.02179	0.00014	451.120	109.460	-135.232	-1.964	-0.000	3.142	111817	-0.226	53.250	-3.433	-8.093	0.448	0.137	0.085	-0.865	-1.721	1.082	-1.133	0.182	0.062	0.071	0.976	0.202	-1.832	-0.465	0.380	-0.557	
0.07497	0.00099	0.00012	451.136	109.527	-135.262	-1.963	-0.000	3.142	112097	-0.285	53.580	-3.454	-8.266	0.438	0.140	0.081	-0.826	-1.607	1.093	-1.053	0.192	0.062	0.070	0.976	0.202	-1.832	-0.465	0.380	-0.558	
1.34517	0.00080	0.00023	450.506	108.340	-135.321	-1.963	-0.000	3.141	112286	-0.056	53.611	-3.260	-8.351	0.553	0.198	0.140	-1.584	-1.493	1.342	-0.901	0.574	0.158	0.070	0.976	0.202	-1.833	-0.465	0.380	-0.558	
7.07372	0.02196	0.00027	447.937	101.750	-135.266	-1.964	-0.000	3.142	112566	-0.106	52.941	-3.249	-7.985	0.509	0.145	0.082	-0.722	-1.708	1.212	-1.172	0.208	0.145	0.057	0.972	0.202	-1.845	-0.474	0.372	-0.560	
1.54509	0.00888	0.00033	447.306	100.339	-135.249	-1.963	-0.000	-3.142	112808	-0.190	53.008	-3.368	-7.959	0.480	0.141	0.082	-0.808	-1.701	1.171	-1.125	0.166	0.077	0.051	0.971	0.202	-1.850	-0.478	0.369	-0.562	
0.02630	0.00005	0.00006	447.311	100.313	-135.250	-1.963	-0.000	-3.142	113068	1.878	52.856	-2.213	-7.234	0.542	0.134	0.116	-0.631	-1.862	1.093	-1.217	0.090	0.067	0.051	0.971	0.202	-1.850	-0.478	0.369	-0.562	
4.02460	0.00869	0.00036	445.750	96.604	-135.247	-1.964	-0.000	3.141	113299	0.058	53.041	-3.194	-8.201	0.538	0.246	0.145	-1.141	-1.700	1.598	-1.086	0.369	0.159	0.046	0.970	0.202	-1.855	-0.482	0.366	-0.563	
5.98610	0.02169	0.00045	443.632	91.006	-135.150	-1.964	0.000	-3.141	113579	-0.796	50.239	-3.807	-4.329	0.046	-0.956	-0.002	-2.468	-6.387	0.898	-1.423	0.315	-0.011	0.033	0.966	0.202	-1.866	-0.491	0.358	-0.565	
0.19076	0.00121	0.00029	443.496	91.085	-135.258	-1.963	0.000	-3.142	113814	-0.586	49.825	-3.539	-3.765	0.014	-1.224	-0.020	-2.963	-7.159	0.443	-1.451	0.290	-0.040	0.032	0.966	0.202	-1.867	-0.491	0.358	-0.566	
0.91949	0.00125	0.00039	443.756	91.966	-135.283	-1.963	-0.000	3.141	114049	-0.773	52.691	-3.256	-7.619	0.123	-0.161	-0.017	1.015	-2.679	1.226	-1.620	-0.930	-0.195	0.033	0.966	0.202	-1.866	-0.491	0.358	-0.565	
3.54667	0.01142	0.00020	445.153	95.226	-135.280	-1.964	-0.000	3.141	114329	-0.702	52.717	-3.389	-7.875	0.204	-0.017	-0.041	0.918	-2.445	0.655	-1.563	-0.882	-0.220	0.040	0.968	0.202	-1.860	-0.486	0.362	-0.564	
0.50844	0.00329	0.00015	445.404	95.668	-135.266	-1.964	-0.000	3.142	114580	-0.700	52.658	-3.319	-7.844	0.232	-0.072	-0.039	0.707	-2.488	0.780	-1.656	-0.714	-0.174	0.042	0.968	0.202	-1.858	-0.484	0.363	-0.563	
0.05950	0.00017	0.00171	445.433	95.720	-135.266	-1.962	0.000	-3.142	114765	-0.753	52.775	-3.374	-7.875	0.221	-0.042	0.160	0.511	-2.019	0.850	-1.333	-0.624	-0.049	0.042	0.968	0.202	-1.858	-0.484	0.363	-0.563	
0.01099	0.07248	0.09799	445.434	95.709	-135.267	-1.864	0.000	-3.142	115047	-0.751	52.782	-3.357	-7.879	0.153	-0.045	0.225	0.760	-1.942	0.876	-1.234	-0.779	-0.038	0.042	0.968	0.202	-1.858	-0.485	0.363	-0.636	
0.01190	0.20132	0.20410	445.431	95.720	-135.267	-1.660	0.000	-3.142	115329	-0.786	52.762	-3.397	-7.865	0.257	-0.040	0.160	1.184	-1.802	0.874	-1.094	-1.041	-0.031	0.042	0.968	0.202	-1.858	-0.485	0.363	-0.837	
0.00037	0.11431	0.08850	445.431	95.720	-135.267	-1.571	0.000	-3.142	115610	-0.793	52.752	-3.384	-7.850	0.267	-0.040	0.119	1.257	-1.803	0.846	-1.072	-1.096	-0.048	0.042	0.968	0.202	-1.858	-0.485	0.363	-0.952	
0.00099	0.00446	0.00051	445.432	95.720	-135.267	-1.571	0.000	-3.142	115874	-0.782	52.775	-3.370	-7.878	0.272	-0.040	0.109	1.287	-1.811	0.838	-1.080	-1.112	-0.058	0.042	0.968	0.202	-1.858	-0.485	0.363	-0.956	
0.22314	0.00002	0.00008	445.424	95.497	-135.266	-1.571	-0.000	-3.142	116060	-0.191	52.912	-3.447	-7.697	0.447	0.071	0.138	-0.173	-1.447	1.421	-0.747	-0.155	0.113	0.042	0.968	0.202	-1.858	-0.485	0.363	-0.956	
6.87764	0.01692	0.00013	445.410	88.619	-135.261	-1.571	-0.000	3.142	116342	-1.617	52.801	-4.360	-7.897	0.458	0.215	0.121	-0.805	-1.633	1.407	-0.878	0.137	0.139	0.029	0.967	0.202	-1.862	-0.488	0.361	-0.966	
2.91732	0.01205	0.00023	445.370	85.702	-135.244	-1.571	-0.000	3.142	116623	-0.284	52.779	-3.433	-7.717	0.398	0.135	0.077	-0.025	-1.891	1.237	-1.055	-0.266	0.045	0.020	0.967	0.202	-1.864	-0.490	0.359	-0.973	
0.02929	0.00010	0.00010	445.394	85.686	-135.244	-1.571	-0.000	-3.142	116889	2.112	52.658	-2.168	-7.681	0.413	0.092	0.134	0.096	-1.924	1.309	-1.063	-0.331	0.042	0.020	0.967	0.202	-1.864	-0.490	0.359	-0.973	
3.86632	0.00765	0.00022	445.399	81.819	-135.242	-1.571	-0.000	3.142	117136	-0.079	52.498	-3.429	-7.597	0.467	0.150	0.141	-0.848	-1.573	1.424	-0.863	0.208	0.155	0.014	0.966	0.202	-1.866	-0.491	0.359	-0.977	
6.23638	0.01990	0.00032	445.255	75.585	-135.267	-1.571	-0.000	3.141	117418	-0.177	52.789	-3.319	-7.700	0.436	0.146	0.056	-0.054	-1.920	1.293	-1.074	-0.253	0.059	-0.001	0.965	0.202	-1.869	-0.494	0.356	-0.989	
0.10075	0.00140	0.00026	445.337	75.637	-135.241	-1.571	-0.000	3.141	117668	-0.171	52.677	-3.338	-7.660	0.427	0.131	0.054	-0.172	-1.862	1.345	-1.023	-0.195	0.054	-0.002	0.965	0.202	-1.870	-0.494	0.356	-0.990	
