arturo-sol653/Programmierung-und-Regelung-fuer-Mensch-Roboterinteraktion/Robot Programming/iiwa-exercises/logs/log_wireloop_4.log
FX	FY	FZ	TA	TB	TC	JS_DIST	TRANS_DIST	ROT_DIST	TIME	MT0	MT1	MT2	MT3	MT4	MT5	MT6	J0	J1	J2	J3	J4	J5	J6	X	Y	Z	A	B	C	
0.017	-1.615	0.546	-1.036	-0.302	0.004	0.00000	0.00000	0.00000	1	-0.091	52.285	-6.212	-7.533	0.554	0.064	-0.038	-0.132	0.994	0.341	-1.861	-0.758	0.420	-0.798	449.440	69.943	-135.125	-1.571	0.000	-3.141	
-0.054	-1.577	0.600	-1.007	-0.263	0.008	0.00001	0.00112	0.00000	213	-0.148	52.282	-6.214	-7.551	0.545	0.063	-0.036	-0.132	0.994	0.341	-1.861	-0.758	0.420	-0.798	449.439	69.943	-135.126	-1.571	0.000	-3.141	
0.004	-1.578	0.471	-1.006	-0.283	0.006	0.00001	0.00098	0.00000	492	-0.093	52.427	-6.207	-7.589	0.538	0.061	-0.035	-0.132	0.994	0.341	-1.861	-0.758	0.420	-0.798	449.440	69.942	-135.125	-1.571	0.000	-3.141	
0.151	-1.631	0.477	-1.041	-0.350	0.001	0.00000	0.00035	0.00000	757	0.618	52.517	-5.834	-7.536	0.634	0.110	0.135	-0.132	0.994	0.341	-1.861	-0.758	0.420	-0.798	449.440	69.942	-135.125	-1.571	0.000	-3.141	
-0.670	-1.774	0.920	-1.068	0.096	0.169	0.00720	3.77011	0.00005	992	0.259	52.388	-5.920	-7.211	0.615	0.123	0.139	-0.137	0.994	0.341	-1.862	-0.759	0.420	-0.803	449.428	66.172	-135.111	-1.571	0.000	-3.141	
-0.283	-1.828	1.082	-1.031	-0.161	0.109	0.02026	6.25579	0.00008	1274	-0.085	52.603	-6.214	-7.482	0.551	0.067	0.101	-0.153	0.993	0.341	-1.865	-0.762	0.418	-0.815	449.396	59.917	-135.074	-1.571	0.000	-3.141	
-0.316	-1.710	1.060	-0.974	-0.125	0.105	0.00158	0.11923	0.00022	1521	-0.110	52.559	-6.186	-7.469	0.548	0.067	0.099	-0.154	0.993	0.341	-1.865	-0.763	0.418	-0.816	449.315	59.941	-135.157	-1.571	0.000	-3.142	
-0.911	-1.703	0.951	-0.973	0.209	0.191	0.00008	0.38270	0.00018	1770	0.297	52.461	-5.972	-7.361	0.607	0.151	0.152	-0.154	0.993	0.341	-1.865	-0.763	0.418	-0.816	449.336	59.559	-135.146	-1.571	0.000	-3.142	
-0.535	-1.953	1.042	-1.136	0.004	0.168	0.01792	7.08418	0.00023	2051	0.333	52.760	-6.075	-7.530	0.559	0.125	0.103	-0.168	0.993	0.341	-1.868	-0.765	0.417	-0.827	449.339	52.474	-135.118	-1.571	-0.000	3.142	
-0.322	-1.866	1.198	-1.082	-0.118	0.100	0.01129	2.51874	0.00048	2330	-0.005	52.430	-6.191	-7.434	0.547	0.121	0.097	-0.176	0.992	0.341	-1.869	-0.766	0.416	-0.834	449.423	49.957	-135.107	-1.571	0.000	-3.141	
-0.263	-1.825	1.128	-1.075	-0.149	0.095	0.00012	0.07141	0.00013	2580	0.690	52.474	-5.924	-7.334	0.595	0.118	0.163	-0.176	0.992	0.341	-1.869	-0.766	0.416	-0.834	449.483	49.919	-135.097	-1.571	0.000	-3.141	
-0.875	-1.899	1.372	-1.045	0.179	0.176	0.00717	3.69196	0.00034	2815	-0.450	52.450	-6.577	-7.227	0.565	0.185	0.167	-0.182	0.992	0.341	-1.870	-0.767	0.416	-0.838	449.333	46.231	-135.125	-1.571	-0.000	3.142	
-0.499	-2.083	1.244	-1.164	-0.038	0.102	0.02068	6.35826	0.00007	3097	0.121	52.535	-6.106	-7.353	0.534	0.063	0.086	-0.198	0.991	0.341	-1.872	-0.769	0.415	-0.851	449.330	39.872	-135.127	-1.571	-0.000	3.142	
-0.454	-1.766	1.228	-0.948	-0.051	0.102	0.00177	0.10585	0.00036	3345	-0.032	52.298	-6.192	-7.329	0.526	0.066	0.086	-0.199	0.991	0.341	-1.872	-0.769	0.414	-0.852	449.384	39.963	-135.119	-1.571	0.000	-3.141	
-0.694	-1.866	1.351	-0.962	0.128	0.182	0.00008	0.24035	0.00021	3534	0.372	52.457	-5.938	-7.287	0.593	0.132	0.166	-0.199	0.991	0.341	-1.872	-0.769	0.414	-0.852	449.382	39.723	-135.123	-1.571	0.000	-3.141	
-0.571	-1.900	1.344	-1.030	0.076	0.186	0.01749	6.85760	0.00011	3815	0.171	52.377	-6.059	-7.469	0.540	0.146	0.099	-0.212	0.991	0.341	-1.873	-0.771	0.414	-0.864	449.369	32.865	-135.114	-1.571	0.000	-3.142	
-0.482	-1.976	1.279	-1.086	-0.040	0.089	0.01244	2.92474	0.00029	4094	-0.004	52.388	-6.178	-7.300	0.530	0.129	0.080	-0.221	0.991	0.341	-1.874	-0.772	0.413	-0.872	449.412	29.941	-135.109	-1.571	0.000	-3.141	
-0.243	-1.973	1.260	-1.089	-0.129	0.089	0.00004	0.02320	0.00006	4362	0.827	52.346	-5.774	-7.134	0.556	0.101	0.173	-0.221	0.991	0.341	-1.874	-0.772	0.413	-0.872	449.408	29.918	-135.111	-1.571	0.000	-3.141	
-0.330	-2.000	1.449	-1.049	0.008	0.173	0.00802	3.94148	0.00035	4610	0.536	52.316	-5.830	-7.341	0.589	0.125	0.185	-0.227	0.991	0.341	-1.874	-0.772	0.413	-0.877	449.288	25.978	-135.144	-1.571	-0.000	3.141	
-0.523	-1.877	1.383	-0.980	0.000	0.140	0.02076	6.11141	0.00025	4888	0.089	52.389	-6.157	-7.273	0.533	0.057	0.125	-0.243	0.990	0.341	-1.875	-0.774	0.412	-0.891	449.411	19.868	-135.136	-1.571	0.000	-3.141	
-0.632	-1.714	1.513	-0.865	0.053	0.136	0.00157	0.06249	0.00019	5139	0.187	52.385	-6.120	-7.289	0.527	0.062	0.120	-0.244	0.990	0.341	-1.876	-0.774	0.412	-0.892	449.406	19.930	-135.137	-1.571	0.000	-3.141	
-0.970	-1.685	1.665	-0.807	0.272	0.194	0.00004	0.23874	0.00007	5373	0.008	52.224	-6.368	-7.124	0.563	0.130	0.170	-0.244	0.990	0.341	-1.876	-0.774	0.412	-0.892	449.404	19.692	-135.137	-1.571	0.000	-3.141	
-1.789	-1.760	1.607	-0.844	0.600	0.213	0.01830	7.00305	0.00033	5655	0.516	52.463	-5.939	-7.473	0.573	0.135	0.134	-0.257	0.990	0.341	-1.876	-0.774	0.412	-0.905	449.354	12.689	-135.112	-1.571	-0.000	3.142	
-0.486	-1.901	1.369	-1.017	-0.006	0.112	0.01250	2.78310	0.00025	5935	0.133	52.340	-6.149	-7.311	0.534	0.130	0.091	-0.266	0.990	0.341	-1.877	-0.775	0.412	-0.913	449.305	9.906	-135.120	-1.570	-0.000	3.142	
-0.382	-1.900	1.357	-1.028	-0.059	0.107	0.00007	0.03855	0.00009	6184	0.290	52.326	-6.117	-7.292	0.534	0.128	0.161	-0.266	0.990	0.341	-1.877	-0.775	0.412	-0.913	449.314	9.869	-135.120	-1.571	-0.000	3.142	
-1.373	-1.737	1.701	-0.824	0.485	0.212	0.00783	3.71512	0.00041	6416	-0.144	52.113	-6.421	-7.128	0.558	0.137	0.164	-0.272	0.990	0.341	-1.877	-0.775	0.412	-0.919	449.368	6.154	-135.123	-1.571	-0.000	3.142	
-0.537	-1.929	1.529	-1.001	0.036	0.114	0.02161	6.29779	0.00032	6698	0.206	52.549	-6.202	-7.340	0.540	0.127	0.073	-0.287	0.990	0.341	-1.877	-0.775	0.412	-0.934	449.258	-0.143	-135.155	-1.571	-0.000	3.141	
-0.628	-1.844	1.382	-0.951	0.094	0.110	0.00175	0.01965	0.00010	6949	0.151	52.368	-6.186	-7.299	0.534	0.126	0.070	-0.288	0.990	0.341	-1.877	-0.775	0.412	-0.935	449.265	-0.125	-135.153	-1.571	-0.000	3.141	
-0.276	-1.562	1.554	-0.760	0.043	0.178	0.00005	0.26748	0.00003	7185	0.659	52.357	-5.851	-7.259	0.454	0.079	0.167	-0.288	0.990	0.341	-1.877	-0.775	0.412	-0.935	449.267	-0.392	-135.152	-1.571	-0.000	3.141	
-0.826	-1.255	1.803	-0.522	0.359	0.147	0.01874	6.85292	0.00023	7466	0.372	52.324	-6.050	-7.424	0.337	0.095	0.138	-0.302	0.990	0.341	-1.877	-0.775	0.412	-0.949	449.388	-7.244	-135.120	-1.571	-0.000	-3.142	
-0.591	-1.484	1.602	-0.694	0.162	0.055	0.01297	2.82455	0.00013	7750	0.216	52.346	-6.178	-7.348	0.320	0.091	0.087	-0.311	0.990	0.341	-1.877	-0.775	0.412	-0.958	449.440	-10.068	-135.104	-1.571	0.000	-3.141	
-0.524	-1.507	1.585	-0.705	0.132	0.050	0.00008	0.02839	0.00013	7999	0.573	52.469	-6.059	-7.395	0.313	0.061	0.168	-0.311	0.990	0.341	-1.877	-0.774	0.412	-0.958	449.435	-10.096	-135.104	-1.571	0.000	-3.141	
-1.585	-0.905	2.112	-0.222	0.736	0.132	0.00746	3.56564	0.00009	8234	0.117	52.219	-6.355	-7.324	0.216	-0.001	0.173	-0.316	0.990	0.341	-1.876	-0.774	0.412	-0.963	449.433	-13.661	-135.120	-1.571	0.000	-3.141	
-0.813	-0.858	1.935	-0.243	0.366	0.076	0.02270	6.44417	0.00014	8517	0.297	52.326	-6.156	-7.361	0.238	-0.035	0.111	-0.331	0.990	0.341	-1.876	-0.774	0.412	-0.980	449.399	-20.105	-135.118	-1.571	0.000	-3.141	
-0.869	-0.912	1.842	-0.270	0.389	0.068	0.00197	0.03149	0.00019	8769	0.405	52.301	-6.090	-7.397	0.236	0.009	0.103	-0.333	0.990	0.341	-1.875	-0.773	0.412	-0.981	449.393	-20.136	-135.114	-1.571	-0.000	-3.142	
-1.454	-0.661	2.104	-0.067	0.757	0.119	0.00014	0.38679	0.00019	9020	0.151	52.294	-6.402	-7.449	0.202	-0.020	0.172	-0.333	0.990	0.341	-1.875	-0.773	0.412	-0.981	449.359	-20.522	-135.116	-1.571	-0.000	3.142	
-1.665	-0.512	2.057	0.049	0.852	0.134	0.02033	6.99745	0.00048	9301	0.567	52.217	-6.053	-7.385	0.239	-0.079	0.046	-0.346	0.991	0.341	-1.875	-0.772	0.413	-0.996	449.480	-27.518	-135.114	-1.571	0.000	-3.141	
-0.813	-0.780	1.639	-0.189	0.379	0.044	0.01229	2.52826	0.00026	9585	0.345	52.270	-6.164	-7.463	0.252	-0.059	0.046	-0.355	0.991	0.341	-1.874	-0.772	0.413	-1.005	449.388	-30.044	-135.149	-1.571	0.000	-3.142	
-0.715	-0.781	1.634	-0.201	0.330	0.049	0.00008	0.03729	0.00007	9834	1.066	52.334	-5.760	-7.419	0.218	-0.104	0.170	-0.355	0.991	0.341	-1.874	-0.772	0.413	-1.005	449.397	-30.080	-135.142	-1.571	0.000	-3.142	
-1.353	-0.229	1.974	0.197	0.818	0.152	0.00867	3.86511	0.00005	10070	0.413	52.349	-6.268	-7.454	0.206	-0.113	0.167	-0.360	0.991	0.341	-1.873	-0.771	0.413	-1.012	449.377	-33.945	-135.119	-1.571	0.000	-3.142	
-0.965	-0.603	1.623	-0.096	0.525	0.091	0.02333	6.20345	0.00035	10359	0.398	52.271	-6.168	-7.441	0.224	-0.034	0.110	-0.376	0.991	0.341	-1.872	-0.769	0.414	-1.029	449.234	-40.146	-135.162	-1.571	-0.000	3.141	
-1.002	-0.659	1.599	-0.117	0.547	0.091	0.00111	0.05921	0.00010	10591	0.333	52.227	-6.178	-7.451	0.234	-0.035	0.106	-0.376	0.991	0.341	-1.872	-0.769	0.415	-1.030	449.283	-40.114	-135.154	-1.571	-0.000	3.141	
-1.713	-0.392	1.807	0.144	0.965	0.139	0.00005	0.29417	0.00011	10825	0.376	52.207	-6.356	-7.550	0.179	-0.097	0.141	-0.376	0.991	0.341	-1.872	-0.769	0.415	-1.030	449.283	-40.408	-135.150	-1.571	-0.000	3.141	
-1.936	-0.202	2.020	0.271	1.111	0.151	0.02018	6.88885	0.00029	11105	0.659	52.181	-6.167	-7.680	0.210	-0.034	0.104	-0.390	0.992	0.341	-1.870	-0.768	0.415	-1.045	449.354	-47.296	-135.140	-1.571	0.000	-3.141	
-1.160	-0.619	1.460	-0.086	0.637	0.088	0.01343	2.76670	0.00037	11388	0.405	52.301	-6.204	-7.437	0.221	-0.040	0.078	-0.398	0.992	0.341	-1.869	-0.766	0.416	-1.055	449.245	-50.061	-135.161	-1.571	0.000	3.141	
-0.971	-0.697	1.459	-0.139	0.538	0.072	0.00010	0.04252	0.00005	11638	1.512	52.340	-5.758	-7.441	0.159	-0.116	0.149	-0.398	0.992	0.341	-1.869	-0.766	0.416	-1.055	449.211	-50.085	-135.166	-1.571	0.000	3.141	
-1.662	-0.203	1.788	0.239	0.987	0.139	0.00794	3.60104	0.00027	11871	0.534	52.415	-6.265	-7.548	0.171	-0.124	0.134	-0.403	0.992	0.341	-1.868	-0.765	0.416	-1.061	449.302	-53.685	-135.134	-1.571	0.000	3.142	
-1.320	-0.571	1.759	-0.052	0.725	0.095	0.02371	6.42804	0.00015	12151	0.559	52.521	-6.154	-7.516	0.212	-0.033	0.096	-0.418	0.993	0.341	-1.865	-0.763	0.418	-1.079	449.303	-60.113	-135.149	-1.571	-0.000	3.141	
-1.332	-0.666	1.581	-0.078	0.778	0.101	0.00241	0.04105	0.00012	12402	0.440	52.201	-6.164	-7.515	0.224	-0.033	0.094	-0.420	0.993	0.341	-1.865	-0.762	0.418	-1.081	449.277	-60.082	-135.155	-1.571	0.000	3.141	
-1.563	-0.253	1.787	0.217	1.010	0.142	0.00008	0.31916	0.00011	12591	0.480	52.408	-6.246	-7.635	0.181	-0.124	0.139	-0.420	0.993	0.341	-1.865	-0.762	0.418	-1.081	449.251	-60.400	-135.153	-1.571	0.000	3.141	
-1.670	-0.194	1.957	0.262	1.063	0.148	0.02096	6.94675	0.00044	12872	0.878	52.498	-6.032	-7.724	0.215	-0.063	0.077	-0.433	0.994	0.341	-1.863	-0.760	0.419	-1.097	449.445	-67.344	-135.137	-1.571	0.000	-3.141	
-1.229	-0.717	1.605	-0.089	0.716	0.079	0.01352	2.71549	0.00045	13152	0.489	52.435	-6.211	-7.652	0.219	-0.056	0.066	-0.441	0.994	0.341	-1.861	-0.758	0.421	-1.108	449.256	-70.053	-135.163	-1.571	0.000	3.141	
-1.044	-0.655	1.473	-0.090	0.623	0.074	0.00009	0.03919	0.00009	13401	1.163	52.211	-5.921	-7.593	0.163	-0.126	0.139	-0.441	0.994	0.341	-1.861	-0.758	0.421	-1.108	449.235	-70.086	-135.164	-1.571	0.000	3.141	
-5.623	-5.436	2.394	-0.167	1.450	0.015	0.00828	3.56249	0.00043	13637	2.616	49.944	-2.527	-4.351	0.213	-2.101	-0.084	-0.446	0.995	0.341	-1.860	-0.757	0.421	-1.114	449.393	-73.645	-135.131	-1.571	0.000	-3.141	
-5.761	-8.545	0.302	-0.578	1.013	-0.080	0.00778	1.02486	0.00025	13920	2.987	49.628	-2.068	-3.256	0.103	-2.599	-0.143	-0.451	0.995	0.341	-1.858	-0.756	0.422	-1.120	449.553	-74.657	-135.114	-1.571	0.000	-3.141	
-0.867	-4.628	0.623	-0.961	-0.599	-0.121	0.00098	0.75269	0.00061	14151	-0.453	52.415	-6.421	-7.565	0.541	0.042	-0.086	-0.450	0.995	0.341	-1.859	-0.756	0.422	-1.119	449.232	-73.978	-135.167	-1.571	-0.000	3.141	
0.268	-1.791	0.888	-0.937	-0.498	-0.018	0.01223	3.62318	0.00016	14432	0.017	52.699	-6.208	-7.640	0.537	0.047	-0.060	-0.443	0.994	0.341	-1.861	-0.758	0.421	-1.110	449.166	-70.355	-135.148	-1.571	0.000	3.141	
0.427	-1.702	0.912	-0.883	-0.510	-0.017	0.00425	0.62510	0.00031	14702	-0.055	52.506	-6.235	-7.541	0.494	0.044	-0.054	-0.440	0.994	0.341	-1.861	-0.758	0.420	-1.106	449.324	-69.751	-135.117	-1.571	-0.000	3.142	
-0.081	-1.500	1.172	-0.710	-0.194	0.117	0.00007	0.02305	0.00167	14886	-0.038	52.551	-6.193	-7.537	0.473	0.009	0.192	-0.440	0.994	0.341	-1.861	-0.758	0.420	-1.106	449.333	-69.730	-135.117	-1.569	-0.000	3.142	
0.056	-1.412	1.169	-0.601	-0.230	0.146	0.07197	0.00709	0.09800	15165	-0.017	52.609	-6.180	-7.558	0.432	0.005	0.152	-0.440	0.994	0.341	-1.861	-0.758	0.420	-1.178	449.337	-69.736	-135.117	-1.471	0.000	3.142	
0.227	-1.337	1.141	-0.540	-0.287	0.156	0.17983	0.00485	0.17355	15444	0.031	52.591	-6.204	-7.574	0.498	0.031	0.157	-0.440	0.994	0.341	-1.861	-0.758	0.420	-1.358	449.342	-69.733	-135.117	-1.298	0.000	-3.142	
0.346	-1.406	1.123	-0.582	-0.350	0.122	0.06247	0.00141	0.04110	15725	0.027	52.588	-6.198	-7.564	0.487	0.043	0.122	-0.440	0.994	0.341	-1.861	-0.758	0.420	-1.421	449.343	-69.733	-135.117	-1.256	0.000	-3.142	
0.369	-1.421	1.109	-0.595	-0.368	0.116	0.00006	0.00077	0.00002	15992	1.988	52.435	-5.192	-8.095	0.282	-0.098	0.172	-0.440	0.994	0.341	-1.861	-0.758	0.420	-1.421	449.344	-69.733	-135.117	-1.256	0.000	-3.142	
-1.465	-0.555	2.087	-0.010	1.110	0.174	0.00690	2.85721	0.00032	16240	0.698	52.988	-6.303	-7.888	0.170	-0.129	0.168	-0.443	0.995	0.341	-1.859	-0.756	0.422	-1.426	450.203	-72.457	-135.109	-1.257	-0.000	3.141	
-1.645	-1.169	1.912	-0.305	1.038	0.167	0.03111	6.86441	0.00026	16524	0.520	52.867	-6.267	-7.747	0.310	-0.031	0.104	-0.455	0.998	0.341	-1.849	-0.746	0.427	-1.450	452.402	-78.960	-135.152	-1.257	0.000	-3.142	
-0.947	-1.275	1.722	-0.414	0.654	0.140	0.00566	0.29803	0.00039	16806	0.432	52.855	-6.254	-7.804	0.332	-0.026	0.101	-0.458	0.998	0.341	-1.847	-0.745	0.428	-1.455	452.343	-79.252	-135.154	-1.256	0.000	3.141	
-1.328	-0.846	2.104	-0.115	1.068	0.184	0.00005	0.44636	0.00052	17040	0.929	53.160	-6.290	-8.037	0.195	-0.154	0.188	-0.458	0.998	0.341	-1.847	-0.745	0.428	-1.455	452.621	-79.597	-135.102	-1.256	-0.000	-3.141	
-2.124	-1.121	2.394	-0.160	1.413	0.204	0.02653	6.95767	0.00045	17320	1.332	53.006	-5.435	-7.774	0.310	-0.413	0.101	-0.468	1.000	0.341	-1.839	-0.736	0.433	-1.475	454.812	-86.201	-135.105	-1.257	-0.000	-3.141	
-1.673	-2.421	1.991	-0.416	0.811	0.103	0.01690	2.63165	0.00033	17604	1.329	53.133	-5.361	-7.707	0.331	-0.435	0.065	-0.475	1.002	0.341	-1.833	-0.731	0.436	-1.488	455.525	-88.734	-135.134	-1.257	0.000	3.141	
-1.887	-2.486	1.897	-0.424	0.796	0.098	0.00006	0.02920	0.00005	17857	3.214	53.036	-3.220	-7.212	0.452	-1.351	0.088	-0.475	1.002	0.341	-1.833	-0.731	0.436	-1.488	455.507	-88.758	-135.134	-1.257	0.000	3.141	
-5.003	-8.453	1.266	-0.766	0.999	-0.008	0.01069	2.39289	0.00087	18091	3.873	52.082	-1.729	-5.815	0.598	-2.145	-0.022	-0.479	1.003	0.342	-1.829	-0.728	0.438	-1.497	456.684	-90.840	-135.067	-1.256	0.000	-3.141	
-3.821	-7.679	1.019	-0.700	0.775	-0.023	0.00077	0.50246	0.00068	18286	1.210	52.712	-5.070	-7.451	0.577	-0.410	-0.087	-0.479	1.003	0.341	-1.829	-0.728	0.438	-1.497	456.346	-91.205	-135.138	-1.257	-0.000	-3.141	
0.920	-1.924	1.187	-0.822	-0.830	-0.023	0.00738	2.21555	0.00075	18579	0.323	53.645	-6.134	-8.232	0.545	0.114	-0.059	-0.477	1.002	0.341	-1.832	-0.730	0.437	-1.491	455.261	-89.274	-135.196	-1.257	-0.000	3.141	
0.968	-1.733	1.210	-0.759	-0.742	-0.010	0.01440	2.96037	0.00070	18862	0.022	53.388	-6.245	-7.911	0.482	0.023	-0.021	-0.471	1.001	0.341	-1.837	-0.735	0.434	-1.480	454.757	-86.358	-135.114	-1.257	0.000	-3.142	
0.898	-1.592	1.370	-0.632	-0.697	-0.004	0.00035	0.04101	0.00015	19111	0.052	53.300	-6.245	-7.922	0.472	0.020	0.141	-0.471	1.001	0.341	-1.837	-0.735	0.434	-1.480	454.792	-86.341	-135.127	-1.257	0.000	-3.141	
0.414	-1.572	1.463	-0.589	-0.354	0.142	0.00902	0.00587	0.01989	19359	-0.009	53.398	-6.301	-7.923	0.565	0.068	0.155	-0.471	1.001	0.341	-1.837	-0.735	0.434	-1.489	454.791	-86.347	-135.127	-1.237	0.000	-3.141	
0.738	-1.438	1.493	-0.501	-0.473	0.157	0.12876	0.00255	0.15459	19638	0.035	53.295	-6.242	-7.871	0.493	0.043	0.148	-0.471	1.001	0.341	-1.837	-0.735	0.434	-1.617	454.789	-86.349	-135.127	-1.082	0.000	-3.141	
0.819	-1.361	1.479	-0.455	-0.494	0.151	0.15551	0.00871	0.13036	19920	0.030	53.306	-6.251	-7.918	0.475	0.042	0.152	-0.471	1.001	0.341	-1.837	-0.735	0.434	-1.773	454.789	-86.340	-135.128	-0.952	0.000	-3.141	
0.922	-1.356	1.433	-0.448	-0.555	0.121	0.02083	0.00056	0.00929	20167	0.020	53.324	-6.256	-7.913	0.476	0.044	0.145	-0.471	1.001	0.341	-1.837	-0.735	0.434	-1.794	454.789	-86.339	-135.128	-0.942	0.000	-3.141	
-0.137	-1.474	1.394	-0.479	0.070	0.158	0.00001	0.00039	0.00000	20424	0.331	53.453	-6.219	-8.050	0.239	-0.167	0.213	-0.471	1.001	0.341	-1.837	-0.735	0.434	-1.794	454.789	-86.339	-135.128	-0.942	0.000	-3.141	
-1.485	-1.700	2.620	-0.586	1.177	0.197	0.02065	5.26565	0.00025	20701	-0.293	53.891	-6.958	-7.893	0.195	-0.116	0.185	-0.475	1.004	0.341	-1.828	-0.726	0.439	-1.809	457.837	-90.633	-135.140	-0.942	0.000	3.142	
-0.605	-1.601	1.950	-0.593	0.586	0.163	0.02960	4.71550	0.00012	20982	0.458	53.593	-6.398	-8.235	0.318	-0.064	0.131	-0.482	1.007	0.341	-1.814	-0.715	0.447	-1.830	460.573	-94.473	-135.150	-0.942	0.000	3.141	
-0.621	-1.675	1.939	-0.628	0.610	0.166	0.00035	0.02292	0.00014	21263	2.543	53.798	-5.437	-9.553	0.234	-0.135	0.195	-0.482	1.007	0.341	-1.815	-0.715	0.447	-1.830	460.568	-94.495	-135.145	-0.942	0.000	3.141	
-1.622	-1.469	1.826	-0.597	1.373	0.239	0.00706	2.72296	0.00021	21496	1.132	53.660	-6.336	-9.036	0.214	-0.087	0.205	-0.484	1.008	0.341	-1.811	-0.712	0.448	-1.835	462.215	-96.663	-135.108	-0.943	0.000	3.142	
-1.395	-1.617	1.462	-0.690	1.078	0.206	0.03485	6.95716	0.00022	21780	0.652	54.269	-6.392	-8.551	0.258	0.004	0.133	-0.492	1.013	0.341	-1.795	-0.699	0.457	-1.859	466.362	-102.250	-135.119	-0.943	-0.000	-3.141	
-0.730	-1.704	1.729	-0.723	0.712	0.158	0.00704	0.39242	0.00018	22062	0.683	54.325	-6.345	-8.718	0.278	-0.011	0.129	-0.493	1.014	0.341	-1.792	-0.696	0.459	-1.864	466.635	-102.531	-135.120	-0.942	-0.000	-3.141	
-2.015	-1.807	1.633	-0.511	1.247	0.203	0.00009	0.42171	0.00045	22296	2.418	54.866	-3.488	-7.377	0.695	-1.252	0.080	-0.493	1.014	0.341	-1.792	-0.696	0.459	-1.864	466.772	-102.929	-135.091	-0.942	-0.000	3.142	
-3.321	-7.416	2.050	-1.144	0.749	0.072	0.02441	4.50445	0.00031	22576	3.381	54.206	-2.808	-8.429	0.735	-1.072	0.025	-0.499	1.018	0.342	-1.780	-0.687	0.466	-1.881	469.551	-106.474	-135.120	-0.942	-0.000	-3.141	
-0.933	-5.520	0.912	-0.840	0.034	0.004	0.00078	0.23044	0.00028	22812	0.449	54.575	-6.016	-8.622	0.556	-0.033	-0.034	-0.499	1.017	0.341	-1.780	-0.687	0.466	-1.881	469.515	-106.700	-135.141	-0.943	-0.000	-3.141	
1.748	-1.466	1.388	-0.479	-1.015	0.001	0.01035	2.74373	0.00038	23091	0.905	54.611	-5.952	-9.608	0.600	0.169	-0.020	-0.497	1.016	0.341	-1.786	-0.691	0.463	-1.874	467.800	-104.558	-135.137	-0.943	-0.000	3.142	
1.227	-1.171	1.262	-0.342	-0.741	0.008	0.01389	2.31054	0.00050	23373	0.004	54.499	-6.418	-8.610	0.476	0.031	0.005	-0.493	1.014	0.341	-1.792	-0.696	0.459	-1.864	466.623	-102.570	-135.111	-0.942	-0.000	-3.141	
1.126	-1.208	1.372	-0.361	-0.660	0.031	0.00021	0.01640	0.00006	23607	0.028	54.423	-6.373	-8.622	0.482	0.035	0.170	-0.493	1.014	0.341	-1.792	-0.696	0.459	-1.864	466.617	-102.585	-135.110	-0.942	-0.000	-3.141	
0.827	-1.295	1.399	-0.413	-0.431	0.155	0.01962	0.00283	0.03512	23856	-0.009	54.402	-6.375	-8.676	0.569	0.052	0.179	-0.493	1.014	0.341	-1.792	-0.696	0.459	-1.884	466.616	-102.587	-135.110	-0.907	-0.000	-3.141	
1.235	-0.983	1.401	-0.245	-0.617	0.128	0.15730	0.01328	0.16976	24142	0.054	54.409	-6.338	-8.577	0.502	0.062	0.164	-0.493	1.014	0.341	-1.792	-0.696	0.459	-2.041	466.616	-102.574	-135.109	-0.738	-0.000	-3.141	
1.207	-0.938	1.337	-0.212	-0.576	0.120	0.12796	0.00479	0.10654	24421	0.059	54.351	-6.352	-8.615	0.486	0.030	0.120	-0.493	1.014	0.341	-1.792	-0.696	0.459	-2.169	466.616	-102.569	-135.109	-0.631	-0.000	-3.141	
1.197	-0.945	1.390	-0.208	-0.565	0.106	0.00920	0.00992	0.00272	24667	0.137	54.402	-6.318	-8.626	0.485	0.025	0.115	-0.493	1.014	0.341	-1.792	-0.696	0.459	-2.178	466.617	-102.560	-135.109	-0.628	-0.000	-3.141	
0.341	-0.894	1.813	-0.294	0.059	0.099	0.00002	0.04734	0.00005	24911	0.364	54.511	-6.386	-8.751	0.199	-0.153	0.160	-0.493	1.014	0.341	-1.792	-0.696	0.459	-2.178	466.651	-102.592	-135.105	-0.628	-0.000	-3.141	
-0.666	-1.759	2.001	-0.782	0.777	0.156	0.02675	6.21255	0.00029	25200	0.227	55.019	-6.592	-8.913	0.234	-0.129	0.128	-0.496	1.018	0.341	-1.777	-0.685	0.468	-2.195	471.661	-106.266	-135.168	-0.628	0.000	3.142	
0.255	-1.694	1.606	-0.768	0.220	0.124	0.02475	3.66261	0.00007	25481	0.643	55.024	-6.476	-9.057	0.285	0.007	0.106	-0.498	1.022	0.341	-1.764	-0.674	0.475	-2.210	474.621	-108.422	-135.143	-0.628	-0.000	-3.142	
0.164	-1.731	1.763	-0.791	0.302	0.133	0.00040	0.06463	0.00021	25762	0.923	54.948	-6.289	-8.852	0.190	-0.184	0.150	-0.498	1.022	0.341	-1.764	-0.674	0.475	-2.210	474.684	-108.409	-135.141	-0.628	-0.000	-3.141	
-0.450	-1.932	1.997	-0.924	0.774	0.166	0.01330	3.82890	0.00010	25996	0.839	55.403	-6.517	-9.056	0.180	-0.214	0.138	-0.499	1.025	0.341	-1.756	-0.669	0.480	-2.218	477.763	-110.685	-135.126	-0.628	-0.000	-3.141	
-0.070	-1.593	1.682	-0.729	0.489	0.132	0.03448	6.15662	0.00025	26275	0.653	55.594	-6.519	-9.426	0.271	-0.119	0.093	-0.502	1.031	0.341	-1.736	-0.655	0.491	-2.239	482.727	-114.326	-135.153	-0.628	-0.000	-3.142	
-0.147	-1.737	1.555	-0.790	0.505	0.134	0.00256	0.03382	0.00017	26525	0.703	55.440	-6.471	-9.436	0.281	-0.115	0.091	-0.502	1.031	0.341	-1.735	-0.654	0.492	-2.241	482.704	-114.327	-135.129	-0.628	0.000	3.142	
-0.447	-1.836	1.686	-0.912	0.777	0.173	0.00007	0.48559	0.00034	26727	2.926	56.883	-4.191	-10.654	0.696	-0.421	0.042	-0.502	1.031	0.341	-1.735	-0.654	0.492	-2.241	483.111	-114.587	-135.085	-0.628	-0.000	-3.142	
-1.969	-6.411	2.268	-1.204	0.365	0.035	0.03067	5.65339	0.00054	27008	3.547	57.152	-3.322	-10.588	0.928	-0.578	-0.039	-0.504	1.037	0.342	-1.717	-0.642	0.502	-2.259	487.812	-117.726	-135.207	-0.628	0.000	-3.141	
-1.935	-6.489	0.995	-1.078	0.330	0.021	0.00072	0.41127	0.00066	27214	1.476	56.340	-5.572	-10.165	0.669	-0.107	-0.082	-0.505	1.037	0.341	-1.717	-0.642	0.502	-2.259	487.752	-118.126	-135.134	-0.628	-0.000	3.141	
1.634	-1.622	1.486	-0.527	-0.694	0.011	0.00759	2.12481	0.00038	27494	0.211	56.328	-6.745	-9.564	0.536	0.102	-0.070	-0.504	1.036	0.341	-1.721	-0.645	0.499	-2.254	485.896	-117.093	-135.137	-0.629	0.000	3.141	
1.425	-1.273	1.507	-0.368	-0.621	0.030	0.01683	2.91354	0.00067	27775	0.141	56.043	-6.585	-9.534	0.498	0.043	-0.019	-0.503	1.033	0.341	-1.731	-0.652	0.494	-2.244	483.790	-115.080	-135.099	-0.628	-0.000	-3.142	
1.320	-1.136	1.452	-0.319	-0.572	0.032	0.00025	0.09258	0.00010	28056	0.262	55.891	-6.496	-9.486	0.494	0.038	0.090	-0.503	1.032	0.341	-1.731	-0.652	0.494	-2.244	483.878	-115.101	-135.116	-0.628	-0.000	-3.141	
1.137	-1.253	1.555	-0.409	-0.405	0.144	0.00745	0.00375	0.01751	28289	0.273	55.919	-6.515	-9.493	0.419	0.034	0.082	-0.503	1.032	0.341	-1.731	-0.652	0.494	-2.252	483.876	-115.099	-135.118	-0.611	-0.000	-3.141	
1.352	-0.972	1.535	-0.288	-0.483	0.138	0.12600	0.00426	0.15123	28573	0.220	55.858	-6.512	-9.477	0.452	0.039	0.116	-0.503	1.032	0.341	-1.731	-0.652	0.494	-2.378	483.874	-115.096	-135.120	-0.460	-0.000	-3.142	
1.465	-0.844	1.537	-0.237	-0.511	0.134	0.15812	0.02864	0.13458	28853	0.289	55.902	-6.470	-9.483	0.489	0.032	0.059	-0.503	1.032	0.341	-1.731	-0.652	0.494	-2.536	483.857	-115.073	-135.126	-0.325	-0.000	-3.142	
1.514	-0.762	1.510	-0.179	-0.548	0.088	0.02255	0.00596	0.01086	29107	0.258	55.887	-6.515	-9.485	0.488	0.030	0.060	-0.503	1.032	0.341	-1.731	-0.652	0.494	-2.558	483.856	-115.068	-135.127	-0.314	-0.000	-3.142	
1.154	-0.668	1.472	-0.148	-0.368	0.102	0.00000	0.00133	0.00000	29308	0.176	55.719	-6.456	-9.814	0.233	-0.152	0.121	-0.503	1.032	0.341	-1.731	-0.652	0.494	-2.558	483.855	-115.067	-135.127	-0.314	-0.000	-3.142	
0.458	-0.484	1.278	-0.127	0.064	0.049	0.01848	4.85867	0.00018	29570	-0.060	55.852	-6.415	-9.137	0.178	-0.211	0.117	-0.502	1.036	0.341	-1.719	-0.644	0.501	-2.567	488.468	-116.592	-135.141	-0.314	-0.000	3.142	
1.061	-0.259	1.782	0.013	-0.206	0.025	0.03077	5.01299	0.00025	29852	0.106	56.491	-6.469	-9.939	0.288	-0.104	0.085	-0.500	1.043	0.341	-1.699	-0.632	0.512	-2.582	493.230	-118.156	-135.172	-0.314	0.000	3.141	
1.062	-0.277	1.458	0.006	-0.230	0.021	0.00033	0.06736	0.00009	30101	0.028	56.668	-6.638	-10.523	0.295	-0.047	0.092	-0.500	1.042	0.341	-1.700	-0.632	0.512	-2.582	493.191	-118.155	-135.117	-0.314	0.000	3.141	
0.703	-0.132	1.247	0.082	-0.036	0.014	0.00192	1.64607	0.00025	30336	0.004	56.723	-6.603	-10.500	0.258	-0.087	0.126	-0.500	1.043	0.341	-1.698	-0.631	0.512	-2.583	494.754	-118.674	-135.128	-0.314	-0.000	3.142	
0.744	-0.015	1.083	0.107	-0.053	0.029	0.03413	7.00346	0.00011	30619	-0.086	57.057	-6.665	-10.433	0.291	-0.090	0.092	-0.498	1.050	0.341	-1.676	-0.618	0.525	-2.599	501.419	-120.823	-135.131	-0.314	-0.000	3.142	
0.865	-0.332	1.175	-0.028	-0.159	0.029	0.01242	1.38529	0.00013	30854	-0.065	57.192	-6.696	-10.390	0.294	-0.083	0.088	-0.497	1.053	0.341	-1.667	-0.613	0.530	-2.605	502.737	-121.250	-135.138	-0.314	0.000	3.141	
0.276	-0.239	1.326	-0.016	0.084	0.041	0.00002	0.00302	0.00000	31113	0.337	57.425	-6.254	-10.793	0.354	-0.164	0.107	-0.497	1.053	0.341	-1.667	-0.613	0.530	-2.605	502.734	-121.250	-135.137	-0.314	0.000	3.141	
-2.834	-6.509	1.352	-0.429	0.029	-0.090	0.01908	5.05593	0.00034	31382	5.347	60.928	-1.573	-14.817	1.671	0.099	-0.143	-0.496	1.057	0.341	-1.654	-0.606	0.538	-2.614	507.604	-122.604	-135.236	-0.314	0.000	-3.142	
-3.448	-7.515	2.241	-0.387	-0.083	-0.145	0.01203	1.58831	0.00044	31662	3.596	60.298	-3.104	-13.813	1.265	0.106	-0.074	-0.495	1.060	0.341	-1.646	-0.602	0.542	-2.619	509.029	-123.302	-135.165	-0.314	-0.000	3.141	
-1.468	-6.365	2.232	-0.506	0.002	-0.051	0.00131	1.25876	0.00021	31896	3.182	61.478	-3.214	-13.317	1.158	-0.291	0.028	-0.495	1.059	0.341	-1.646	-0.601	0.542	-2.620	509.077	-123.397	-133.911	-0.314	-0.000	3.141	
1.149	-0.694	1.486	-0.011	-0.195	0.031	0.04919	16.33642	0.00010	32178	0.557	55.652	-5.886	-11.254	0.279	-0.213	0.136	-0.495	1.028	0.341	-1.658	-0.574	0.556	-2.639	509.072	-123.414	-117.574	-0.314	-0.000	3.141	
1.445	-0.282	2.002	0.032	-0.305	0.026	0.05446	12.32275	0.00020	32461	-0.048	56.675	-6.439	-11.558	0.299	-0.110	0.104	-0.495	0.994	0.341	-1.670	-0.544	0.573	-2.661	509.025	-123.317	-105.252	-0.314	-0.000	3.141	
1.434	-0.106	1.814	0.122	-0.367	-0.061	0.00307	0.14819	0.00013	32707	-0.022	56.757	-6.431	-11.566	0.364	-0.057	-0.060	-0.495	0.992	0.341	-1.671	-0.542	0.574	-2.662	508.972	-123.270	-105.122	-0.314	0.000	3.141	
1.528	-0.301	1.461	0.087	-0.517	-0.108	0.07764	0.00666	0.11761	32976	0.163	57.010	-6.358	-11.671	0.445	-0.095	-0.163	-0.495	0.992	0.341	-1.671	-0.542	0.574	-2.584	508.965	-123.271	-105.121	-0.432	0.000	3.141	
1.158	-1.011	1.611	-0.199	-0.475	-0.106	0.36616	0.00505	0.39363	33260	0.028	56.788	-6.450	-11.583	0.303	-0.092	-0.084	-0.495	0.992	0.341	-1.671	-0.542	0.574	-2.218	508.960	-123.271	-105.122	-0.825	-0.000	3.141	
0.676	-1.427	1.505	-0.421	-0.376	-0.107	0.43945	0.00164	0.44584	33542	0.060	56.950	-6.377	-11.651	0.380	-0.054	-0.076	-0.495	0.992	0.341	-1.671	-0.542	0.574	-1.779	508.959	-123.272	-105.122	-1.271	-0.000	3.141	
0.161	-1.639	1.559	-0.595	-0.236	-0.135	0.43619	0.00130	0.42399	33822	0.055	56.897	-6.384	-11.615	0.334	-0.059	-0.062	-0.495	0.992	0.341	-1.671	-0.542	0.574	-1.342	508.957	-123.272	-105.122	-1.695	-0.000	3.142	
-0.073	-1.540	1.536	-0.569	-0.134	-0.090	0.23947	0.00068	0.18794	34103	0.042	56.889	-6.395	-11.627	0.343	-0.077	-0.047	-0.495	0.992	0.341	-1.671	-0.542	0.574	-1.103	508.957	-123.272	-105.122	-1.883	-0.000	3.142	
-0.085	-1.520	1.531	-0.559	-0.128	-0.089	0.01184	0.00029	0.00176	34368	0.042	56.879	-6.378	-11.608	0.366	-0.078	-0.085	-0.495	0.992	0.341	-1.671	-0.542	0.574	-1.091	508.956	-123.272	-105.122	-1.885	-0.000	3.142	
-0.255	-1.574	1.501	-0.650	-0.103	-0.125	0.03955	0.00084	0.07077	34602	0.071	56.823	-6.416	-11.636	0.309	-0.041	-0.421	-0.495	0.992	0.341	-1.671	-0.542	0.574	-1.052	508.956	-123.271	-105.122	-1.956	-0.000	3.142	
-0.887	-1.367	1.482	-0.668	0.169	-0.126	0.31438	0.00069	0.36035	34886	0.050	56.792	-6.365	-11.654	0.506	-0.013	-0.331	-0.495	0.992	0.341	-1.671	-0.542	0.574	-0.737	508.955	-123.272	-105.122	-2.316	-0.000	3.142	
-1.347	-0.867	1.512	-0.567	0.411	-0.131	0.44142	0.00157	0.43649	35166	0.017	56.968	-6.384	-11.572	0.410	-0.051	-0.296	-0.495	0.992	0.341	-1.671	-0.542	0.574	-0.296	508.953	-123.272	-105.122	-2.753	-0.000	-3.142	
-1.580	-0.261	1.504	-0.378	0.593	-0.129	0.43980	0.00176	0.44051	35445	0.078	56.879	-6.408	-11.605	0.339	-0.060	-0.177	-0.495	0.992	0.341	-1.671	-0.542	0.574	0.144	508.952	-123.272	-105.123	3.090	-0.000	-3.141	
-1.578	-0.021	1.500	-0.308	0.627	-0.138	0.30131	0.00073	0.24870	35728	0.040	56.885	-6.370	-11.591	0.343	-0.072	-0.077	-0.495	0.992	0.341	-1.671	-0.542	0.574	0.445	508.951	-123.272	-105.123	2.841	-0.000	-3.141	
-1.555	0.050	1.525	-0.269	0.601	-0.099	0.03451	0.00022	0.01416	36009	0.067	54.837	-6.156	-11.293	0.469	0.000	-0.100	-0.495	0.992	0.341	-1.671	-0.542	0.574	0.480	508.951	-123.272	-105.122	2.827	-0.000	-3.141	
-1.878	-0.207	1.008	-0.451	0.994	-0.097	0.00346	2.26714	0.00055	36196	0.321	55.543	-5.848	-10.443	0.541	-0.017	-0.127	-0.495	0.994	0.341	-1.670	-0.544	0.573	0.481	509.069	-123.285	-107.387	2.828	0.000	-3.142	
-1.506	0.260	1.175	-0.185	0.890	-0.042	0.05552	17.52839	0.00025	36477	0.212	58.917	-6.774	-11.021	0.618	0.139	-0.144	-0.495	1.029	0.341	-1.658	-0.575	0.556	0.503	508.968	-123.264	-124.915	2.828	0.000	-3.141	
-1.746	0.375	0.989	-0.148	0.927	-0.037	0.04773	10.21148	0.00017	36759	0.231	57.905	-6.688	-10.716	0.575	0.063	-0.114	-0.495	1.059	0.341	-1.646	-0.601	0.543	0.522	509.023	-123.307	-135.126	2.827	0.000	-3.141	
-1.690	0.443	0.992	-0.112	0.850	-0.031	0.00130	0.09862	0.00028	36972	0.354	57.365	-6.696	-10.050	0.596	0.094	-0.146	-0.495	1.060	0.341	-1.646	-0.602	0.542	0.523	509.122	-123.307	-135.135	2.827	0.000	-3.142	
-2.349	0.733	1.596	-0.023	1.165	-0.026	0.00738	2.23520	0.00026	37194	0.312	57.839	-6.876	-10.454	0.629	0.163	-0.132	-0.496	1.058	0.341	-1.651	-0.605	0.539	0.526	506.988	-122.640	-135.113	2.827	0.000	-3.141	
-2.024	0.882	1.346	0.141	0.945	0.014	0.01641	2.89274	0.00008	37477	0.461	57.563	-6.600	-10.412	0.563	0.095	-0.081	-0.497	1.055	0.341	-1.662	-0.611	0.533	0.533	504.247	-121.716	-135.116	2.828	0.000	-3.142	
-1.961	0.822	1.476	0.111	0.915	0.008	0.00025	0.12054	0.00018	37723	0.425	57.577	-6.638	-10.428	0.546	0.096	0.058	-0.497	1.055	0.341	-1.662	-0.611	0.533	0.533	504.354	-121.771	-135.111	2.827	0.000	-3.142	
-1.703	1.099	1.653	0.309	0.720	0.162	0.00725	0.00313	0.01719	37960	0.375	57.569	-6.643	-10.415	0.585	0.065	0.139	-0.497	1.055	0.341	-1.662	-0.611	0.533	0.526	504.357	-121.771	-135.111	2.845	0.000	-3.142	
-1.865	0.730	1.628	0.148	0.763	0.165	0.12476	0.01190	0.15076	38240	0.382	57.594	-6.631	-10.425	0.577	0.061	0.051	-0.497	1.055	0.341	-1.662	-0.611	0.533	0.401	504.363	-121.760	-135.112	2.995	0.000	-3.141	
-1.885	0.596	1.639	0.107	0.766	0.179	0.15865	0.00771	0.13455	38522	0.383	57.559	-6.637	-10.410	0.551	0.070	0.092	-0.497	1.055	0.341	-1.662	-0.611	0.533	0.243	504.366	-121.753	-135.112	3.130	0.000	-3.141	
-1.934	0.502	1.600	0.048	0.799	0.140	0.02342	0.00077	0.01164	38777	0.372	57.570	-6.648	-10.435	0.548	0.070	0.091	-0.497	1.055	0.341	-1.662	-0.611	0.533	0.219	504.366	-121.753	-135.112	3.142	0.000	-3.141	
-1.500	0.491	1.304	0.077	0.576	0.149	0.00000	0.00016	0.00000	39045	-0.405	57.366	-6.841	-10.669	0.270	-0.122	0.156	-0.497	1.055	0.341	-1.662	-0.611	0.533	0.219	504.366	-121.753	-135.113	3.142	0.000	-3.141	
-0.703	0.260	1.441	-0.034	0.122	0.046	0.01715	4.79337	0.00030	39303	0.249	58.328	-6.564	-9.937	0.221	-0.228	0.146	-0.494	1.059	0.341	-1.650	-0.604	0.540	0.213	509.160	-121.744	-135.140	3.141	0.000	-3.141	
-1.037	-0.037	1.291	-0.157	0.294	0.049	0.02812	5.05495	0.00029	39587	0.058	58.241	-6.679	-10.958	0.323	-0.096	0.098	-0.488	1.066	0.341	-1.630	-0.594	0.551	0.205	514.214	-121.714	-135.161	3.142	-0.000	-3.141	
-1.104	-0.028	1.409	-0.182	0.326	0.035	0.00031	0.10386	0.00018	39863	-0.019	58.170	-6.721	-11.006	0.323	-0.104	0.109	-0.488	1.065	0.341	-1.630	-0.594	0.551	0.204	514.263	-121.775	-135.093	-3.142	0.000	-3.141	
-0.540	-0.251	1.412	-0.238	0.034	0.038	0.00102	1.32259	0.00017	40050	-0.129	58.164	-6.817	-11.402	0.277	-0.087	0.150	-0.488	1.066	0.341	-1.630	-0.594	0.551	0.204	515.585	-121.779	-135.129	3.142	0.000	-3.141	
-0.879	0.059	1.386	-0.111	0.142	0.041	0.03190	7.07610	0.00013	40335	-0.059	59.031	-6.875	-11.388	0.313	-0.120	0.093	-0.482	1.074	0.341	-1.607	-0.583	0.565	0.194	522.661	-121.734	-135.153	3.142	-0.000	-3.141	
-1.009	-0.049	1.363	-0.158	0.262	0.032	0.01209	1.55127	0.00009	40572	0.069	58.974	-6.740	-11.338	0.318	-0.124	0.086	-0.479	1.077	0.341	-1.598	-0.579	0.570	0.190	524.212	-121.735	-135.121	-3.142	-0.000	-3.141	
-0.998	-0.002	1.390	-0.160	0.254	0.029	0.00006	0.01830	0.00003	40833	0.077	59.019	-6.754	-11.179	0.245	-0.223	0.136	-0.479	1.077	0.341	-1.598	-0.579	0.570	0.190	524.221	-121.722	-135.111	-3.142	-0.000	-3.141	
-0.509	-0.125	1.248	-0.164	0.014	0.049	0.01282	4.06892	0.00019	41056	0.109	59.529	-6.731	-11.606	0.274	-0.170	0.117	-0.477	1.080	0.341	-1.589	-0.574	0.575	0.187	528.289	-121.713	-135.147	3.141	0.000	-3.141	
0.991	3.256	1.475	0.087	0.132	-0.016	0.03103	5.88085	0.00050	41335	2.187	61.654	-4.856	-14.116	0.953	0.249	0.023	-0.471	1.088	0.341	-1.566	-0.565	0.588	0.177	534.167	-121.545	-135.250	-3.141	-0.000	-3.142	
1.286	4.486	2.171	0.206	0.106	-0.028	0.00129	0.22225	0.00029	41620	1.985	61.530	-4.997	-14.301	0.946	0.336	0.016	-0.471	1.088	0.341	-1.565	-0.564	0.588	0.177	534.210	-121.717	-135.116	-3.142	-0.000	-3.141	
4.987	7.650	1.453	0.376	-0.051	-0.120	0.00160	0.90685	0.00100	41871	4.733	65.724	-3.132	-19.187	1.852	1.704	-0.156	-0.471	1.089	0.341	-1.564	-0.564	0.589	0.177	535.050	-121.465	-135.347	-3.141	-0.001	3.141	
5.751	7.897	2.246	0.379	0.027	-0.149	0.00423	0.63257	0.00120	42122	3.396	62.034	-4.103	-13.988	1.189	0.321	-0.059	-0.470	1.090	0.341	-1.561	-0.562	0.590	0.175	535.613	-121.697	-135.174	-3.141	0.000	-3.141	
-2.342	0.699	1.328	-0.046	1.019	0.027	0.00466	1.17629	0.00128	42391	0.382	59.941	-6.682	-11.701	0.592	0.151	-0.035	-0.471	1.088	0.341	-1.564	-0.564	0.588	0.177	534.582	-122.098	-134.774	3.141	0.001	-3.141	
-2.212	0.255	1.626	0.036	0.867	0.068	0.01587	4.00220	0.00132	42673	0.406	59.712	-6.810	-11.742	0.497	0.058	0.004	-0.474	1.084	0.341	-1.576	-0.569	0.582	0.181	530.607	-121.753	-135.090	-3.141	0.000	-3.141	
-2.068	0.476	1.947	0.101	0.807	0.060	0.00205	0.10009	0.00031	42920	0.531	59.511	-6.713	-11.504	0.474	0.043	0.033	-0.474	1.084	0.341	-1.577	-0.569	0.581	0.182	530.689	-121.717	-135.135	3.142	0.000	-3.141	
-2.016	0.658	1.717	0.252	0.769	0.168	0.00269	0.00892	0.00938	43169	0.531	59.679	-6.767	-11.607	0.592	0.062	0.109	-0.474	1.084	0.341	-1.577	-0.569	0.581	0.179	530.683	-121.722	-135.139	-3.132	0.000	-3.141	
-2.171	0.321	1.817	0.112	0.832	0.171	0.10469	0.00396	0.13135	43449	0.468	59.605	-6.743	-11.482	0.412	0.034	0.187	-0.474	1.084	0.341	-1.577	-0.569	0.581	0.075	530.679	-121.721	-135.140	-3.001	0.000	-3.141	
-2.192	0.074	1.762	0.005	0.852	0.180	0.17080	0.00951	0.15288	43729	0.495	59.650	-6.779	-11.559	0.521	0.058	0.098	-0.474	1.084	0.341	-1.577	-0.569	0.581	-0.096	530.685	-121.728	-135.137	-2.848	0.000	-3.141	
-2.187	-0.055	1.773	-0.070	0.850	0.138	0.03590	0.00433	0.02054	44010	0.477	59.619	-6.776	-11.553	0.530	0.058	0.085	-0.474	1.084	0.341	-1.577	-0.569	0.581	-0.132	530.686	-121.732	-135.136	-2.827	0.000	-3.141	
-2.293	0.132	1.706	0.016	0.876	0.141	0.00001	0.00122	0.00000	44260	-0.004	59.101	-6.767	-11.448	0.280	-0.145	0.134	-0.474	1.084	0.341	-1.577	-0.569	0.581	-0.132	530.686	-121.733	-135.136	-2.827	0.000	-3.141	
-0.358	-0.255	0.730	-0.110	-0.033	0.053	0.01183	4.05617	0.00016	44508	0.355	59.826	-6.609	-11.840	0.296	-0.235	0.125	-0.470	1.087	0.341	-1.569	-0.566	0.586	-0.134	534.552	-120.504	-135.104	-2.827	0.000	-3.141	
-0.798	-0.170	1.288	-0.112	0.154	0.029	0.02737	5.90304	0.00017	44787	0.137	59.792	-6.752	-11.881	0.319	-0.140	0.079	-0.461	1.094	0.341	-1.548	-0.558	0.597	-0.138	540.140	-118.602	-135.157	-2.827	-0.000	-3.141	
-0.880	-0.313	1.240	-0.183	0.187	0.027	0.00105	0.06987	0.00009	45067	-0.094	60.049	-6.897	-11.979	0.323	-0.143	0.082	-0.461	1.094	0.341	-1.548	-0.557	0.598	-0.138	540.090	-118.639	-135.125	-2.827	-0.000	-3.141	
-0.763	-0.064	1.333	-0.052	0.075	0.036	0.00109	1.48688	0.00027	45257	-0.305	59.855	-6.889	-11.997	0.266	-0.215	0.102	-0.460	1.095	0.341	-1.547	-0.557	0.598	-0.138	541.540	-118.329	-135.008	-2.828	0.000	-3.141	
-1.042	0.056	1.508	-0.024	0.181	0.036	0.02878	7.06356	0.00015	45539	0.147	60.841	-6.883	-12.454	0.352	-0.112	0.059	-0.451	1.102	0.341	-1.526	-0.549	0.610	-0.142	548.229	-116.062	-135.098	-2.827	-0.000	-3.141	
-1.055	-0.480	1.320	-0.281	0.257	0.009	0.01070	1.41588	0.00018	45818	-0.009	60.790	-6.830	-12.297	0.352	-0.120	0.057	-0.448	1.105	0.341	-1.518	-0.546	0.615	-0.143	549.559	-115.577	-135.104	-2.827	-0.000	-3.141	
-0.718	-0.703	1.283	-0.326	0.039	0.022	0.00010	0.03726	0.00005	46053	0.715	61.526	-6.127	-13.486	0.506	0.202	0.074	-0.448	1.105	0.341	-1.518	-0.546	0.615	-0.143	549.568	-115.544	-135.119	-2.827	-0.000	-3.141	
5.105	6.990	1.153	0.129	-0.282	-0.134	0.02040	5.77451	0.00111	46333	3.244	67.711	-4.733	-20.512	1.694	2.301	-0.156	-0.441	1.111	0.341	-1.502	-0.540	0.623	-0.146	554.881	-113.307	-135.449	-2.827	-0.001	3.141	
7.251	9.999	3.375	0.499	-0.134	-0.207	0.00765	0.94616	0.00070	46616	3.307	67.985	-5.026	-20.917	1.597	2.648	-0.195	-0.439	1.113	0.341	-1.497	-0.538	0.627	-0.147	555.818	-113.421	-135.379	-2.827	-0.001	-3.142	
0.121	5.572	1.911	0.066	0.777	-0.042	0.00121	0.64487	0.00121	46850	0.649	61.326	-6.645	-12.581	0.658	0.178	-0.045	-0.439	1.112	0.341	-1.497	-0.538	0.626	-0.147	555.604	-113.865	-134.964	-2.827	0.000	-3.141	
-2.571	-0.204	1.949	-0.192	0.997	0.042	0.01495	3.63918	0.00047	47132	0.515	61.118	-6.752	-12.400	0.541	0.044	-0.043	-0.444	1.108	0.341	-1.508	-0.542	0.620	-0.145	552.263	-115.302	-134.831	-2.828	0.001	-3.141	
-2.248	-0.259	1.539	-0.221	0.853	0.032	0.00466	0.98732	0.00094	47382	0.582	61.002	-6.772	-12.330	0.534	0.047	-0.035	-0.445	1.107	0.341	-1.512	-0.544	0.618	-0.144	551.383	-115.042	-135.196	-2.827	0.000	-3.141	
-2.273	0.119	1.572	0.030	0.872	0.175	0.00013	0.02853	0.00244	47633	0.569	61.100	-6.760	-12.351	0.479	0.045	0.124	-0.445	1.107	0.341	-1.512	-0.544	0.618	-0.144	551.373	-115.065	-135.182	-2.825	0.000	-3.141	
-2.233	-0.172	1.592	-0.064	0.862	0.199	0.07945	0.00320	0.10488	47916	0.597	61.007	-6.774	-12.308	0.606	0.057	0.237	-0.445	1.107	0.341	-1.512	-0.544	0.618	-0.224	551.372	-115.062	-135.181	-2.720	0.000	-3.141	
-2.178	-0.497	1.578	-0.194	0.841	0.190	0.17943	0.00547	0.17124	48195	0.546	61.069	-6.773	-12.354	0.533	0.043	0.136	-0.445	1.107	0.341	-1.512	-0.544	0.618	-0.403	551.377	-115.060	-135.178	-2.549	-0.000	-3.141	
-2.141	-0.582	1.578	-0.239	0.822	0.154	0.05521	0.00062	0.03562	48479	0.536	61.045	-6.761	-12.344	0.535	0.040	0.110	-0.445	1.107	0.341	-1.512	-0.544	0.618	-0.458	551.377	-115.059	-135.178	-2.513	-0.000	-3.141	
-2.156	-0.591	1.585	-0.243	0.824	0.148	0.00003	0.00025	0.00002	48731	-1.319	60.847	-7.582	-12.795	0.474	0.012	0.090	-0.445	1.107	0.341	-1.512	-0.544	0.618	-0.458	551.377	-115.059	-135.178	-2.513	-0.000	-3.141	
-0.310	-0.672	0.707	-0.350	-0.092	-0.078	0.00491	2.80063	0.00031	48968	-0.290	60.525	-6.900	-12.673	0.288	-0.158	-0.034	-0.443	1.108	0.341	-1.509	-0.542	0.620	-0.458	553.679	-113.465	-135.129	-2.514	-0.000	-3.141	
-0.279	-1.078	0.942	-0.511	-0.109	-0.112	0.02502	6.85311	0.00021	49260	-0.040	61.161	-6.746	-12.579	0.327	-0.159	-0.049	-0.431	1.115	0.341	-1.491	-0.536	0.630	-0.456	559.188	-109.390	-135.179	-2.513	-0.000	-3.141	
-0.760	-0.924	1.178	-0.459	0.093	-0.080	0.00461	0.23981	0.00020	49494	-0.034	61.378	-6.789	-12.663	0.342	-0.124	-0.025	-0.429	1.116	0.341	-1.488	-0.535	0.632	-0.456	559.351	-109.215	-135.160	-2.514	-0.000	-3.141	
-0.278	-0.817	0.826	-0.414	-0.141	-0.114	0.00011	0.03919	0.00006	49724	0.200	61.845	-6.517	-12.564	0.298	-0.282	-0.062	-0.429	1.116	0.341	-1.488	-0.535	0.632	-0.456	559.382	-109.193	-135.151	-2.513	-0.000	-3.141	
-0.146	-0.700	1.279	-0.423	-0.215	-0.142	0.01687	6.04865	0.00032	50007	0.480	62.177	-6.456	-13.009	0.379	-0.224	-0.065	-0.421	1.120	0.341	-1.476	-0.531	0.638	-0.455	564.277	-105.639	-135.183	-2.513	-0.000	-3.141	
-0.816	-0.901	0.951	-0.471	0.128	-0.091	0.01812	3.95362	0.00034	50303	0.022	61.932	-6.791	-13.031	0.369	-0.102	-0.048	-0.413	1.125	0.341	-1.463	-0.527	0.645	-0.454	567.488	-103.333	-135.165	-2.514	-0.000	-3.141	
-0.757	-0.893	1.143	-0.470	0.107	-0.084	0.00006	0.03668	0.00006	50583	-0.335	61.740	-6.805	-12.912	0.339	-0.089	-0.079	-0.413	1.125	0.341	-1.463	-0.527	0.645	-0.454	567.494	-103.297	-135.161	-2.513	-0.000	-3.141	
4.086	8.859	-0.290	0.972	0.287	-0.250	0.00924	3.70733	0.00065	50819	1.160	68.785	-6.884	-21.486	1.253	3.041	-0.319	-0.408	1.128	0.341	-1.456	-0.525	0.649	-0.454	570.297	-100.877	-135.345	-2.513	-0.001	3.141	
8.116	12.099	3.624	0.489	-0.372	-0.351	0.01053	1.79235	0.00014	51099	1.753	70.952	-7.182	-24.103	1.435	3.979	-0.386	-0.404	1.131	0.341	-1.449	-0.522	0.653	-0.453	571.706	-99.773	-135.431	-2.513	-0.001	3.141	
3.333	12.246	2.637	0.470	0.488	-0.156	0.00042	0.41986	0.00083	51332	2.820	65.980	-5.375	-18.132	1.452	1.657	-0.096	-0.404	1.130	0.341	-1.449	-0.522	0.653	-0.453	571.898	-100.044	-135.174	-2.513	-0.000	-3.141	
-2.324	0.216	1.699	-0.315	1.006	0.093	0.01148	3.36305	0.00184	51613	0.402	61.905	-6.872	-12.897	0.537	0.017	0.048	-0.409	1.127	0.341	-1.456	-0.525	0.648	-0.454	569.862	-102.670	-134.659	-2.514	0.001	-3.140	
-1.981	-0.754	1.365	-0.344	0.729	0.064	0.00609	1.74332	0.00166	51864	0.493	62.065	-6.767	-12.924	0.482	0.038	0.036	-0.412	1.125	0.341	-1.461	-0.526	0.646	-0.454	568.209	-103.048	-135.065	-2.513	-0.000	-3.141	
-1.993	-0.632	1.473	-0.251	0.759	0.134	0.00056	0.22360	0.00035	52088	0.457	62.055	-6.750	-12.934	0.503	0.015	0.138	-0.412	1.126	0.341	-1.461	-0.526	0.646	-0.454	568.042	-102.939	-135.167	-2.513	-0.000	-3.141	
-1.912	-0.766	1.451	-0.267	0.728	0.161	0.05444	0.00638	0.07874	52379	0.475	62.196	-6.826	-13.022	0.482	0.000	0.168	-0.412	1.126	0.341	-1.461	-0.526	0.646	-0.509	568.037	-102.936	-135.168	-2.434	-0.000	-3.141	
-1.799	-1.016	1.466	-0.351	0.700	0.179	0.18102	0.00330	0.18047	52661	0.468	62.096	-6.799	-12.921	0.463	0.021	0.177	-0.412	1.126	0.341	-1.461	-0.526	0.646	-0.690	568.034	-102.937	-135.169	-2.254	-0.000	-3.141	
-1.751	-1.138	1.464	-0.402	0.676	0.141	0.07863	0.00298	0.05487	52943	0.452	62.106	-6.794	-12.937	0.470	0.018	0.126	-0.412	1.126	0.341	-1.461	-0.526	0.646	-0.768	568.034	-102.935	-135.169	-2.199	-0.000	-3.141	
-1.717	-1.152	1.443	-0.413	0.660	0.127	0.00014	0.00172	0.00002	53192	0.268	62.151	-6.867	-12.982	0.468	0.015	0.108	-0.412	1.126	0.341	-1.461	-0.526	0.646	-0.768	568.033	-102.933	-135.169	-2.199	-0.000	-3.141	
-0.432	-0.808	1.045	-0.365	-0.078	-0.120	0.00101	1.42946	0.00054	53442	-0.364	62.389	-7.101	-12.796	0.303	-0.204	-0.076	-0.411	1.126	0.341	-1.461	-0.526	0.646	-0.768	569.023	-101.905	-135.071	-2.199	-0.000	-3.141	
-0.462	-0.626	0.959	-0.252	-0.081	-0.116	0.01960	7.02445	0.00033	53720	-0.007	62.356	-6.740	-13.312	0.390	-0.154	-0.030	-0.399	1.130	0.341	-1.450	-0.522	0.653	-0.762	573.078	-96.170	-135.115	-2.199	-0.000	-3.141	
-0.211	-0.942	1.026	-0.399	-0.141	-0.076	0.00767	1.53245	0.00031	53969	-0.083	62.309	-6.821	-13.239	0.379	-0.144	-0.027	-0.394	1.132	0.341	-1.445	-0.521	0.655	-0.759	573.930	-94.898	-135.161	-2.199	-0.000	-3.142	
-0.280	-0.864	1.074	-0.381	-0.140	-0.088	0.00008	0.05888	0.00011	54220	-0.118	62.236	-6.744	-13.152	0.303	-0.233	-0.067	-0.394	1.132	0.341	-1.445	-0.521	0.655	-0.759	573.936	-94.839	-135.161	-2.199	-0.000	-3.142	
0.179	-1.045	1.253	-0.429	-0.327	-0.150	0.00983	4.70961	0.00007	54482	0.569	62.469	-6.495	-13.017	0.313	-0.276	-0.080	-0.388	1.134	0.341	-1.440	-0.519	0.658	-0.757	576.689	-91.018	-135.181	-2.199	-0.000	-3.141	
-0.317	-1.155	1.070	-0.541	-0.102	-0.106	0.01846	5.34961	0.00017	54761	-0.034	62.643	-6.819	-13.253	0.385	-0.084	-0.051	-0.376	1.138	0.341	-1.429	-0.516	0.664	-0.751	579.797	-86.664	-135.200	-2.199	-0.000	-3.142	
-0.386	-1.218	1.050	-0.574	-0.068	-0.098	0.00026	0.07921	0.00015	55026	-0.387	62.731	-6.933	-13.418	0.393	-0.083	-0.051	-0.376	1.138	0.341	-1.428	-0.516	0.665	-0.751	579.806	-86.736	-135.169	-2.199	-0.000	-3.142	
2.396	2.337	0.852	-0.189	-0.439	-0.234	0.00065	1.29738	0.00042	55259	2.101	67.855	-7.075	-19.378	0.462	2.483	-0.275	-0.376	1.138	0.341	-1.428	-0.516	0.665	-0.751	580.712	-85.814	-135.055	-2.199	-0.000	-3.141	
7.269	11.668	2.414	0.263	-0.446	-0.335	0.01488	4.03267	0.00127	55541	-0.239	70.488	-8.903	-22.859	0.860	3.930	-0.314	-0.367	1.142	0.341	-1.420	-0.513	0.670	-0.747	582.501	-82.227	-135.491	-2.199	-0.001	3.141	
6.261	13.870	4.074	0.455	-0.091	-0.298	0.00061	0.40965	0.00065	55777	2.038	68.253	-6.508	-20.442	1.383	2.817	-0.097	-0.367	1.142	0.341	-1.419	-0.513	0.670	-0.747	582.846	-82.269	-135.275	-2.199	-0.000	3.141	
-0.939	3.058	1.992	-0.365	0.815	0.100	0.00620	2.75965	0.00160	56066	-0.641	62.638	-7.326	-13.486	0.588	0.232	0.118	-0.371	1.140	0.341	-1.422	-0.514	0.667	-0.749	582.011	-84.846	-134.746	-2.199	0.000	-3.140	
-1.788	-1.255	1.606	-0.467	0.662	0.117	0.00829	2.32140	0.00047	56355	0.450	63.004	-6.838	-13.392	0.504	0.010	0.093	-0.376	1.138	0.341	-1.427	-0.516	0.664	-0.751	580.490	-86.591	-134.922	-2.199	0.000	-3.141	
-1.768	-1.189	1.450	-0.427	0.660	0.120	0.00082	0.50055	0.00081	56612	0.454	62.938	-6.808	-13.354	0.500	0.008	0.181	-0.376	1.138	0.341	-1.428	-0.515	0.665	-0.751	580.093	-86.414	-135.170	-2.199	-0.000	-3.141	
-1.749	-1.295	1.537	-0.449	0.692	0.179	0.01943	0.01577	0.03489	56854	0.434	62.838	-6.837	-13.308	0.494	0.020	0.192	-0.376	1.138	0.341	-1.428	-0.515	0.665	-0.770	580.078	-86.415	-135.174	-2.164	-0.000	-3.141	
-1.445	-1.586	1.485	-0.569	0.583	0.169	0.15951	0.00823	0.17685	57143	0.480	62.910	-6.810	-13.346	0.552	0.020	0.159	-0.376	1.138	0.341	-1.428	-0.515	0.665	-0.930	580.070	-86.416	-135.175	-1.987	-0.000	-3.142	
-1.299	-1.720	1.495	-0.619	0.514	0.132	0.12834	0.00382	0.10091	57432	0.461	62.883	-6.811	-13.329	0.501	0.013	0.097	-0.376	1.138	0.341	-1.428	-0.515	0.665	-1.058	580.066	-86.416	-135.176	-1.887	-0.000	-3.142	
-1.276	-1.697	1.496	-0.610	0.495	0.111	0.00681	0.00052	0.00145	57717	0.457	62.873	-6.800	-13.332	0.498	0.004	0.091	-0.376	1.138	0.341	-1.428	-0.515	0.665	-1.065	580.066	-86.416	-135.176	-1.885	-0.000	-3.142	
-0.224	-1.591	1.166	-0.644	-0.117	-0.088	0.00001	0.25659	0.00011	57956	-0.059	63.036	-6.724	-13.616	0.415	-0.098	-0.121	-0.376	1.138	0.341	-1.428	-0.515	0.665	-1.065	580.124	-86.166	-135.168	-1.885	-0.000	-3.142	
0.145	-1.089	1.074	-0.400	-0.338	-0.154	0.01472	7.04715	0.00020	58247	-0.441	62.805	-6.973	-13.493	0.376	-0.124	-0.042	-0.365	1.140	0.341	-1.424	-0.514	0.667	-1.056	582.335	-79.475	-135.202	-1.885	-0.000	-3.141	
-0.074	-1.180	1.191	-0.414	-0.199	-0.088	0.00938	2.67582	0.00044	58533	-0.138	62.872	-6.789	-13.459	0.394	-0.139	-0.041	-0.358	1.141	0.341	-1.421	-0.514	0.668	-1.051	583.151	-76.927	-135.170	-1.885	-0.000	3.142	
0.029	-1.223	1.196	-0.439	-0.242	-0.091	0.00007	0.04173	0.00008	58787	-0.181	62.301	-6.744	-13.132	0.350	-0.192	-0.103	-0.358	1.141	0.341	-1.421	-0.514	0.669	-1.051	583.141	-76.887	-135.172	-1.885	-0.000	3.142	
0.710	-1.061	1.146	-0.408	-0.575	-0.187	0.00620	3.80820	0.00020	59032	0.116	63.181	-6.568	-13.954	0.387	-0.144	-0.157	-0.353	1.141	0.341	-1.420	-0.513	0.669	-1.047	584.297	-73.258	-135.157	-1.885	-0.000	3.142	
0.059	-1.154	1.001	-0.414	-0.278	-0.141	0.01698	6.27767	0.00033	59320	-0.207	63.033	-6.852	-13.523	0.394	-0.149	-0.099	-0.341	1.143	0.341	-1.414	-0.512	0.672	-1.037	586.329	-67.318	-135.156	-1.885	-0.000	-3.141	
0.184	-1.263	1.164	-0.470	-0.336	-0.144	0.00086	0.10196	0.00016	59563	-0.093	63.020	-6.783	-13.561	0.388	-0.142	-0.098	-0.340	1.143	0.341	-1.414	-0.511	0.672	-1.037	586.306	-67.418	-135.157	-1.885	-0.000	-3.141	
0.630	-1.076	0.989	-0.391	-0.544	-0.197	0.00007	0.29937	0.00021	59756	-0.803	64.429	-7.572	-15.665	0.351	0.829	-0.186	-0.340	1.143	0.341	-1.414	-0.511	0.672	-1.037	586.370	-67.125	-135.144	-1.885	-0.000	-3.141	
3.771	8.529	0.432	0.104	-0.454	-0.259	0.01452	6.79584	0.00143	60043	-0.448	69.344	-8.644	-21.663	0.821	3.501	-0.250	-0.330	1.145	0.341	-1.410	-0.510	0.675	-1.029	587.827	-60.496	-135.475	-1.885	-0.001	3.140	
4.395	13.100	2.783	0.465	-0.445	-0.306	0.00355	0.67730	0.00088	60287	1.074	69.953	-7.989	-22.860	1.101	4.026	-0.187	-0.327	1.146	0.341	-1.409	-0.510	0.675	-1.027	588.312	-60.040	-135.350	-1.885	-0.000	3.141	
0.801	7.503	2.167	-0.159	0.456	-0.005	0.00233	1.80957	0.00105	60570	0.372	65.090	-7.359	-15.824	0.719	1.118	0.037	-0.329	1.145	0.341	-1.409	-0.510	0.675	-1.028	588.378	-61.811	-134.983	-1.885	-0.000	-3.141	
-1.194	-1.654	1.581	-0.704	0.471	0.107	0.00872	3.25457	0.00108	60857	0.481	63.467	-6.841	-13.539	0.574	0.003	0.062	-0.335	1.144	0.341	-1.411	-0.511	0.673	-1.033	587.830	-65.011	-134.751	-1.885	0.000	-3.140	
-1.199	-1.833	1.524	-0.689	0.450	0.106	0.00126	0.85597	0.00164	61111	0.350	63.212	-6.885	-13.491	0.563	0.016	0.075	-0.336	1.144	0.341	-1.412	-0.511	0.673	-1.034	587.079	-64.906	-135.148	-1.885	-0.000	-3.142	
-1.204	-1.711	1.509	-0.598	0.489	0.178	0.00154	0.04600	0.00745	61349	0.437	63.287	-6.877	-13.533	0.492	-0.033	0.143	-0.336	1.144	0.341	-1.412	-0.511	0.673	-1.035	587.040	-64.889	-135.165	-1.877	-0.000	3.142	
-0.904	-1.805	1.555	-0.632	0.392	0.170	0.10366	0.01595	0.13089	61638	0.363	63.232	-6.858	-13.406	0.521	-0.001	0.078	-0.336	1.144	0.341	-1.412	-0.511	0.673	-1.139	587.033	-64.903	-135.167	-1.746	-0.000	3.142	
-0.715	-1.904	1.552	-0.659	0.343	0.179	0.17440	0.00400	0.15656	61924	0.407	63.264	-6.878	-13.518	0.519	-0.003	0.117	-0.336	1.144	0.341	-1.412	-0.511	0.673	-1.313	587.030	-64.900	-135.167	-1.590	-0.000	3.141	
-0.632	-1.943	1.553	-0.676	0.296	0.135	0.03454	0.00069	0.01921	62211	0.391	63.254	-6.883	-13.526	0.514	-0.005	0.112	-0.336	1.144	0.341	-1.412	-0.511	0.673	-1.348	587.030	-64.899	-135.167	-1.571	-0.000	3.141	
-0.746	-1.973	1.580	-0.687	0.342	0.133	0.00001	0.00022	0.00000	62450	-0.317	63.137	-6.938	-13.367	0.536	0.065	-0.066	-0.336	1.144	0.341	-1.412	-0.511	0.673	-1.348	587.030	-64.899	-135.168	-1.571	-0.000	3.141	
0.931	-2.337	1.303	-1.010	-0.723	-0.110	0.00645	3.82649	0.00018	62689	-0.372	63.174	-6.875	-13.459	0.592	0.109	-0.105	-0.332	1.144	0.341	-1.413	-0.511	0.673	-1.343	587.025	-61.073	-135.182	-1.571	-0.000	3.142	
0.445	-2.279	1.372	-0.964	-0.453	-0.032	0.01762	6.26763	0.00019	62975	-0.238	63.317	-6.936	-13.526	0.582	0.100	-0.002	-0.320	1.143	0.341	-1.416	-0.512	0.671	-1.330	587.112	-54.806	-135.157	-1.571	-0.000	-3.141	
0.664	-2.137	1.418	-0.906	-0.546	-0.031	0.00098	0.05485	0.00023	63230	-0.224	63.333	-6.887	-13.517	0.577	0.075	-0.001	-0.320	1.143	0.341	-1.416	-0.512	0.671	-1.329	587.127	-54.856	-135.140	-1.571	-0.000	-3.141	
0.290	-2.381	1.482	-1.028	-0.502	-0.101	0.00006	0.38293	0.00005	63487	-0.405	63.598	-6.964	-13.743	0.607	0.137	-0.097	-0.319	1.143	0.341	-1.416	-0.512	0.671	-1.329	587.145	-54.473	-135.147	-1.571	-0.000	-3.141	
1.091	-2.294	1.414	-1.031	-0.815	-0.132	0.01557	7.06658	0.00022	63774	-0.261	63.162	-6.881	-13.290	0.587	0.077	-0.066	-0.309	1.142	0.341	-1.418	-0.513	0.670	-1.318	587.126	-47.407	-135.104	-1.571	-0.000	-3.142	
0.472	-2.137	1.424	-0.888	-0.490	-0.066	0.00930	2.52014	0.00029	64062	-0.188	63.255	-6.859	-13.460	0.590	0.039	-0.052	-0.303	1.141	0.341	-1.419	-0.513	0.669	-1.311	587.169	-44.887	-135.122	-1.571	-0.000	-3.141	
0.560	-2.107	1.393	-0.871	-0.508	-0.061	0.00009	0.03575	0.00009	64302	-1.008	63.017	-7.145	-13.220	0.570	0.071	-0.091	-0.303	1.141	0.341	-1.419	-0.513	0.669	-1.311	587.189	-44.858	-135.115	-1.571	-0.000	-3.141	
1.107	-2.334	1.330	-1.050	-0.830	-0.125	0.00599	3.67413	0.00043	64543	-0.180	63.154	-6.893	-13.413	0.592	0.094	-0.109	-0.299	1.141	0.341	-1.420	-0.513	0.669	-1.307	587.034	-41.188	-135.171	-1.571	-0.000	3.142	
0.611	-2.237	1.398	-0.984	-0.551	-0.089	0.01737	6.35979	0.00007	64832	-0.274	63.199	-6.932	-13.451	0.586	0.093	-0.073	-0.287	1.141	0.341	-1.422	-0.514	0.668	-1.294	587.057	-34.828	-135.152	-1.571	-0.000	-3.142	
0.746	-2.196	1.361	-0.961	-0.605	-0.088	0.00123	0.04858	0.00009	65087	-0.277	63.121	-6.909	-13.435	0.578	0.082	-0.066	-0.286	1.140	0.341	-1.422	-0.514	0.668	-1.293	587.064	-34.875	-135.143	-1.571	-0.000	-3.142	
0.564	-2.341	1.364	-1.036	-0.613	-0.125	0.00004	0.31014	0.00004	65343	-0.730	63.152	-7.099	-13.275	0.582	0.101	-0.096	-0.286	1.140	0.341	-1.422	-0.514	0.668	-1.293	587.065	-34.565	-135.150	-1.571	-0.000	-3.142	
1.553	-2.266	1.244	-1.033	-0.964	-0.128	0.01527	7.10101	0.00019	65630	-0.620	63.255	-7.091	-13.415	0.575	0.101	-0.065	-0.276	1.140	0.341	-1.423	-0.514	0.667	-1.282	587.107	-27.464	-135.171	-1.571	-0.000	-3.141	
0.653	-2.252	1.448	-0.993	-0.565	-0.078	0.00917	2.55529	0.00016	65917	-0.160	62.950	-6.805	-13.354	0.580	0.082	-0.058	-0.270	1.140	0.341	-1.424	-0.514	0.667	-1.275	587.101	-24.909	-135.134	-1.571	-0.000	-3.141	
0.495	-2.222	1.402	-0.972	-0.502	-0.074	0.00010	0.05723	0.00011	66127	-1.239	63.033	-7.232	-13.329	0.575	0.102	-0.102	-0.270	1.140	0.341	-1.424	-0.514	0.667	-1.275	587.099	-24.852	-135.138	-1.571	-0.000	-3.141	
1.153	-2.323	1.361	-1.064	-0.848	-0.142	0.00588	3.57555	0.00014	66367	-0.721	63.018	-7.059	-13.406	0.585	0.117	-0.100	-0.266	1.140	0.341	-1.424	-0.514	0.667	-1.271	587.090	-21.277	-135.164	-1.571	-0.000	-3.142	
0.687	-2.226	1.230	-1.006	-0.603	-0.094	0.01724	6.44368	0.00014	66654	-0.358	63.000	-6.937	-13.342	0.576	0.092	-0.064	-0.254	1.139	0.341	-1.425	-0.515	0.667	-1.259	586.997	-14.834	-135.162	-1.571	-0.000	3.141	
0.728	-2.175	1.292	-0.979	-0.618	-0.090	0.00117	0.09574	0.00019	66909	-0.354	63.033	-6.910	-13.387	0.571	0.087	-0.058	-0.253	1.139	0.341	-1.425	-0.515	0.666	-1.258	587.068	-14.893	-135.136	-1.571	-0.000	-3.142	
1.017	-2.287	1.170	-1.041	-0.799	-0.151	0.00006	0.24737	0.00005	67149	-0.511	63.014	-6.856	-13.539	0.592	0.117	-0.099	-0.253	1.139	0.341	-1.425	-0.515	0.666	-1.258	587.078	-14.646	-135.135	-1.571	-0.000	-3.142	
0.677	-2.355	1.290	-1.067	-0.666	-0.129	0.01478	7.07392	0.00010	67437	-0.640	62.953	-7.013	-13.245	0.560	0.093	-0.061	-0.242	1.139	0.341	-1.425	-0.515	0.666	-1.247	587.062	-7.572	-135.114	-1.571	-0.000	3.142	
0.632	-2.215	1.182	-0.995	-0.566	-0.084	0.00942	2.67056	0.00027	67724	-0.242	63.099	-6.852	-13.378	0.570	0.085	-0.052	-0.236	1.139	0.341	-1.425	-0.515	0.666	-1.241	587.103	-4.902	-135.123	-1.571	-0.000	-3.142	
0.505	-2.234	1.259	-0.995	-0.516	-0.080	0.00006	0.03265	0.00004	67980	-0.991	63.048	-7.180	-13.309	0.550	0.097	-0.103	-0.236	1.139	0.341	-1.425	-0.515	0.666	-1.241	587.107	-4.869	-135.125	-1.571	-0.000	-3.142	
0.806	-2.287	1.267	-1.044	-0.706	-0.145	0.00606	3.77075	0.00009	68219	-0.091	62.951	-6.644	-13.376	0.578	0.069	-0.092	-0.232	1.139	0.341	-1.426	-0.515	0.666	-1.236	587.072	-1.099	-135.145	-1.571	-0.000	3.142	
0.572	-2.132	1.297	-0.956	-0.536	-0.067	0.01692	6.28987	0.00016	68506	-0.430	63.075	-6.951	-13.352	0.563	0.083	-0.025	-0.220	1.139	0.341	-1.426	-0.515	0.666	-1.224	587.044	5.191	-135.149	-1.571	-0.000	3.142	
0.634	-2.164	1.274	-0.976	-0.569	-0.067	0.00105	0.06162	0.00020	68762	-0.394	63.053	-6.909	-13.368	0.561	0.081	-0.026	-0.219	1.139	0.341	-1.426	-0.515	0.666	-1.224	587.046	5.130	-135.149	-1.571	-0.000	3.142	
0.457	-2.176	1.287	-1.002	-0.593	-0.133	0.00006	0.22076	0.00021	69002	-0.565	63.068	-6.965	-13.368	0.556	0.060	-0.120	-0.219	1.139	0.341	-1.426	-0.515	0.666	-1.224	587.046	5.350	-135.149	-1.571	-0.000	-3.142	
1.153	-1.874	1.055	-0.859	-0.840	-0.155	0.01426	6.98846	0.00021	69292	-0.712	62.969	-7.003	-13.407	0.547	0.014	-0.082	-0.209	1.139	0.341	-1.425	-0.515	0.666	-1.214	587.101	12.339	-135.157	-1.571	-0.000	-3.141	
0.582	-1.845	1.201	-0.813	-0.562	-0.105	0.00965	2.75690	0.00022	69581	-0.316	62.969	-6.841	-13.392	0.540	0.012	-0.071	-0.202	1.139	0.341	-1.425	-0.515	0.666	-1.207	587.185	15.094	-135.153	-1.571	-0.000	-3.141	
0.565	-1.806	1.221	-0.798	-0.552	-0.103	0.00008	0.05463	0.00008	69838	-1.410	62.988	-7.376	-13.381	0.507	0.006	-0.113	-0.202	1.139	0.341	-1.425	-0.515	0.666	-1.207	587.168	15.144	-135.168	-1.571	-0.000	-3.141	
1.162	-1.670	1.248	-0.744	-0.866	-0.193	0.00620	3.83477	0.00013	70094	0.027	62.996	-6.561	-13.420	0.474	-0.079	-0.130	-0.197	1.139	0.341	-1.425	-0.515	0.666	-1.202	587.129	18.978	-135.136	-1.571	-0.000	-3.141	
0.715	-1.496	1.165	-0.615	-0.585	-0.139	0.01682	6.24675	0.00019	70383	-0.484	63.048	-6.977	-13.461	0.443	-0.055	-0.078	-0.185	1.140	0.341	-1.424	-0.514	0.667	-1.191	587.057	25.224	-135.214	-1.571	-0.000	-3.142	
0.804	-1.479	1.175	-0.616	-0.623	-0.137	0.00085	0.10277	0.00021	70624	-0.461	63.016	-6.950	-13.462	0.448	-0.049	-0.076	-0.185	1.140	0.341	-1.424	-0.514	0.667	-1.190	587.113	25.149	-135.171	-1.571	-0.000	-3.141	
0.484	-1.525	1.213	-0.641	-0.589	-0.180	0.00006	0.22432	0.00009	70865	-0.548	63.104	-6.964	-13.484	0.416	-0.097	-0.131	-0.185	1.140	0.341	-1.424	-0.514	0.667	-1.190	587.111	25.374	-135.167	-1.571	-0.000	-3.141	
1.670	-1.311	1.029	-0.554	-1.023	-0.231	0.01432	7.05107	0.00010	71156	-0.707	63.051	-7.012	-13.509	0.416	-0.101	-0.086	-0.174	1.140	0.341	-1.422	-0.514	0.668	-1.181	587.099	32.425	-135.176	-1.571	-0.000	-3.141	
0.717	-1.313	1.125	-0.507	-0.587	-0.147	0.00947	2.70944	0.00018	71446	-0.401	62.994	-6.860	-13.471	0.416	-0.104	-0.080	-0.167	1.141	0.341	-1.422	-0