arturo-sol653/Programmierung-und-Regelung-fuer-Mensch-Roboterinteraktion/Robot Programming/iiwa-exercises/logs/log_wireloop_small_2.log
TRANS_DIST	JS_DIST	ROT_DIST	X	Y	Z	A	B	C	TIME	MT0	MT1	MT2	MT3	MT4	MT5	MT6	FX	FY	FZ	TA	TB	TC	J0	J1	J2	J3	J4	J5	J6	
0.00000	0.00000	0.00000	449.336	69.807	-135.139	-1.571	-0.000	3.142	0	-0.351	52.435	-6.422	-7.535	0.323	-0.005	0.101	0.455	-1.409	0.752	-0.850	-0.545	-0.009	-0.143	0.998	0.354	-1.861	-0.781	0.427	-0.781	
0.02622	0.00008	0.00009	449.353	69.826	-135.135	-1.571	-0.000	3.142	244	-0.418	52.592	-6.440	-7.604	0.327	0.017	0.084	0.499	-1.508	0.653	-0.965	-0.578	-0.033	-0.143	0.998	0.354	-1.861	-0.781	0.427	-0.781	
0.02650	0.00008	0.00007	449.372	69.846	-135.135	-1.571	-0.000	-3.142	518	2.148	52.544	-5.177	-7.510	0.324	-0.009	0.164	0.579	-1.575	0.663	-0.997	-0.619	-0.037	-0.143	0.998	0.354	-1.861	-0.781	0.427	-0.781	
3.59332	0.00702	0.00031	449.497	66.254	-135.120	-1.571	0.000	-3.141	748	0.382	52.510	-6.296	-7.493	0.525	0.115	0.159	-0.441	-1.819	1.086	-1.002	-0.037	0.137	-0.148	0.997	0.354	-1.862	-0.782	0.426	-0.785	
6.39229	0.02006	0.00026	449.328	59.864	-135.137	-1.571	-0.000	-3.142	1030	0.048	52.603	-6.411	-7.341	0.459	0.097	0.117	-0.466	-1.829	1.143	-1.054	-0.081	0.080	-0.164	0.997	0.354	-1.865	-0.785	0.425	-0.797	
0.11703	0.00181	0.00018	449.441	59.896	-135.128	-1.571	0.000	-3.141	1232	-0.126	52.851	-6.463	-7.432	0.561	0.111	0.152	-1.190	-1.537	1.375	-0.814	0.326	0.143	-0.165	0.996	0.354	-1.865	-0.785	0.425	-0.798	
5.94476	0.01396	0.00012	449.364	53.951	-135.114	-1.571	0.000	-3.141	1510	-0.602	52.450	-6.688	-7.444	0.551	0.144	0.152	-1.142	-1.676	1.403	-0.900	0.293	0.163	-0.176	0.996	0.354	-1.867	-0.787	0.424	-0.807	
4.11241	0.01563	0.00034	449.420	49.839	-135.090	-1.570	-0.000	-3.141	1792	-0.005	52.580	-6.412	-7.395	0.499	0.114	0.106	-0.554	-1.874	1.211	-1.068	-0.046	0.097	-0.188	0.995	0.354	-1.869	-0.789	0.423	-0.817	
1.17958	0.00054	0.00039	449.351	48.663	-135.128	-1.571	-0.000	3.142	1994	0.308	52.196	-6.313	-7.432	0.567	0.148	0.147	-0.548	-1.952	1.327	-1.052	0.028	0.148	-0.188	0.995	0.354	-1.869	-0.789	0.423	-0.817	
7.10142	0.02034	0.00015	449.345	41.561	-135.139	-1.571	-0.000	-3.142	2278	0.351	52.220	-6.231	-7.334	0.520	0.112	0.131	-0.219	-1.992	1.229	-1.100	-0.116	0.141	-0.203	0.995	0.354	-1.871	-0.791	0.422	-0.830	
1.71270	0.00859	0.00022	449.444	39.852	-135.088	-1.571	-0.000	-3.141	2532	2.129	52.562	-5.398	-7.394	0.510	0.065	0.156	-0.342	-1.965	1.167	-1.090	-0.106	0.097	-0.210	0.995	0.354	-1.872	-0.792	0.421	-0.835	
3.62411	0.00729	0.00024	449.465	36.228	-135.112	-1.571	0.000	-3.141	2764	-0.077	52.572	-6.677	-7.427	0.555	0.186	0.164	-1.347	-1.873	1.485	-0.948	0.385	0.167	-0.215	0.995	0.354	-1.872	-0.793	0.421	-0.840	
6.36780	0.02098	0.00010	449.449	29.860	-135.124	-1.571	0.000	-3.141	3046	0.208	52.415	-6.360	-7.258	0.518	0.125	0.113	-0.751	-2.010	1.410	-1.068	0.078	0.115	-0.231	0.994	0.354	-1.874	-0.795	0.420	-0.854	
0.04030	0.00172	0.00019	449.430	29.894	-135.111	-1.570	0.000	-3.141	3248	0.101	52.424	-6.461	-7.363	0.554	0.156	0.166	-0.824	-1.801	1.468	-0.930	0.203	0.153	-0.232	0.994	0.354	-1.874	-0.795	0.420	-0.855	
5.96250	0.01437	0.00022	449.364	23.932	-135.103	-1.571	-0.000	-3.142	3528	-0.694	52.224	-6.871	-7.114	0.548	0.174	0.156	-1.086	-1.895	1.620	-0.933	0.335	0.186	-0.243	0.994	0.354	-1.875	-0.796	0.419	-0.864	
4.06728	0.01617	0.00012	449.405	19.865	-135.121	-1.571	0.000	-3.141	3808	0.268	52.290	-6.318	-7.230	0.506	0.130	0.113	-0.783	-2.037	1.444	-1.058	0.110	0.117	-0.255	0.994	0.354	-1.876	-0.797	0.419	-0.875	
1.10355	0.00057	0.00012	449.384	18.761	-135.127	-1.571	0.000	-3.141	4010	0.148	52.196	-6.591	-7.221	0.539	0.162	0.162	-1.331	-1.860	1.694	-0.899	0.422	0.181	-0.255	0.994	0.354	-1.876	-0.797	0.419	-0.876	
7.31817	0.02145	0.00024	449.353	11.443	-135.111	-1.571	-0.000	3.142	4298	0.672	52.270	-6.135	-7.338	0.535	0.120	0.120	-1.017	-1.915	1.615	-0.919	0.322	0.183	-0.271	0.993	0.354	-1.876	-0.797	0.419	-0.890	
1.61431	0.00866	0.00022	449.274	9.831	-135.133	-1.570	-0.000	3.141	4549	2.373	52.494	-5.411	-7.431	0.519	0.087	0.165	-0.807	-1.864	1.430	-0.970	0.147	0.129	-0.277	0.993	0.354	-1.877	-0.798	0.419	-0.896	
3.81632	0.00810	0.00033	449.345	6.015	-135.130	-1.571	-0.000	3.142	4786	0.058	52.364	-6.655	-7.076	0.508	0.151	0.165	-1.543	-1.870	1.841	-0.836	0.588	0.202	-0.283	0.993	0.354	-1.877	-0.798	0.419	-0.902	
6.19230	0.02150	0.00011	449.283	-0.177	-135.141	-1.571	-0.000	3.142	5065	0.276	52.553	-6.399	-7.348	0.520	0.141	0.125	-0.868	-1.981	1.506	-0.976	0.197	0.142	-0.298	0.993	0.354	-1.877	-0.798	0.418	-0.917	
0.04054	0.00158	0.00022	449.308	-0.148	-135.128	-1.570	-0.000	3.142	5264	0.121	52.110	-6.577	-7.297	0.482	0.132	0.167	-1.461	-1.592	1.656	-0.719	0.567	0.186	-0.299	0.993	0.354	-1.877	-0.798	0.418	-0.918	
6.17115	0.01574	0.00015	449.335	-6.319	-135.122	-1.571	-0.000	-3.142	5550	-0.936	52.227	-6.967	-7.150	0.359	0.103	0.160	-1.416	-1.338	2.046	-0.523	0.643	0.167	-0.310	0.993	0.354	-1.877	-0.798	0.418	-0.929	
3.77923	0.01617	0.00018	449.394	-10.097	-135.132	-1.571	0.000	-3.141	5831	0.387	52.262	-6.331	-7.283	0.313	0.100	0.110	-0.825	-1.399	1.590	-0.664	0.267	0.076	-0.322	0.993	0.354	-1.877	-0.797	0.418	-0.941	
1.36246	0.00105	0.00021	449.385	-11.460	-135.131	-1.570	0.000	-3.141	6036	0.126	52.186	-6.624	-7.299	0.266	0.046	0.154	-1.576	-1.088	1.913	-0.362	0.711	0.159	-0.322	0.993	0.354	-1.877	-0.797	0.418	-0.942	
7.00933	0.02196	0.00012	449.338	-18.469	-135.129	-1.571	0.000	-3.142	6315	0.711	52.016	-6.105	-7.385	0.271	-0.023	0.122	-0.506	-0.909	1.765	-0.283	0.291	0.114	-0.337	0.994	0.354	-1.876	-0.797	0.419	-0.958	
1.62600	0.00908	0.00011	449.435	-20.092	-135.112	-1.571	0.000	-3.141	6593	2.793	52.363	-5.169	-7.560	0.272	-0.065	0.166	-1.065	-0.910	1.823	-0.303	0.447	0.087	-0.344	0.994	0.354	-1.876	-0.796	0.419	-0.964	
3.86049	0.00865	0.00028	449.384	-23.952	-135.145	-1.571	0.000	-3.141	6829	0.415	52.297	-6.303	-7.290	0.233	-0.063	0.170	-1.588	-0.559	1.992	-0.015	0.841	0.152	-0.350	0.994	0.354	-1.875	-0.796	0.419	-0.970	
6.25169	0.02250	0.00034	449.359	-30.204	-135.123	-1.571	-0.000	3.142	7109	0.480	52.322	-6.343	-7.452	0.274	0.004	0.106	-1.098	-0.858	1.654	-0.262	0.486	0.086	-0.365	0.994	0.354	-1.874	-0.795	0.420	-0.987	
0.07045	0.00156	0.00022	449.374	-30.135	-135.126	-1.571	-0.000	3.142	7303	1.270	52.251	-5.919	-7.500	0.245	-0.083	0.153	-1.577	-0.708	1.898	-0.141	0.797	0.127	-0.366	0.994	0.354	-1.874	-0.794	0.420	-0.988	
4.92132	0.01240	0.00011	449.405	-35.056	-135.107	-1.571	-0.000	-3.142	7542	0.578	52.180	-6.370	-7.340	0.238	-0.093	0.143	-1.781	-0.315	2.103	0.151	0.965	0.159	-0.374	0.994	0.354	-1.873	-0.793	0.420	-0.997	
5.12121	0.02067	0.00026	449.296	-40.176	-135.165	-1.571	0.000	3.141	7822	0.551	52.242	-6.273	-7.496	0.276	-0.081	0.071	-1.137	-0.637	1.688	-0.100	0.529	0.085	-0.387	0.995	0.354	-1.872	-0.792	0.421	-1.013	
0.36498	0.00028	0.00015	449.308	-40.540	-135.157	-1.571	0.000	3.141	8041	0.594	52.199	-6.469	-7.392	0.206	-0.088	0.140	-1.538	-0.402	1.873	0.116	0.867	0.148	-0.387	0.995	0.354	-1.872	-0.792	0.421	-1.013	
6.86048	0.02057	0.00015	449.296	-47.401	-135.180	-1.571	0.000	3.141	8322	-0.777	51.785	-7.078	-6.922	0.207	-0.076	0.119	-1.866	-0.449	2.216	0.124	1.027	0.156	-0.401	0.995	0.354	-1.870	-0.790	0.422	-1.028	
2.66343	0.01294	0.00029	449.376	-50.063	-135.175	-1.571	0.000	-3.142	8603	1.194	52.244	-6.018	-7.463	0.248	-0.102	0.108	-1.215	-0.660	1.627	-0.091	0.576	0.090	-0.409	0.996	0.354	-1.869	-0.789	0.423	-1.038	
2.64984	0.00472	0.00010	449.351	-52.713	-135.140	-1.571	0.000	-3.142	8806	0.405	52.457	-6.613	-7.633	0.207	-0.065	0.152	-2.248	-0.421	2.114	0.171	1.217	0.157	-0.412	0.996	0.354	-1.868	-0.789	0.423	-1.042	
6.83932	0.02380	0.00031	449.223	-59.551	-135.158	-1.571	0.000	3.141	9085	0.563	52.385	-6.378	-7.515	0.232	-0.087	0.060	-1.991	-0.594	1.808	0.059	1.044	0.131	-0.427	0.996	0.354	-1.866	-0.786	0.424	-1.060	
0.52036	0.00558	0.00013	449.190	-60.069	-135.194	-1.571	0.000	3.141	9336	1.285	52.216	-6.024	-7.603	0.210	-0.119	0.130	-1.312	-0.669	1.930	-0.017	0.777	0.116	-0.430	0.997	0.354	-1.865	-0.785	0.425	-1.064	
4.83115	0.01247	0.00021	449.246	-64.900	-135.172	-1.571	0.000	3.141	9602	0.610	52.420	-6.542	-7.573	0.169	-0.083	0.147	-2.278	-0.368	2.167	0.202	1.292	0.161	-0.438	0.997	0.354	-1.864	-0.784	0.426	-1.074	
5.28754	0.02207	0.00010	449.313	-70.187	-135.169	-1.571	0.000	3.141	9887	0.621	52.434	-6.232	-7.612	0.247	-0.089	0.087	-1.230	-0.810	2.007	-0.124	0.645	0.095	-0.452	0.998	0.354	-1.861	-0.781	0.427	-1.091	
0.17068	0.00026	0.00030	449.169	-70.099	-135.195	-1.571	0.000	3.141	10088	0.598	52.699	-6.385	-7.619	0.254	-0.067	0.084	-1.445	-0.820	2.058	-0.122	0.767	0.100	-0.452	0.998	0.354	-1.861	-0.781	0.427	-1.091	
0.00415	0.00004	0.00000	449.166	-70.102	-135.196	-1.571	0.000	3.141	10370	0.563	52.553	-6.415	-7.547	0.251	-0.061	0.082	-1.392	-0.856	1.890	-0.157	0.712	0.092	-0.452	0.998	0.354	-1.861	-0.781	0.427	-1.091	
0.00151	0.00000	0.00012	449.164	-70.101	-135.196	-1.571	0.000	3.141	10555	0.774	52.478	-6.379	-7.538	0.274	-0.033	0.161	-1.576	-0.819	1.918	-0.108	0.864	0.142	-0.452	0.998	0.354	-1.861	-0.781	0.427	-1.091	
0.23772	0.10698	0.15269	449.163	-70.339	-135.189	-1.418	0.000	3.141	10835	0.831	52.539	-6.351	-7.567	0.224	-0.041	0.130	-1.650	-1.138	2.001	-0.284	1.010	0.167	-0.452	0.998	0.354	-1.861	-0.781	0.427	-1.198	
0.37118	0.24962	0.22353	449.259	-70.696	-135.161	-1.194	0.000	3.141	11115	0.712	52.562	-6.392	-7.610	0.236	0.000	0.078	-1.417	-1.346	2.011	-0.447	0.938	0.167	-0.453	0.998	0.354	-1.861	-0.781	0.427	-1.447	
0.02064	0.03757	0.01641	449.266	-70.716	-135.159	-1.178	0.000	3.142	11359	1.410	52.641	-6.169	-7.593	0.203	-0.129	0.170	-1.838	-1.271	2.494	-0.393	1.156	0.150	-0.453	0.998	0.354	-1.861	-0.781	0.427	-1.485	
5.04244	0.01745	0.00034	451.302	-75.329	-135.130	-1.178	0.000	-3.141	11632	1.106	52.540	-6.123	-7.705	0.205	-0.165	0.177	-2.026	-1.191	2.265	-0.275	1.374	0.191	-0.459	0.999	0.354	-1.855	-0.775	0.430	-1.498	
4.99818	0.02838	0.00023	453.135	-79.979	-135.151	-1.178	0.000	3.142	11914	0.628	52.943	-6.367	-7.760	0.275	-0.039	0.097	-0.860	-1.447	2.041	-0.473	0.594	0.110	-0.469	1.002	0.354	-1.845	-0.765	0.436	-1.520	
0.37662	0.00027	0.00050	453.378	-80.259	-135.088	-1.178	-0.000	-3.141	12102	1.012	53.461	-6.252	-8.067	0.209	-0.137	0.177	-1.621	-1.251	2.505	-0.305	1.124	0.177	-0.469	1.002	0.354	-1.845	-0.765	0.436	-1.520	
6.99350	0.02778	0.00050	455.919	-86.775	-135.112	-1.178	-0.000	3.141	12384	-0.192	53.664	-6.986	-7.731	0.210	-0.118	0.155	-2.260	-1.227	2.212	-0.316	1.468	0.198	-0.479	1.005	0.354	-1.835	-0.755	0.441	-1.541	
2.61855	0.01765	0.00022	456.856	-89.220	-135.144	-1.178	0.000	3.141	12666	0.832	53.343	-6.378	-8.066	0.266	-0.038	0.125	-0.966	-1.483	1.836	-0.485	0.652	0.125	-0.485	1.007	0.354	-1.829	-0.750	0.445	-1.555	
0.01554	0.00003	0.00002	456.854	-89.235	-135.141	-1.178	0.000	3.141	12867	0.577	53.344	-6.475	-8.084	0.267	-0.033	0.121	-0.964	-1.460	1.848	-0.483	0.656	0.123	-0.485	1.007	0.354	-1.829	-0.750	0.445	-1.555	
0.02117	0.00005	0.00005	456.860	-89.215	-135.141	-1.178	0.000	3.141	13150	0.602	53.360	-6.465	-8.075	0.269	-0.030	0.155	-0.914	-1.473	1.862	-0.487	0.624	0.120	-0.485	1.007	0.354	-1.829	-0.750	0.445	-1.555	
0.06354	0.01663	0.03770	456.882	-89.155	-135.144	-1.140	-0.000	3.141	13369	0.532	53.438	-6.481	-8.125	0.363	0.040	0.219	-0.332	-1.613	1.573	-0.580	0.271	0.164	-0.485	1.007	0.354	-1.829	-0.750	0.445	-1.571	
0.47303	0.22352	0.25069	456.849	-88.684	-135.120	-0.890	-0.000	-3.142	13648	0.246	53.368	-6.492	-7.974	0.458	0.054	0.182	0.654	-1.622	1.467	-0.558	-0.322	0.169	-0.484	1.006	0.354	-1.829	-0.751	0.445	-1.795	
0.29037	0.14954	0.10433	456.704	-88.434	-135.099	-0.785	-0.000	3.142	13932	0.263	53.412	-6.510	-8.007	0.460	0.060	0.114	0.867	-1.604	1.506	-0.542	-0.421	0.117	-0.484	1.006	0.354	-1.830	-0.751	0.444	-1.944	
1.84515	0.00290	0.00034	458.095	-89.646	-135.067	-0.786	-0.000	-3.141	14165	0.819	53.388	-6.676	-8.490	0.210	-0.074	0.177	-0.743	-1.651	2.212	-0.674	0.846	0.195	-0.484	1.006	0.354	-1.828	-0.750	0.445	-1.946	
7.00820	0.03704	0.00021	462.993	-94.657	-135.118	-0.786	-0.000	-3.142	14446	0.792	53.981	-6.513	-8.486	0.288	-0.089	0.142	-0.782	-1.664	2.141	-0.706	0.847	0.187	-0.490	1.012	0.354	-1.811	-0.734	0.455	-1.972	
1.12494	0.01232	0.00012	463.791	-95.450	-135.120	-0.785	-0.000	-3.142	14687	2.053	53.425	-5.925	-9.392	0.233	-0.128	0.188	-0.515	-1.616	1.604	-0.644	0.606	0.160	-0.492	1.013	0.354	-1.805	-0.729	0.458	-1.980	
4.04063	0.01432	0.00021	466.660	-98.295	-135.140	-0.785	-0.000	-3.141	14910	1.027	54.472	-6.628	-9.172	0.232	-0.063	0.179	-0.955	-1.777	2.269	-0.765	0.954	0.191	-0.495	1.015	0.354	-1.798	-0.723	0.462	-1.990	
5.95080	0.03487	0.00050	470.770	-102.599	-135.152	-0.786	0.000	3.141	15192	0.594	54.386	-6.595	-8.893	0.255	-0.089	0.131	-0.269	-1.626	2.013	-0.636	0.507	0.132	-0.500	1.021	0.354	-1.780	-0.708	0.472	-2.013	
0.06799	0.00180	0.00026	470.753	-102.535	-135.137	-0.785	0.000	3.141	15367	0.733	54.454	-6.590	-8.792	0.261	-0.091	0.100	-0.425	-1.809	1.897	-0.720	0.584	0.125	-0.500	1.021	0.354	-1.779	-0.708	0.473	-2.014	
0.01392	0.00003	0.00002	470.740	-102.533	-135.139	-0.785	0.000	3.141	15662	0.626	54.621	-6.674	-8.799	0.261	-0.084	0.098	-0.300	-1.759	1.941	-0.685	0.497	0.114	-0.500	1.021	0.354	-1.779	-0.708	0.473	-2.014	
0.03169	0.00004	0.00030	470.729	-102.562	-135.140	-0.785	0.000	3.141	15883	0.894	54.546	-6.478	-8.908	0.192	-0.118	0.191	-0.540	-1.745	1.971	-0.708	0.655	0.170	-0.500	1.021	0.354	-1.779	-0.708	0.473	-2.014	
0.99388	0.11603	0.16110	471.475	-103.219	-135.161	-0.624	-0.000	3.142	16174	0.848	54.983	-6.658	-8.991	0.254	-0.103	0.224	-0.320	-2.057	2.042	-0.982	0.653	0.164	-0.501	1.022	0.354	-1.777	-0.707	0.474	-2.130	
1.47153	0.24946	0.21647	472.603	-104.164	-135.139	-0.407	-0.000	-3.141	16453	0.815	54.454	-6.623	-8.742	0.224	-0.095	0.087	0.194	-1.987	1.812	-0.990	0.389	0.141	-0.502	1.023	0.354	-1.773	-0.703	0.476	-2.380	
0.11220	0.03523	0.01463	472.692	-104.232	-135.133	-0.393	-0.000	-3.141	16700	0.492	54.710	-6.731	-8.810	0.192	-0.157	0.125	-0.038	-1.740	1.671	-0.852	0.433	0.114	-0.502	1.023	0.354	-1.773	-0.703	0.476	-2.415	
5.14706	0.02060	0.00035	477.417	-106.271	-135.129	-0.393	-0.000	3.142	16968	0.311	55.011	-6.760	-9.276	0.197	-0.161	0.128	-0.102	-1.280	1.471	-0.577	0.369	0.081	-0.502	1.027	0.354	-1.760	-0.694	0.483	-2.426	
4.76068	0.03026	0.00013	481.823	-108.076	-135.152	-0.393	-0.000	3.142	17248	0.604	55.573	-6.644	-9.451	0.282	-0.090	0.083	0.503	-1.043	1.193	-0.431	0.080	0.073	-0.501	1.032	0.354	-1.742	-0.681	0.493	-2.443	
1.55418	0.00179	0.00009	483.243	-108.706	-135.103	-0.393	-0.000	3.141	17483	0.224	55.805	-6.821	-9.765	0.209	-0.062	0.118	0.194	-0.920	1.380	-0.336	0.194	0.056	-0.501	1.033	0.354	-1.741	-0.680	0.494	-2.444	
6.91116	0.03518	0.00021	489.634	-111.335	-135.142	-0.393	-0.000	3.141	17762	0.495	56.180	-6.648	-9.998	0.261	-0.059	0.106	0.753	-0.833	1.954	-0.269	-0.045	0.038	-0.501	1.039	0.354	-1.719	-0.665	0.506	-2.463	
1.39780	0.01315	0.00019	490.915	-111.895	-135.130	-0.393	0.000	3.141	18044	0.319	56.280	-6.707	-9.744	0.256	-0.067	0.094	0.866	-1.023	1.575	-0.329	-0.139	0.039	-0.500	1.042	0.354	-1.711	-0.660	0.511	-2.470	
0.00235	0.00001	0.00000	490.914	-111.897	-135.129	-0.393	0.000	3.141	18277	0.257	56.222	-6.772	-9.777	0.256	-0.063	0.074	0.868	-0.800	1.559	-0.239	-0.155	0.032	-0.500	1.042	0.354	-1.711	-0.660	0.511	-2.470	
0.00038	0.00001	0.00001	490.914	-111.897	-135.129	-0.393	0.000	3.141	18562	0.265	56.364	-6.774	-9.805	0.261	-0.070	0.079	0.904	-0.803	1.532	-0.234	-0.174	0.017	-0.500	1.042	0.354	-1.711	-0.660	0.511	-2.470	
3.36371	0.00448	0.00017	491.371	-112.060	-131.800	-0.393	0.000	3.142	18747	0.331	55.383	-6.375	-10.130	0.224	-0.180	0.120	1.452	-0.322	2.838	0.063	-0.359	0.001	-0.500	1.040	0.354	-1.712	-0.657	0.512	-2.472	
21.41994	0.08393	0.00073	494.830	-113.408	-110.705	-0.393	-0.001	-3.141	19030	0.101	53.968	-6.101	-10.342	0.221	-0.162	0.106	1.240	-0.620	1.681	-0.123	-0.220	0.013	-0.499	0.996	0.354	-1.719	-0.605	0.538	-2.514	
5.56042	0.03716	0.00042	495.497	-113.728	-105.194	-0.393	-0.000	-3.142	19309	0.128	55.828	-6.487	-11.012	0.289	-0.081	0.031	1.323	-0.676	1.691	-0.120	-0.312	0.005	-0.499	0.977	0.354	-1.721	-0.583	0.550	-2.532	
0.15238	0.01608	0.03743	495.577	-113.781	-105.076	-0.430	-0.000	3.142	19523	0.097	55.601	-6.446	-10.859	0.359	-0.034	-0.340	1.599	-0.521	1.523	0.023	-0.563	-0.108	-0.499	0.977	0.354	-1.721	-0.583	0.550	-2.516	
0.02552	0.25499	0.30523	495.555	-113.775	-105.086	-0.735	-0.000	-3.142	19805	0.151	55.675	-6.461	-10.946	0.401	-0.040	-0.146	1.223	-1.173	1.610	-0.246	-0.523	-0.075	-0.499	0.977	0.354	-1.721	-0.583	0.550	-2.261	
0.04670	0.44078	0.44114	495.512	-113.769	-105.103	-1.176	-0.000	-3.142	20087	0.137	55.657	-6.488	-10.936	0.342	-0.057	0.199	0.656	-1.586	1.551	-0.475	-0.419	-0.099	-0.499	0.977	0.354	-1.721	-0.583	0.550	-1.820	
0.04878	0.43947	0.43946	495.466	-113.764	-105.120	-1.616	-0.000	-3.142	20367	0.109	55.579	-6.456	-10.904	0.408	-0.049	-0.306	-0.051	-1.770	1.564	-0.660	-0.187	-0.117	-0.499	0.977	0.354	-1.721	-0.583	0.550	-1.381	
0.03814	0.35256	0.31022	495.428	-113.761	-105.125	-1.926	-0.000	-3.142	20650	0.130	55.656	-6.452	-10.917	0.263	-0.073	-0.082	-0.490	-1.562	1.633	-0.582	0.043	-0.122	-0.499	0.977	0.354	-1.721	-0.583	0.550	-1.028	
0.01589	0.06691	0.03736	495.422	-113.746	-105.126	-1.963	-0.000	-3.142	20927	0.137	55.617	-6.490	-10.896	0.278	-0.087	-0.074	-0.465	-1.490	1.637	-0.546	0.016	-0.109	-0.499	0.977	0.354	-1.721	-0.583	0.550	-0.961	
0.00539	0.04347	0.07450	495.417	-113.744	-105.127	-2.038	-0.000	-3.142	21165	0.200	55.499	-6.479	-10.929	0.346	-0.053	-0.493	-0.739	-1.527	1.574	-0.654	0.098	-0.118	-0.499	0.977	0.354	-1.721	-0.583	0.550	-0.918	
0.00735	0.31193	0.35467	495.410	-113.745	-105.129	-2.393	-0.000	-3.142	21444	0.145	55.741	-6.461	-11.007	0.488	-0.018	-0.109	-1.272	-1.137	1.642	-0.598	0.335	-0.114	-0.499	0.977	0.354	-1.721	-0.583	0.551	-0.606	
0.00504	0.44137	0.44140	495.405	-113.744	-105.131	-2.834	-0.000	-3.141	21725	0.202	55.688	-6.438	-10.839	0.381	-0.036	0.182	-1.683	-0.502	1.574	-0.440	0.566	-0.119	-0.499	0.977	0.354	-1.721	-0.583	0.551	-0.165	
0.00208	0.44133	0.44052	495.406	-113.746	-105.130	3.009	-0.000	-3.141	22006	0.206	55.667	-6.448	-10.896	0.320	-0.047	-0.070	-1.683	0.164	1.574	-0.224	0.670	-0.139	-0.499	0.977	0.354	-1.721	-0.583	0.551	0.277	
0.00240	0.29778	0.24533	495.404	-113.746	-105.131	2.763	-0.000	-3.141	22286	0.220	55.593	-6.421	-10.874	0.304	-0.059	-0.098	-1.670	0.422	1.552	-0.146	0.698	-0.147	-0.499	0.977	0.354	-1.721	-0.583	0.551	0.575	
0.00028	0.03496	0.01441	495.403	-113.746	-105.131	2.749	-0.000	-3.141	22522	0.253	53.239	-6.205	-10.601	0.489	0.009	-0.122	-1.545	0.460	1.803	-0.126	0.650	-0.111	-0.499	0.977	0.354	-1.721	-0.583	0.551	0.610	
8.01829	0.01781	0.00015	495.363	-113.764	-113.149	2.749	-0.000	-3.141	22755	0.596	55.499	-6.309	-9.740	0.533	0.017	-0.154	-1.598	0.659	1.107	0.028	0.912	-0.038	-0.499	0.988	0.354	-1.718	-0.593	0.546	0.617	
20.37225	0.08166	0.00042	495.553	-113.834	-133.520	2.749	0.000	-3.141	23037	0.698	56.421	-6.684	-10.128	0.561	0.134	-0.101	-1.554	1.267	0.832	0.287	0.850	-0.022	-0.500	1.036	0.354	-1.700	-0.641	0.524	0.652	
1.57936	0.01735	0.00018	495.516	-113.816	-135.099	2.749	0.000	-3.141	23320	0.501	56.719	-6.811	-10.024	0.497	0.100	0.082	-1.374	1.256	1.138	0.310	0.726	0.020	-0.500	1.047	0.354	-1.696	-0.651	0.519	0.660	
0.09770	0.04533	0.07845	495.581	-113.851	-135.035	2.827	0.000	-3.141	23557	0.518	56.393	-6.665	-10.034	0.601	0.071	0.028	-1.289	1.213	1.279	0.364	0.570	0.158	-0.500	1.047	0.354	-1.696	-0.651	0.519	0.614	
0.16409	0.25584	0.25687	495.497	-113.797	-135.165	3.084	0.000	-3.141	23838	0.444	56.632	-6.810	-10.007	0.584	0.094	0.119	-1.597	0.905	1.219	0.231	0.686	0.172	-0.500	1.047	0.354	-1.696	-0.651	0.519	0.359	
0.04244	0.09143	0.05746	495.527	-113.826	-135.161	-3.141	0.000	-3.141	24120	0.542	56.606	-6.776	-10.146	0.495	0.104	0.048	-1.658	0.793	1.127	0.162	0.748	0.106	-0.500	1.047	0.354	-1.696	-0.651	0.519	0.267	
2.55113	0.00609	0.00028	498.078	-113.833	-135.129	3.141	0.000	-3.141	24324	-0.293	56.664	-6.782	-10.130	0.232	-0.132	0.136	-0.472	-0.095	1.022	-0.242	0.133	0.020	-0.499	1.048	0.354	-1.692	-0.648	0.522	0.265	
7.01134	0.03232	0.00025	505.089	-113.797	-135.150	3.141	0.000	-3.141	24605	0.051	57.262	-6.907	-10.448	0.297	-0.069	0.096	-0.818	-0.127	1.050	-0.294	0.246	0.007	-0.493	1.056	0.354	-1.669	-0.635	0.534	0.253	
0.39271	0.00749	0.00030	505.481	-113.813	-135.165	3.142	0.000	-3.141	24853	-0.126	57.447	-6.848	-10.493	0.234	-0.155	0.116	-0.575	-0.046	1.418	-0.250	0.164	0.016	-0.491	1.057	0.354	-1.664	-0.633	0.537	0.250	
5.09941	0.01754	0.00017	510.580	-113.794	-135.139	-3.142	0.000	-3.141	25121	0.024	57.703	-6.813	-10.691	0.239	-0.130	0.148	-0.727	-0.133	1.251	-0.280	0.163	0.013	-0.488	1.061	0.354	-1.652	-0.626	0.544	0.244	
4.89857	0.02822	0.00030	515.479	-113.787	-135.130	3.142	-0.000	-3.141	25404	-0.086	57.809	-6.947	-10.769	0.285	-0.017	0.102	-1.066	0.016	1.114	-0.206	0.383	0.012	-0.483	1.068	0.354	-1.632	-0.615	0.555	0.235	
0.69239	0.00012	0.00034	516.165	-113.842	-135.058	3.142	0.000	-3.141	25606	-0.276	58.105	-7.106	-11.089	0.225	-0.084	0.125	-0.561	0.043	0.762	-0.158	0.072	0.027	-0.483	1.068	0.354	-1.632	-0.615	0.555	0.235	
6.92806	0.02884	0.00015	523.093	-113.812	-135.110	3.141	0.000	-3.141	25883	0.321	59.183	-6.764	-11.099	0.239	-0.092	0.129	-0.714	-0.462	1.054	-0.333	0.131	0.013	-0.477	1.075	0.354	-1.612	-0.605	0.567	0.225	
2.32704	0.01651	0.00030	525.420	-113.810	-135.134	3.142	-0.000	-3.141	26158	0.000	58.900	-6.972	-11.220	0.299	-0.058	0.092	-1.252	0.010	1.348	-0.206	0.411	0.003	-0.474	1.079	0.354	-1.600	-0.599	0.574	0.220	
0.03631	0.00009	0.00007	525.441	-113.791	-135.112	3.142	-0.000	-3.141	26399	0.024	59.002	-6.988	-11.300	0.313	-0.046	0.091	-1.239	0.033	1.316	-0.198	0.419	0.012	-0.474	1.079	0.354	-1.600	-0.599	0.574	0.220	
0.01316	0.00005	0.00001	525.433	-113.799	-135.119	3.142	-0.000	-3.141	26674	0.081	58.870	-6.910	-11.233	0.299	-0.049	0.178	-1.230	-0.044	1.278	-0.240	0.423	0.017	-0.474	1.079	0.354	-1.600	-0.599	0.574	0.220	
0.28740	0.04059	0.07208	525.719	-113.810	-135.135	-3.070	0.000	-3.141	26909	0.007	59.029	-6.960	-11.337	0.250	-0.072	0.432	-0.788	-0.105	1.242	-0.195	0.188	0.030	-0.474	1.079	0.354	-1.600	-0.599	0.574	0.179	
0.76075	0.25428	0.25806	526.471	-113.716	-135.202	-2.811	0.000	-3.141	27192	-0.086	58.842	-6.988	-11.004	0.239	-0.144	0.139	-0.770	-0.366	1.245	-0.277	0.139	0.021	-0.473	1.080	0.354	-1.597	-0.598	0.575	-0.075	
0.18525	0.09923	0.06235	526.646	-113.769	-135.169	-2.749	0.000	-3.141	27474	-0.483	59.249	-7.199	-11.677	0.268	-0.043	0.097	-0.997	-0.519	1.225	-0.360	0.276	-0.011	-0.473	1.080	0.354	-1.596	-0.598	0.575	-0.174	
3.02769	0.00648	0.00031	529.476	-112.694	-135.112	-2.749	0.000	-3.141	27710	-0.070	59.342	-7.057	-11.550	0.239	-0.139	0.117	-0.784	-0.536	1.265	-0.320	0.118	-0.006	-0.471	1.082	0.354	-1.591	-0.596	0.578	-0.175	
6.82943	0.02767	0.00012	535.755	-110.008	-135.164	-2.749	0.000	-3.141	27994	-0.065	59.206	-6.987	-11.718	0.300	-0.029	0.055	-0.769	-0.623	0.861	-0.368	0.204	-0.022	-0.461	1.089	0.354	-1.571	-0.587	0.589	-0.178	
0.08407	0.00448	0.00036	535.804	-109.940	-135.162	-2.749	-0.000	-3.141	28207	-0.039	59.600	-6.949	-11.797	0.242	-0.117	0.106	-0.594	-0.519	0.854	-0.303	0.053	-0.005	-0.459	1.090	0.354	-1.568	-0.585	0.591	-0.179	
6.25391	0.01997	0.00018	541.578	-107.537	-135.170	-2.749	-0.000	-3.141	28491	1.223	60.166	-6.313	-11.212	0.246	-0.308	0.115	-0.585	-0.334	1.228	-0.277	0.048	-0.005	-0.452	1.095	0.354	-1.554	-0.579	0.599	-0.181	
3.65669	0.01942	0.00033	544.944	-106.107	-135.169	-2.749	-0.000	-3.141	28773	0.081	60.128	-6.995	-11.933	0.313	-0.076	0.091	-1.120	-0.428	1.261	-0.280	0.298	0.014	-0.445	1.100	0.354	-1.540	-0.574	0.607	-0.183	
0.03417	0.00006	0.00007	544.947	-106.073	-135.167	-2.749	-0.000	-3.141	29005	0.078	60.316	-7.018	-12.030	0.315	-0.065	0.092	-1.086	-0.530	1.276	-0.331	0.296	0.008	-0.445	1.100	0.354	-1.540	-0.574	0.607	-0.183	
0.03305	0.00006	0.00005	544.943	-106.106	-135.166	-2.749	-0.000	-3.141	29286	0.026	60.272	-7.029	-12.007	0.308	-0.062	0.126	-1.075	-0.577	1.266	-0.369	0.293	0.003	-0.445	1.100	0.354	-1.540	-0.574	0.607	-0.183	
0.68254	0.01734	0.03830	545.605	-105.967	-135.078	-2.711	0.000	-3.141	29522	-0.218	60.774	-7.082	-12.062	0.286	-0.181	0.487	-0.811	-0.180	1.299	-0.106	0.129	0.042	-0.444	1.100	0.354	-1.539	-0.573	0.607	-0.201	
3.02132	0.22842	0.24889	548.353	-104.715	-135.184	-2.462	-0.000	-3.141	29802	-0.040	60.817	-7.095	-12.234	0.262	-0.122	0.139	-0.636	-0.544	1.235	-0.211	0.080	0.035	-0.440	1.103	0.354	-1.531	-0.570	0.612	-0.429	
1.39827	0.14930	0.10531	549.661	-104.222	-135.170	-2.356	0.000	-3.141	30082	0.134	60.467	-6.934	-12.072	0.263	-0.066	0.091	-0.627	-0.864	1.229	-0.388	0.104	-0.012	-0.438	1.105	0.354	-1.525	-0.568	0.615	-0.578	
1.57912	0.00102	0.00049	550.868	-103.206	-135.100	-2.357	0.000	-3.141	30315	-0.175	60.686	-7.188	-12.475	0.214	-0.123	-0.072	-0.265	-0.947	1.106	-0.450	-0.125	-0.149	-0.437	1.106	0.354	-1.525	-0.568	0.615	-0.578	
7.04917	0.02171	0.00035	555.780	-98.150	-135.127	-2.356	0.000	-3.141	30598	-0.118	61.040	-7.217	-12.266	0.262	-0.122	-0.063	-0.747	-0.698	1.159	-0.349	0.073	-0.143	-0.425	1.111	0.354	-1.511	-0.563	0.623	-0.574	
1.31863	0.00817	0.00017	556.683	-97.190	-135.156	-2.356	-0.000	-3.141	30839	-2.074	60.323	-7.966	-12.719	0.235	-0.038	-0.072	-0.760	-0.804	0.898	-0.385	0.102	-0.106	-0.420	1.112	0.354	-1.505	-0.561	0.626	-0.573	
3.99061	0.00844	0.00018	559.502	-94.365	-135.162	-2.356	0.000	-3.141	31081	-0.156	60.856	-7.145	-12.596	0.257	-0.149	-0.085	-0.287	-0.941	1.214	-0.487	-0.134	-0.171	-0.416	1.114	0.354	-1.500	-0.558	0.629	-0.572	
6.02167	0.02204	0.00032	563.740	-90.087	-135.157	-2.356	-0.000	-3.141	31363	-0.074	61.333	-7.032	-12.628	0.319	-0.116	-0.047	-0.601	-1.002	1.343	-0.474	0.028	-0.113	-0.404	1.120	0.354	-1.485	-0.553	0.637	-0.568	
0.08463	0.00117	0.00011	563.755	-90.162	-135.120	-2.357	-0.000	-3.141	31555	0.848	61.817	-6.467	-12.688	0.297	-0.196	-0.076	-0.331	-1.262	0.961	-0.577	-0.134	-0.159	-0.403	1.120	0.354	-1.485	-0.553	0.638	-0.568	
6.21399	0.01616	0.00017	568.098	-85.717	-135.152	-2.356	-0.000	-3.141	31847	1.215	61.725	-6.508	-12.632	0.272	-0.093	-0.095	0.303	-1.237	0.917	-0.620	-0.353	-0.174	-0.394	1.124	0.354	-1.474	-0.549	0.643	-0.565	
3.80216	0.01602	0.00008	570.793	-83.035	-135.164	-2.356	-0.000	-3.141	32128	0.262	62.551	-6.912	-14.179	0.504	0.411	-0.082	-0.044	0.275	1.357	-0.507	0.034	-0.134	-0.386	1.128	0.354	-1.463	-0.546	0.649	-0.563	
0.03393	0.00016	0.00004	570.803	-83.053	-135.137	-2.356	-0.000	-3.141	32330	0.102	62.729	-7.184	-14.094	0.448	0.401	-0.078	0.451	0.383	1.108	-0.462	0.011	-0.131	-0.386	1.128	0.354	-1.463	-0.546	0.649	-0.563	
0.01971	0.00002	0.00003	570.812	-83.066	-135.125	-2.356	-0.000	-3.141	32611	0.216	62.815	-7.083	-14.130	0.471	0.378	-0.073	0.216	0.546	1.262	-0.437	0.044	-0.128	-0.386	1.128	0.354	-1.463	-0.546	0.649	-0.563	
0.04190	0.00042	0.00630	570.818	-83.106	-135.113	-2.350	-0.000	-3.141	32798	0.208	61.842	-7.047	-12.757	0.473	0.032	0.147	-1.148	-0.779	1.349	-0.409	0.360	0.092	-0.386	1.128	0.354	-1.463	-0.546	0.649	-0.564	
1.17504	0.16216	0.20035	570.033	-83.980	-135.143	-2.150	-0.000	-3.141	33078	0.218	61.948	-7.157	-12.749	0.545	0.086	0.214	-1.583	-1.594	1.362	-0.694	0.584	0.175	-0.388	1.127	0.354	-1.465	-0.547	0.648	-0.726	
1.02636	0.21858	0.18396	569.283	-84.680	-135.155	-1.966	-0.000	-3.141	33361	0.479	61.848	-7.045	-12.767	0.560	0.021	0.087	-1.623	-1.912	1.733	-0.776	0.585	0.154	-0.390	1.126	0.354	-1.468	-0.548	0.646	-0.944	
0.02143	0.01281	0.00254	569.296	-84.664	-135.159	-1.963	-0.000	-3.141	33583	0.388	62.420	-6.841	-13.366	0.420	-0.050	-0.082	-0.490	-1.780	1.306	-0.756	-0.032	-0.046	-0.390	1.126	0.354	-1.468	-0.548	0.646	-0.957	
6.07182	0.01251	0.00026	571.654	-79.068	-135.131	-1.964	-0.000	-3.141	33873	0.906	62.435	-6.557	-13.193	0.339	-0.145	-0.084	0.138	-0.887	0.861	-0.356	-0.274	-0.149	-0.381	1.128	0.354	-1.464	-0.546	0.649	-0.951	
3.82969	0.01274	0.00047	572.973	-75.474	-135.181	-1.964	-0.000	-3.141	34156	-0.138	61.853	-7.130	-12.993	0.374	-0.052	-0.037	-0.109	-1.255	0.990	-0.539	-0.147	-0.094	-0.372	1.129	0.354	-1.459	-0.545	0.651	-0.944	
1.42572	0.00076	0.00049	573.676	-74.236	-135.103	-1.964	-0.000	-3.141	34372	-0.208	62.169	-7.221	-13.241	0.286	-0.124	-0.104	0.361	-1.000	1.058	-0.432	-0.405	-0.193	-0.371	1.129	0.354	-1.459	-0.545	0.651	-0.944	
7.18199	0.01755	0.00015	576.398	-67.589	-135.110	-1.964	-0.000	-3.141	34656	-0.375	62.092	-7.165	-12.848	0.319	-0.135	-0.059	-0.116	-1.081	0.997	-0.415	-0.192	-0.155	-0.359	1.132	0.354	-1.452	-0.542	0.655	-0.935	
1.35116	0.00665	0.00036	576.842	-66.315	-135.165	-1.964	-0.000	-3.141	34938	-1.797	62.369	-7.908	-13.262	0.311	-0.067	-0.079	-0.217	-1.155	1.119	-0.460	-0.134	-0.115	-0.354	1.133	0.354	-1.450	-0.541	0.657	-0.932	
3.53740	0.00577	0.00015	578.227	-63.060	-135.125	-1.964	-0.000	-3.141	35173	-0.393	62.504	-7.123	-13.366	0.302	-0.114	-0.098	-0.124	-1.117	1.319	-0.438	-0.204	-0.164	-0.350	1.134	0.354	-1.447	-0.541	0.658	-0.929	
6.37910	0.01771	0.00069	580.414	-57.069	-135.259	-1.964	-0.001	3.141	35454	0.020	64.813	-7.479	-16.191	0.577	1.350	-0.141	1.865	3.677	0.478	-0.304	-0.287	-0.232	-0.337	1.137	0.354	-1.440	-0.538	0.662	-0.920	
0.11482	0.00183	0.00028	580.507	-57.017	-135.217	-1.964	-0.000	-3.142	35671	-0.335	65.005	-7.872	-16.405	0.545	1.394	-0.146	1.604	3.464	1.687	-0.447	-0.261	-0.219	-0.336	1.137	0.354	-1.439	-0.538	0.663	-0.920	
0.04086	0.00014	0.00008	580.512	-57.006	-135.178	-1.964	-0.000	-3.142	35905	-0.230	64.869	-7.769	-16.179	0.548	1.297	-0.145	1.838	3.160	1.637	-0.476	-0.297	-0.216	-0.336	1.137	0.354	-1.439	-0.538	0.663	-0.920	
0.00697	0.00004	0.00001	580.510	-57.010	-135.173	-1.964	-0.000	-3.141	36185	0.699	64.111	-7.019	-15.306	0.589	0.833	0.122	1.540	3.108	1.669	-0.469	-0.258	-0.186	-0.336	1.137	0.354	-1.439	-0.538	0.663	-0.920	
0.98006	0.04453	0.07465	580.406	-57.963	-134.972	-1.889	-0.000	-3.141	36420	0.220	62.771	-7.118	-13.077	0.580	0.134	0.001	-0.997	-2.015	1.516	-0.836	0.304	0.116	-0.337	1.136	0.354	-1.440	-0.538	0.662	-0.964	
3.19134	0.25664	0.25702	579.161	-60.896	-135.146	-1.632	-0.000	-3.141	36700	0.257	62.564	-7.172	-13.014	0.560	0.058	0.142	-0.810	-2.291	1.675	-0.891	0.286	0.169	-0.343	1.135	0.354	-1.443	-0.540	0.660	-1.221	
0.79384	0.09790	0.06150	578.861	-61.631	-135.131	-1.571	-0.000	-3.141	36981	0.024	62.809	-7.243	-13.120	0.572	0.060	0.088	-0.788	-2.283	1.797	-0.873	0.259	0.133	-0.345	1.135	0.354	-1.445	-0.540	0.659	-1.318	
2.61645	0.00351	0.00026	578.774	-59.017	-135.185	-1.571	-0.000	-3.141	37214	-0.327	62.451	-7.219	-12.971	0.574	0.108	-0.073	0.568	-2.374	1.313	-1.053	-0.623	-0.109	-0.343	1.135	0.354	-1.445	-0.540	0.659	-1.316	
6.92424	0.01814	0.00049	578.949	-52.095	-135.112	-1.571	-0.000	-3.141	37493	0.007	62.465	-7.062	-13.056	0.556	0.034	-0.048	0.666	-2.199	1.297	-0.936	-0.642	-0.089	-0.331	1.134	0.354	-1.448	-0.541	0.658	-1.302	
0.44925	0.00396	0.00005	578.886	-51.651	-135.141	-1.571	-0.000	-3.141	37739	-1.243	62.845	-7.614	-13.039	0.553	0.080	-0.089	0.608	-2.128	1.270	-0.891	-0.630	-0.097	-0.328	1.133	0.354	-1.448	-0.541	0.657	-1.299	
4.79699	0.00909	0.00030	578.841	-46.855	-135.107	-1.571	-0.001	-3.141	38009	-0.367	62.497	-7.132	-12.997	0.597	0.098	-0.100	1.032	-2.240	1.174	-1.029	-0.823	-0.136	-0.322	1.133	0.354	-1.449	-0.542	0.657	-1.293	
5.29207	0.01605	0.00019	578.822	-41.563	-135.139	-1.571	-0.000	-3.141	38292	-0.298	62.618	-7.219	-13.066	0.577	0.036	-0.047	0.382	-2.160	1.185	-0.908	-0.508	-0.070	-0.311	1.132	0.354	-1.451	-0.542	0.656	-1.281	
0.30665	0.00028	0.00007	578.842	-41.257	-135.136	-1.571	-0.001	-3.141	38513	-0.108	62.471	-6.902	-12.943	0.606	0.077	-0.111	0.471	-2.300	1.386	-1.004	-0.613	-0.117	-0.311	1.132	0.354	-1.451	-0.542	0.656	-1.281	
6.94109	0.01538	0.00026	578.741	-34.316	-135.158	-1.571	-0.001	-3.141	38794	1.308	62.393	-6.285	-13.135	0.628	0.056	-0.077	0.860	-2.388	1.367	-1.083	-0.792	-0.134	-0.301	1.132	0.354	-1.453	-0.543	0.655	-1.270	
2.64628	0.00960	0.00012	578.725	-31.670	-135.138	-1.571	-0.001	-3.141	39075	-0.265	62.500	-7.171	-12.993	0.566	0.080	-0.051	0.553	-2.206	1.336	-0.981	-0.568	-0.077	-0.295	1.131	0.354	-1.454	-0.543	0.655	-1.263	
2.29160	0.00257	0.00016	578.717	-29.379	-135.172	-1.571	-0.001	-3.141	39277	-0.284	62.180	-7.154	-12.905	0.581	0.094	-0.117	0.575	-2.361	1.221	-1.071	-0.666	-0.133	-0.293	1.131	0.354	-1.454	-0.543	0.655	-1.261	
6.87874	0.01772	0.00010	578.690	-22.500	-135.166	-1.571	-0.001	-3.141	39558	-0.085	62.405	-7.059	-13.003	0.587	0.085	-0.027	0.403	-2.136	1.133	-0.987	-0.563	-0.089	-0.281	1.131	0.354	-1.455	-0.544	0.654	-1.248	
0.76347	0.00445	0.00023	578.748	-21.739	-135.139	-1.571	-0.001	-3.141	39790	-1.233	62.280	-7.532	-12.824	0.569	0.090	-0.094	0.557	-2.149	1.261	-0.963	-0.614	-0.087	-0.278	1.131	0.354	-1.455	-0.544	0.654	-1.245	
4.82028	0.00880	0.00008	578.791	-16.919	-135.134	-1.571	-0.001	-3.141	40059	-0.207	62.450	-7.106	-12.941	0.584	0.089	-0.112	0.767	-2.381	1.076	-1.109	-0.775	-0.163	-0.271	1.131	0.354	-1.455	-0.544	0.654	-1.239	
5.35195	0.01590	0.00040	578.884	-11.568	-135.146	-1.571	-0.001	-3.141	40341	-0.345	62.288	-7.186	-12.916	0.583	0.084	-0.059	0.521	-2.147	1.151	-0.993	-0.591	-0.093	-0.260	1.131	0.354	-1.456	-0.544	0.653	-1.227	
0.23587	0.00011	0.00002	578.889	-11.332	-135.143	-1.571	-0.001	-3.141	40558	-0.399	62.310	-7.171	-12.814	0.568	0.066	-0.103	0.098	-2.238	1.161	-1.028	-0.487	-0.121	-0.260	1.131	0.354	-1.456	-0.544	0.653	-1.227	
6.79409	0.01459	0.00021	578.831	-4.539	-135.176	-1.571	-0.001	-3.141	40837	1.493	62.338	-6.124	-13.181	0.622	0.048	-0.081	1.129	-2.192	1.077	-1.051	-0.901	-0.162	-0.250	1.130	0.354	-1.456	-0.544	0.653	-1.217	
2.87225	0.00996	0.00018	578.800	-1.667	-135.169	-1.571	-0.001	-3.141	41120	-0.868	62.344	-7.366	-12.931	0.571	0.085	-0.057	0.545	-2.160	1.242	-0.993	-0.576	-0.081	-0.243	1.130	0.354	-1.457	-0.544	0.653	-1.210	
2.52502	0.00310	0.00008	578.813	0.858	-135.159	-1.571	-0.001	-3.141	41338	-0.582	62.229	-7.165	-12.877	0.568	0.058	-0.105	0.603	-2.211	1.105	-1.029	-0.694	-0.138	-0.241	1.130	0.354	-1.457	-0.544	0.653	-1.207	
6.92249	0.01721	0.00004	578.787	7.781	-135.161	-1.571	-0.001	-3.141	41619	-0.145	62.106	-6.982	-12.867	0.561	0.020	-0.072	0.752	-2.050	1.162	-0.931	-0.736	-0.134	-0.229	1.130	0.354	-1.456	-0.544	0.653	-1.195	
0.51807	0.00404	0.00004	578.788	8.299	-135.159	-1.571	-0.001	-3.141	41841	-2.395	62.073	-8.003	-12.751	0.525	0.051	-0.102	0.421	-1.969	1.212	-0.884	-0.563	-0.094	-0.226	1.130	0.354	-1.456	-0.544	0.653	-1.192	
3.84949	0.00631	0.00036	578.809	12.148	-135.164	-1.571	-0.001	-3.141	42072	-0.587	62.137	-7.100	-12.932	0.516	-0.010	-0.113	0.654	-1.821	1.063	-0.842	-0.717	-0.163	-0.221	1.131	0.354	-1.456	-0.544	0.653	-1.188	
6.25344	0.01667	0.00018	578.893	18.401	-135.169	-1.571	-0.001	-3.141	42352	-0.479	62.216	-7.176	-13.006	0.482	-0.012	-0.085	0.665	-1.615	0.980	-0.732	-0.638	-0.143	-0.209	1.131	0.354	-1.456	-0.544	0.653	-1.177	
0.05903	0.00133	0.00016	578.917	18.347	-135.171	-1.571	-0.001	-3.141	42559	-0.097	62.186	-6.885	-12.925	0.479	-0.043	-0.104	1.246	-1.746	0.988	-0.816	-0.957	-0.197	-0.209	1.131	0.354	-1.455	-0.544	0.653	-1.176	
5.78619	0.01126	0.00062	578.685	24.129	-135.213	-1.571	-0.001	-3.141	42837	-0.138	62.401	-6.932	-13.166	0.398	-0.077	-0.123	1.324	-1.306	0.869	-0.601	-0.927	-0.211	-0.200	1.131	0.354	-1.455	-0.544	0.654	-1.168	
4.22690	0.01313	0.00039	578.729	28.355	-135.209	-1.571	-0.001	-3.141	43120	-0.372	62.083	-7.111	-13.023	0.427	-0.070	-0.084	0.753	-1.423	1.071	-0.594	-0.627	-0.161	-0.191	1.132	0.354	-1.454	-0.543	0.655	-1.159	
1.16546	0.00049	0.00029	578.737	29.521	-135.190	-1.571	-0.001	-3.141	43337	-0.066	62.092	-6.804	-13.046	0.381	-0.104	-0.109	0.806	-1.341	0.810	-0.599	-0.752	-0.205	-0.191	1.132	0.354	-1.454	-0.543	0.655	-1.159	
7.07529	0.01643	0.00038	578.889	36.594	-135.162	-1.571	-0.001	-3.141	43619	-0.316	62.444	-7.120	-13.114	0.362	-0.079	-0.057	0.609	-1.135	0.836	-0.479	-0.593	-0.192	-0.179	1.132	0.354	-1.452	-0.543	0.655	-1.147	
1.72041	0.00708	0.00045	578.679	38.300	-135.247	-1.571	-0.001	-3.141	43899	-2.559	62.556	-8.083	-13.092	0.338	-0.019	-0.098	0.565	-1.444	1.014	-0.633	-0.547	-0.155	-0.174	1.132	0.354	-1.452	-0.542	0.656	-1.143	
3.81423	0.00611	0.00038	578.746	42.113	-135.207	-1.571	-0.001	-3.141	44134	-0.505	62.245	-7.017	-12.993	0.337	-0.110	-0.107	0.795	-1.310	0.928	-0.555	-0.710	-0.222	-0.169	1.132	0.354	-1.451	-0.542	0.656	-1.138	
6.31041	0.01663	0.00025	578.720	48.423	-135.232	-1.571	-0.000	-3.141	44416	-0.449	62.146	-7.098	-12.991	0.353	-0.095	-0.071	0.790	-1.263	0.973	-0.533	-0.644	-0.181	-0.157	1.133	0.354	-1.449	-0.542	0.657	-1.127	
0.08443	0.00131	0.00030	578.708	48.342	-135.249	-1.571	-0.000	-3.141	44623	-1.359	62.346	-7.503	-13.156	0.346	-0.068	-0.109	1.031	-1.390	0.930	-0.606	-0.800	-0.203	-0.156	1.133	0.354	-1.449	-0.541	0.657	-1.127	
5.04124	0.00910	0.00017	578.672	53.383	-135.233	-1.571	-0.000	-3.141	44867	-0.653	61.893	-7.072	-12.850	0.302	-0.130	-0.122	0.848	-1.289	0.926	-0.563	-0.741	-0.238	-0.149	1.134	0.354	-1.448	-0.541	0.658	-1.121	
5.07122	0.01487	0.00035	578.841	58.451	-135.211	-1.571	-0.000	-3.141	45149	-0.501	62.587	-7.217	-13.208	0.350	-0.071	-0.071	0.809	-1.216	0.775	-0.523	-0.656	-0.185	-0.138	1.135	0.354	-1.446	-0.540	0.659	-1.111	
0.18435	0.00022	0.00014	578.809	58.632	-135.222	-1.571	-0.000	-3.141	45354	-0.675	62.032	-7.095	-12.774	0.294	-0.144	-0.113	0.975	-1.323	0.778	-0.585	-0.808	-0.234	-0.138	1.135	0.354	-1.446	-0.540	0.659	-1.111	
6.78539	0.01400	0.00015	578.806	65.418	-135.240	-1.571	-0.000	-3.141	45637	1.649	62.565	-6.028	-13.484	0.350	-0.129	-0.103	1.429	-1.201	0.645	-0.557	-0.961	-0.262	-0.128	1.135	0.354	-1.443	-0.540	0.660	-1.102	
2.89942	0.00994	0.00021	578.848	68.317	-135.213	-1.571	-0.000	-3.141	45919	-0.987	62.591	-7.378	-13.192	0.342	-0.065	-0.080	0.845	-1.363	1.186	-0.586	-0.675	-0.178	-0.121	1.136	0.354	-1.441	-0.539	0.661	-1.095	
2.50007	0.00292	0.00036	578.914	70.815	-135.145	-1.571	-0.001	-3.141	46137	-0.675	62.666	-7.171	-13.323	0.299	-0.094	-0.099	1.223	-1.282	0.931	-0.566	-0.883	-0.242	-0.118	1.136	0.354	-1.441	-0.539	0.661	-1.094	
6.92197	0.01685	0.00038	578.746	77.735	-135.213	-1.571	-0.001	-3.141	46417	-0.284	62.744	-6.921	-13.427	0.359	-0.068	-0.051	1.284	-1.317	0.815	-0.584	-0.885	-0.230	-0.106	1.137	0.354	-1.438	-0.538	0.663	-1.083	
0.57562	0.00418	0.00036	578.626	78.296	-135.257	-1.571	-0.001	3.141	46665	-1.753	62.043	-7.507	-12.846	0.296	-0.120	-0.119	0.825	-1.449	0.994	-0.638	-0.723	-0.202	-0.103	1.138	0.354	-1.437	-0.538	0.664	-1.080	
4.73613	0.00835	0.00042	578.772	83.030	-135.243	-1.571	-0.000	-3.141	46931	-0.735	62.641	-7.172	-13.158	0.283	-0.141	-0.106	0.760	-1.177	0.937	-0.505	-0.725	-0.241	-0.097	1.138	0.354	-1.435	-0.537	0.665	-1.075	
5.40791	0.01551	0.00037	578.600	88.435	-135.289	-1.571	-0.001	3.141	47213	-0.617	62.819	-7.153	-13.269	0.336	-0.126	-0.060	0.848	-1.274	1.008	-0.534	-0.699	-0.183	-0.085	1.140	0.354	-1.432	-0.536	0.667	-1.066	
0.18122	0.00019	0.00005	578.595	88.612	-135.253	-1.571	-0.001	3.142	47431	-0.726	62.619	-7.169	-13.481	0.288	-0.121	-0.128	1.188	-1.159	0.769	-0.512	-0.875	-0.246	-0.085	1.140	0.354	-1.432	-0.536	0.667	-1.066	
6.83322	0.01413	0.00046	578.802	95.442	-135.216	-1.571	-0.001	-3.141	47713	1.480	62.553	-5.928	-13.207	0.315	-0.205	-0.083	1.526	-1.361	0.945	-0.594	-1.024	-0.267	-0.075	1.141	0.354	-1.428	-0.535	0.669	-1.057	
2.88568	0.00974	0.00014	578.772	98.327	-135.228	-1.571	-0.001	-3.141	47998	-0.844	62.862	-7.248	-13.417	0.327	-0.101	-0.061	0.987	-1.300	1.078	-0.564	-0.751	-0.191	-0.068	1.142	0.354	-1.426	-0.534	0.670	-1.051	
0.05443	0.00008	0.00009	578.759	98.380	-135.223	-1.571	-0.001	-3.141	48214	-0.445	62.795	-7.023	-13.318	0.331	-0.105	-0.039	0.974	-1.432	1.058	-0.617	-0.755	-0.182	-0.068	1.142	0.354	-1.426	-0.534	0.670	-1.051	
0.02604	0.00007	0.00004	578.765	98.355	-135.222	-1.571	-0.001	-3.141	48489	-0.569	62.799	-7.060	-13.339	0.335	-0.105	-0.035	1.066	-1.398	1.046	-0.616	-0.798	-0.176	-0.068	1.142	0.354	-1.426	-0.534	0.670	-1.051	
0.15171	0.00528	0.01823	578.758	98.506	-135.215	-1.553	-0.001	-3.141	48678	-0.878	62.747	-7.174	-13.398	0.327	-0.102	0.263	1.051	-1.070	1.004	-0.439	-0.753	-0.047	-0.067	1.142	0.354	-1.426	-0.534	0.670	-1.057	
2.22662	0.19463	0.23066	578.777	100.733	-135.238	-1.322	-0.001	-3.141	48959	-0.639	62.876	-7.050	-13.471	0.293	-0.151	0.189	1.136	-0.531	0.919	-0.097	-0.755	-0.039	-0.064	1.142	0.354	-1.425	-0.534	0.671	-1.251	
1.28953	0.18490	0.14399	578.727	102.021	-135.229	-1.178	-0.001	3.141	49238	-0.679	62.774	-7.111	-13.365	0.325	-0.099	0.090	1.217	-0.690	0.934	-0.162	-0.771	-0.064	-0.061	1.143	0.354	-1.423	-0.534	0.671	-1.436	
0.25526	0.00291	0.00011	578.603	102.244	-135.239	-1.178	-0.001	3.141	49457	-0.819	63.602	-7.297	-13.552	0.565	0.100	-0.076	1.574	-1.714	1.132	-0.684	-1.130	-0.164	-0.061	1.143	0.354	-1.423	-0.534	0.671	-1.439	
6.78488	0.01597	0.00023	576.081	108.543	-135.213	-1.178	-0.001	-3.142	49740	1.546	63.172	-6.025	-13.875	0.659	0.026	-0.056	1.816	-2.099	1.414	-0.914	-1.336	-0.172	-0.052	1.141	0.354	-1.428	-0.535	0.669	-1.427	
2.91993	0.01106	0.00015	574.980	111.247	-135.210	-1.178	-0.001	-3.141	50019	-1.152	62.876	-7.353	-13.138	0.519	0.038	-0.031	1.549	-1.857	1.229	-0.746	-1.081	-0.122	-0.046	1.140	0.354	-1.431	-0.536	0.667	-1.419	
2.46494	0.00333	0.00021	574.000	113.508	-135.274	-1.178	-0.001	3.142	50237	-1.125	62.767	-7.282	-13.093	0.593	0.113	-0.084	2.000	-2.123	1.071	-0.936	-1.417	-0.190	-0.044	1.140	0.354	-1.432	-0.536	0.667	-1.417	
6.99927	0.01883	0.00042	571.406	120.009	-135.253	-1.178	-0.000	-3.141	50519	-0.477	62.918	-7.032	-13.203	0.570	0.103	-0.041	1.842	-2.071	1.236	-0.933	-1.326	-0.162	-0.033	1.138	0.354	-1.437	-0.538	0.663	-1.403	
0.55181	0.00477	0.00014	571.220	120.526	-135.203	-1.178	-0.001	-3.141	50741	-0.765	62.665	-7.095	-13.121	0.552	0.103	-0.036	1.594	-1.956	1.174	-0.872	-1.143	-0.138	-0.030	1.137	0.354	-1.438	-0.538	0.663	-1.399	
0.05106	0.00009	0.00008	571.208	120.575	-135.205	-1.178	-0.001	-3.141	50956	-0.630	62.785	-7.116	-13.196	0.551	0.097	-0.033	1.538	-1.910	1.101	-0.844	-1.100	-0.129	-0.030	1.137	0.354	-1.438	-0.538	0.663	-1.399	
0.00887	0.00002	0.00001	571.203	120.583	-135.206	-1.178	-0.001	-3.141	51237	-0.604	62.693	-7.085	-13.149	0.538	0.095	0.029	1.607	-1.891	1.095	-0.836	-1.156	-0.137	-0.030	1.137	0.354	-1.438	-0.538	0.663	-1.399	
0.47255	0.01772	0.04132	570.978	120.996	-135.250	-1.137	-0.001	-3.141	51423	-0.656	62.729	-7.036	-13.218	0.607	0.135	0.142	1.933	-1.567	1.141	-0.644	-1.266	0.004	-0.030	1.137	0.354	-1.438	-0.538	0.663	-1.417	
3.15014	0.22681	0.25282	569.788	123.912	-135.210	-0.884	-0.001	-3.142	51705	-0.644	62.884	-7.110	-13.177	0.614	0.108	0.164	1.781	-1.266	1.101	-0.386	-1.206	0.035	-0.025	1.137	0.354	-1.440	-0.539	0.662	-1.644	
1.26757	0.13854	0.09851	569.231	125.051	-135.224	-0.785	-0.001	3.141	51985	-0.846	62.641	-7.155	-13.088	0.585	0.111	0.137	2.004	-1.185	1.131	-0.344	-1.266	0.001	-0.022	1.136	0.354	-1.441	-0.539	0.661	-1.782	
1.28737	0.00078	0.00056	568.262	125.896	-135.281	-0.786	-0.000	3.141	52203	-1.183	62.596	-7.106	-12.909	0.622	0.084	-0.030	2.635	-1.054	1.225	-0.307	-1.668	-0.141	-0.022	1.136	0.354	-1.442	-0.539	0.661	-1.782	
7.11856	0.02450	0.00061	563.286	130.986	-135.231	-0.785	-0.001	3.141	52486	-0.919	62.250	-7.225	-12.783	0.548	0.097	-0.033	2.123	-1.444	0.981	-0.440	-1.444	-0.146	-0.013	1.131	0.354	-1.456	-0.544	0.654	-1.766	
1.55775	0.01000	0.00019	562.196	132.099	-135.225	-0.785	-0.001	3.141	52767	-2.793	62.661	-8.079	-12.138	0.521	0.079	-0.049	2.231	-1.130	1.095	-0.326	-1.404	-0.128	-0.010	1.129	0.354	-1.461	-0.546	0.651	-1.760	
3.96767	0.00950	0.00016	559.424	134.938	-135.226	-0.785	-0.001	3.142	53003	-0.842	62.220	-7.266	-12.527	0.587	0.112	-0.051	2.928	-1.343	1.207	-0.401	-1.854	-0.173	-0.007	1.127	0.354	-1.466	-0.547	0.648	-1.753	
6.11837	0.02432	0.00033	555.153	139.319	-135.245	-0.785	-0.001	-3.141	53281	-0.586	61.674	-7.048	-12.660	0.567	0.041	-0.001	2.271	-1.286	1.369	-0.338	-1.442	-0.118	0.001	1.122	0.354	-1.479	-0.552	0.640	-1.737	
0.06483	0.00168	0.00016	555.178	139.261	-135.230	-0.785	-0.001	-3.141	53466	-1.571	62.327	-7.540	-12.655	0.613	0.138	-0.032	2.241	-1.338	1.083	-0.384	-1.456	-0.129	0.002	1.122	0.354	-1.480	-0.552	0.640	-1.736	
4.82622	0.01277	0.00007	551.808	142.716	-135.204	-0.785	-0.001	-3.141	53701	-1.005	62.087	-7.283	-12.468	0.598	0.106	-0.040	3.080	-1.642	1.301	-0.530	-1.862	-0.173	0.007	1.120	0.354	-1.487	-0.554	0.636	-1.728	
5.19178	0.02200	0.00009	548.131	146.381	-135.217	-0.785	-0.001	-3.141	53985	-0.812	61.581	-7.225	-12.471	0.553	0.037	-0.009	1.964	-1.323	1.103	-0.378	-1.295	-0.108	0.015	1.115	0.354	-1.498	-0.559	0.630	-1.713	
0.06972	0.00031	0.00014	548.106	146.326	-135.251	-0.785	-0.001	-3.141	54186	-0.579	61.381	-7.022	-12.440	0.548	0.027	0.012	2.163	-1.089	1.099	-0.276	-1.384	-0.104	0.014	1.115	0.354	-1.498	-0.559	0.630	-1.713	
0.03938	0.00005	0.00008	548.082	146.300	-135.268	-0.785	-0.001	-3.141	54468	-0.680	61.399	-7.074	-12.442	0.551	0.017	0.018	2.066	-1.126	1.156	-0.285	-1.331	-0.094	0.014	1.115	0.354	-1.498	-0.559	0.630	-1.713	
0.03802	0.00008	0.00007	548.063	146.332	-135.275	-0.785	-0.001	-3.141	54666	-0.419	61.362	-6.990	-12.583	0.520	0.003	0.210	1.811	-1.173	1.179	-0.302	-1.158	-0.017	0.015	1.115	0.354	-1.498	-0.559	0.630	-1.713	
0.38164	0.06994	0.10722	548.210	145.980	-135.293	-0.678	-0.001	3.141	54901	-0.268	61.358	-7.109	-12.447	0.471	-0.019	0.024	1.203	-0.776	1.284	-0.103	-0.625	0.063	0.014	1.116	0.354	-1.497	-0.558	0.630	-1.783	
0.96913	0.26103	0.25014	548.980	145.394	-135.247	-0.428	-0.001	3.141	55183	-0.269	61.404	-7.106	-12.551	0.398	-0.052	0.150	1.107	-0.541	1.195	-0.002	-0.478	0.037	0.013	1.116	0.354	-1.496	-0.558	0.631	-2.044	
0.12768	0.06510	0.03523	549.025	145.282	-135.288	-0.393	-0.001	3.141	55456	-1.749	61.645	-7.768	-11.442	0.438	-0.041	0.000	1.349	-0.554	1.258	0.034	-0.627	-0.044	0.013	1.116	0.354	-1.495	-0.558	0.631	-2.109	
3.86622	0.01158	0.00006	545.445	146.742	-135.286	-0.393	-0.001	3.141	55680	-0.758	61.075	-7.128	-11.985	0.585	0.146	-0.066	3.228	-0.467	1.019	0.177	-1.846	-0.167	0.014	1.114	0.354	-1.503	-0.560	0.627	-2.102	
6.26290	0.02998	0.00030	539.645	149.105	-135.291	-0.393	-0.000	3.141	55961	-0.505	60.796	-6.920	-11.845	0.539	0.055	-0.018	2.555	-0.453	0.982	0.165	-1.506	-0.134	0.019	1.107	0.354	-1.522	-0.568	0.617	-2.086	
0.12365	0.00158	0.00024	539.763	149.069	-135.274	-0.393	-0.001	3.141	56146	-0.686	60.763	-7.014	-11.973	0.605	0.149	-0.068	2.926	-0.330	1.366	0.225	-1.812	-0.169	0.020	1.106	0.354	-1.523	-0.568	0.616	-2.085	
6.33259	0.02256	0.00015	533.943	151.566	-135.252	-0.393	-0.001	3.141	56429	-0.321	60.093	-6.787	-12.081	0.613	0.168	-0.043	3.131	-0.153	0.874	0.285	-1.928	-0.162	0.023	1.101	0.354	-1.538	-0.574	0.608	-2.072	
3.54508	0.02065	0.00023	530.677	152.945	-135.223	-0.393	-0.001	3.141	56711	-0.782	60.066	-7.061	-11.634	0.569	0.086	-0.017	2.569	-0.363	1.055	0.201	-1.538	-0.112	0.027	1.096	0.354	-1.551	-0.579	0.601	-2.060	
2.71918	0.00587	0.00024	528.150	153.947	-135.288	-0.393	-0.001	3.141	56928	-0.793	60.044	-6.991	-11.153	0.582	0.080	-0.042	3.280	-0.358	0.812	0.218	-1.951	-0.171	0.028	1.095	0.354	-1.554	-0.580	0.599	-2.056	
6.90903	0.03036	0.00020	521.786	156.635	-135.265	-0.393	-0.001	3.141	57208	-1.718	59.638	-7.735	-11.301	0.388	0.278	-0.050	3.775	0.417	1.243	0.302	-2.017	-0.200	0.033	1.089	0.354	-1.573	-0.588	0.588	-2.039	
0.40181	0.00673	0.00012	521.422	156.806	-135.272	-0.393	-0.001	3.142	57408	-1.174	59.496	-7.687	-11.462	0.349	0.256	-0.056	3.271	0.755	0.887	0.277	-1.617	-0.176	0.035	1.087	0.354	-1.577	-0.590	0.586	-2.035	
0.01888	0.00002	0.00005	521.422	156.788	-135.276	-0.393	-0.001	3.142	57674	-1.534	59.392	-7.860	-11.338	0.309	0.250	-0.060	3.377	0.584	0.863	0.275	-1.699	-0.179	0.035	1.087	0.354	-1.577	-0.590	0.586	-2.035	
0.03546	0.00004	0.00006	521.410	156.821	-135.277	-0.393	-0.001	3.142	57955	-0.902	59.744	-7.081	-11.604	0.519	0.057	0.154	3.566	0.796	0.818	0.291	-1.678	-0.163	0.035	1.087	0.354	-1.577	-0.590	0.586	-2.035	
0.67710	0.03886	0.06709	522.021	156.532	-135.245	-0.326	-0.001	3.141	58189	-0.262	59.748	-6.973	-11.845	0.725	-0.030	0.083	1.253	-0.166	1.011	0.203	-0.520	0.012	0.034	1.087	0.354	-1.576	-0.590	0.586	-2.073	
2.51764	0.25801	0.25857	524.278	155.419	-135.328	-0.067	0.000	3.141	58473	-0.261	59.648	-7.054	-11.713	0.334	-0.100	0.127	0.934	0.053	1.084	0.240	-0.276	0.007	0.032	1.090	0.354	-1.569	-0.587	0.590	-2.331	
0.78098	0.10702	0.06720	525.023	155.187	-135.313	-0.000	-0.000	3.141	58751	-0.363	59.615	-7.069	-11.698	0.324	-0.088	0.084	1.135	0.088	0.980	0.308	-0.387	-0.027	0.031	1.091	0.354	-1.566	-0.585	0.592	-2.438	
1.56418	0.00197	0.00030	523.460	155.138	-135.319	-0.000	-0.000	3.141	58938	-0.384	59.393	-6.976	-11.197	0.584	0.162	-0.072	2.736	-0.094	1.284	0.391	-1.390	-0.108	0.031	1.091	0.354	-1.568	-0.586	0.592	-2.437	
6.87323	0.03305	0.00042	516.587	155.150	-135.251	0.000	-0.000	3.141	59220	-0.933	58.998	-7.201	-10.950	0.506	0.124	-0.052	2.602	0.340	0.958	0.636	-1.462	-0.142	0.032	1.083	0.354	-1.590	-0.596	0.579	-2.422	
1.54515	0.01251	0.00015	515.043	155.145	-135.297	0.000	-0.000	3.141	59502	-1.105	59.704	-7.382	-10.197	0.570	0.109	-0.079	2.630	0.453	0.987	0.633	-1.384	-0.141	0.032	1.080	0.354	-1.599	-0.600	0.574	-2.416	
3.94951	0.01371	0.00025	511.094	155.227	-135.263	0.000	-0.000	3.141	59736	-0.750	58.900	-6.922	-11.342	0.639	0.168	-0.077	3.159	0.666	0.980	0.828	-1.754	-0.161	0.032	1.077	0.354	-1.608	-0.604	0.569	-2.409	
5.97236	0.03271	0.00014	505.122	155.239	-135.279	-0.000	-0.000	3.141	60016	-0.898	58.650	-7.174	-11.002	0.550	0.108	-0.035	2.657	0.522	0.814	0.762	-1.477	-0.139	0.033	1.069	0.354	-1.630	-0.615	0.556	-2.392	
0.56263	0.00144	0.00043	504.571	155.171	-135.372	-0.000	-0.000	3.141	60253	-0.668	58.289	-6.795	-10.514	0.621	0.159	-0.079	3.009	0.661	0.973	0.873	-1.749	-0.175	0.033	1.069	0.354	-1.631	-0.616	0.556	-2.391	
7.01280	0.03014	0.00029	497.559	155.196	-135.303	0.000	-0.000	3.141	60535	-0.427	56.953	-6.569	-10.449	0.585	0.098	-0.078	3.274	1.138	0.721	1.059	-1.892	-0.185	0.034	1.062	0.354	-1.651	-0.626	0.545	-2.376	
2.37592	0.01785	0.00031	495.183	155.241	-135.292	-0.000	-0.000	3.141	60817	-0.700	57.648	-6.900	-10.360	0.556	0.087	-0.051	2.670	0.712	0.757	0.864	-1.531	-0.152	0.034	1.058	0.354	-1.662	-0.632	0.538	-2.366	
0.02949	0.00007	0.00004	495.167	155.232	-135.315	-0.000	-0.000	3.141	61052	-0.733	57.565	-6.872	-10.317	0.544	0.083	-0.046	2.764	0.856	0.801	0.931	-1.574	-0.158	0.034	1.058	0.354	-1.662	-0.632	0.538	-2.366	
0.00150	0.00001	0.00001	495.166	155.233	-135.315	-0.000	-0.000	3.141	61333	-0.776	57.827	-6.910	-10.333	0.508	0.024	-0.020	2.757	0.861	0.814	0.926	-1.563	-0.153	0.034	1.058	0.354	-1.662	-0.632	0.538	-2.366	
3.86039	0.00554	0.00022	495.291	155.226	-131.456	-0.000	-0.000	3.141	61537	-0.563	57.254	-6.664	-10.454	0.182	-0.204	0.148	2.379	1.207	1.072	1.000	-1.025	-0.128	0.034	1.055	0.354	-1.663	-0.629	0.540	-2.369	
20.89067	0.07483	0.00032	496.343	155.153	-110.592	-0.000	-0.000	3.141	61815	-0.794	55.669	-6.573	-11.393	0.236	-0.108	0.094	1.604	0.817	0.451	0.825	-0.641	-0.114	0.035	1.011	0.354	-1.677	-0.586	0.562	-2.401	
5.19248	0.03260	0.00046	496.405	155.135	-105.400	-0.000	0.000	3.141	62096	-0.746	56.780	-6.631	-11.357	0.304	-0.097	-0.016	1.939	0.891	1.146	0.858	-0.871	-0.134	0.035	0.992	0.354	-1.682	-0.567	0.573	-2.416	
0.14854	0.02099	0.04426	496.505	155.137	-105.290	-0.044	0.000	3.141	62315	-0.548	56.718	-6.679	-11.312	0.148	-0.130	-0.173	2.387	0.783	1.110	0.819	-1.206	-0.254	0.035	0.991	0.354	-1.682	-0.567	0.573	-2.395	
0.00397	0.26641	0.31757	496.505	155.138	-105.294	-0.362	-0.000	3.141	62596	-0.703	56.739	-6.576	-11.340	0.512	-0.059	-0.233	2.415	-0.220	1.078	0.257	-1.389	-0.228	0.035	0.991	0.354	-1.682	-0.567	0.573	-2.128	
0.00626	0.43883	0.43353	496.511	155.135	-105.294	-0.795	-0.000	3.141	62875	-0.726	56.516	-6.556	-11.389	0.151	-0.040	0.121	2.178	-1.244	1.046	-0.414	-1.435	-0.265	0.035	0.991	0.354	-1.682	-0.567	0.573	-1.689	
0.00429	0.43979	0.44294	496.513	155.131	-105.294	-1.238	-0.000	3.141	63155	-0.723	56.622	-6.620	-11.351	0.320	-0.053	-0.138	1.481	-2.071	1.053	-1.016	-1.152	-0.269	0.035	0.991	0.354	-1.682	-0.567	0.573	-1.250	
0.00582	0.34251	0.29921	496.517	155.127	-105.294	-1.538	-0.001	3.141	63435	-0.737	56.636	-6.589	-11.375	0.348	-0.055	-0.097	1.034	-2.268	1.063	-1.207	-0.927	-0.247	0.035	0.991	0.354	-1.682	-0.567	0.573	-0.907	
0.00098	0.06244	0.03347	496.517	155.126	-105.294	-1.571	-0.001	3.141	63716	-0.735	56.624	-6.610	-11.361	0.379	-0.061	-0.120	0.941	-2.208	1.042	-1.192	-0.890	-0.201	0.035	0.991	0.354	-1.682	-0.567	0.573	-0.845	
0.00045	0.03884	0.06843	496.517	155.126	-105.294	-1.639	-0.001	3.141	63949	-0.649	56.793	-6.634	-11.392	0.487	-0.058	-0.087	0.638	-2.407	1.046	-1.377	-0.732	-0.248	0.035	0.991	0.354	-1.682	-0.567	0.573	-0.806	
0.00093	0.31022	0.35127	496.517	155.125	-105.294	-1.991	-0.001	-3.142	64229	-0.734	56.743	-6.598	-11.313	0.505	-0.034	0.037	-0.363	-2.488	1.050	-1.576	-0.147	-0.247	0.035	0.991	0.354	-1.682	-0.567	0.573	-0.496	
0.00038	0.43977	0.44295	496.517	155.125	-105.294	-2.434	-0.000	-3.141	64511	-0.737	56.645	-6.596	-11.398	0.497	-0.070	-0.118	-1.416	-2.131	1.078	-1.544	0.539	-0.259	0.035	0.991	0.354	-1.682	-0.567	0.573	-0.056	
0.00028	0.43981	0.43971	496.518	155.125	-105.294	-2.873	-0.000	-3.141	64791	-0.695	56.632	-6.605	-11.393	0.340	-0.039	-0.102	-2.149	-1.459	1.045	-1.261	1.119	-0.295	0.035	0.991	0.354	-1.682	-0.567	0.573	0.384	
0.00079	0.30723	0.25340	496.518	155.124	-105.294	-3.127	-0.000	-3.141	65076	-0.708	56.644	-6.611	-11.374	0.324	-0.059	-0.060	-2.299	-1.097	1.040	-1.083	1.268	-0.285	0.035	0.991	0.354	-1.682	-0.567	0.573	0.691	
0.00008	0.03503	0.01513	496.518	155.124	-105.293	3.141	-0.000	-3.141	65325	-0.473	52.321	-6.021	-10.872	0.568	0.183	-0.134	-2.151	-1.079	0.800	-1.050	1.268	-0.216	0.035	0.991	0.354	-1.682	-0.567	0.573	0.726	
10.60824	0.02554	0.00024	496.507	155.117	-115.902	3.142	-0.000	-3.141	65591	-0.411	56.276	-6.496	-10.064	0.564	0.045	-0.147	-2.299	-1.050	0.714	-0.978	1.573	-0.180	0.035	1.007	0.354	-1.677	-0.581	0.565	0.736	
18.85259	0.07589	0.00032	496.641	155.167	-134.754	3.141	0.000	-3.141	65872	-0.356	57.643	-6.943	-10.568	0.535	0.143	-0.098	-2.301	-0.479	0.291	-0.742	1.500	-0.150	0.034	1.054	0.354	-1.659	-0.624	0.544	0.767	
0.43352	0.00895	0.00024	496.735	155.152	-135.177	3.141	0.000	-3.141	66101	-0.503	57.559	-6.936	-10.458	0.538	0.090	0.076	-2.086	-0.371	0.699	-0.640	1.314	-0.055	0.034	1.060	0.354	-1.657	-0.629	0.541	0.771	
0.18379	0.07680	0.11850	496.605	155.159	-135.307	-3.023	0.000	-3.141	66370	-0.499	57.605	-6.924	-10.452	0.557	0.084	0.103	-1.775	-0.650	0.735	-0.817	1.035	0.001	0.034	1.060	0.354	-1.657	-0.629	0.541	0.694	
0.04754	0.26047	0.24438	496.646	155.183	-135.300	-2.779	0.000	-3.141	66654	-0.514	57.601	-6.922	-10.498	0.532	0.124	0.090	-1.672	-0.938	0.681	-0.979	0.922	0.008	0.034	1.060	0.354	-1.657	-0.629	0.541	0.434	
0.02148	0.05539	0.02980	496.666	155.191	-135.297	-2.749	0.000	-3.141	66913	0.153	58.445	-6.604	-9.565	0.586	0.073	-0.005	-1.717	-1.137	0.633	-1.069	0.971	-0.025	0.034	1.060	0.354	-1.657	-0.629	0.541	0.378	
3.92985	0.01361	0.00021	493.035	153.688	-135.257	-2.749	0.000	-3.141	67151	0.160	57.397	-6.693	-9.884	0.598	0.117	-0.077	-2.725	-0.776	0.979	-0.877	1.368	-0.072	0.032	1.057	0.354	-1.666	-0.634	0.536	0.384	
6.07378	0.03241	0.00014	487.429	151.350	-135.285	-2.749	0.000	-3.141	67431	-0.165	57.313	-6.853	-10.084	0.506	0.057	-0.048	-2.174	-0.703	1.026	-0.852	1.087	-0.089	0.028	1.050	0.354	-1.688	-0.647	0.523	0.397	
0.09167	0.00144	0.00017	487.492	151.413	-135.306	-2.749	0.000	-3.141	67615	-0.190	56.855	-6.799	-10.232	0.653	0.241	-0.112	-2.429	-0.868	0.993	-0.946	1.281	-0.091	0.028	1.049	0.354	-1.689	-0.648	0.523	0.398	
6.16957	0.02379	0.00009	481.815	148.998	-135.270	-2.749	0.000	-3.141	67898	-0.505	56.636	-7.103	-10.302	0.622	0.239	-0.108	-2.811	-0.753	1.590	-0.890	1.446	-0.098	0.025	1.044	0.354	-1.705	-0.658	0.514	0.408	
3.83943	0.02413	0.00005	478.247	147.581	-135.298	-2.749	0.000	-3.141	68179	-0.273	56.078	-6.799	-9.406	0.526	0.078	-0.058	-2.325	-0.793	1.264	-0.925	1.173	-0.083	0.022	1.039	0.354	-1.721	-0.668	0.505	0.419	
0.03204	0.00012	0.00005	478.224	147.589	-135.319	-2.749	0.000	-3.141	68365	-0.238	56.243	-6.782	-9.547	0.529	0.079	-0.047	-2.222	-0.774	1.145	-0.901	1.130	-0.076	0.022	1.039	0.354	-1.721	-0.668	0.505	0.419	
0.00334	0.00004	0.00000	478.222	147.590	-135.321	-2.749	0.000	-3.141	68649	-0.298	56.215	-6.790	-9.492	0.518	0.082	-0.046	-2.242	-0.784	1.091	-0.916	1.140	-0.078	0.022	1.039	0.354	-1.721	-0.668	0.505	0.419	
0.01985	0.00012	0.00453	478.219	147.596	-135.302	-2.744	0.000	-3.141	68835	0.078	55.941	-6.539	-9.009	0.619	0.126	0.104	-2.443	-0.491	1.318	-0.717	1.212	0.059	0.022	1.039	0.354	-1.721	-0.668	0.505	0.418	
2.42111	0.15045	0.19415	476.019	146.587	-135.252	-2.550	-0.000	-3.141	69114	-0.284	56.081	-6.991	-9.300	0.514	0.165	0.218	-2.187	-0.983	1.486	-0.881	0.975	0.106	0.021	1.037	0.354	-1.727	-0.671	0.502	0.268	
2.48753	0.21786	0.19116	473.736	145.598	-135.280	-2.359	-0.001	-3.141	69394	-0.234	55.679	-6.693	-9.299	0.526	0.122	0.085	-1.963	-1.095	1.239	-0.962	0.831	0.059	0.019	1.035	0.354	-1.735	-0.677	0.497	0.051	
0.04591	0.01486	0.00315	473.775	145.621	-135.274	-2.356	-0.000	-3.141	69618	-0.196	55.691	-6.906	-9.571	0.612	0.231	-0.034	-2.516	-0.865	1.531	-0.886	1.046	0.014	0.019	1.034	0.354	-1.736	-0.678	0.497	0.036	
5.31076	0.01768	0.00033	470.023	141.863	-135.258	-2.356	-0.000	-3.141	69864	-0.165	55.286	-6.736	-9.106	0.607	0.232	-0.055	-1.958	-1.427	1.075	-1.285	0.929	-0.061	0.013	1.031	0.354	-1.748	-0.686	0.490	0.041	
4.56980	0.02438	0.00011	466.809	138.615	-135.250	-2.356	-0.000	-3.141	70144	-0.167	55.094	-6.661	-8.918	0.508	0.134	-0.029	-1.844	-1.703	0.987	-1.362	0.817	-0.077	0.005	1.026	0.354	-1.763	-0.697	0.482	0.048	
1.76629	0.00166	0.00052	465.470	137.469	-135.365	-2.356	-0.001	-3.141	70361	0.019	55.102	-6.630	-8.187	0.536	0.092	-0.085	-2.414	-1.840	1.410	-1.456	1.056	-0.079	0.005	1.026	0.354	-1.765	-0.698	0.481	0.048	
6.84462	0.02994	0.00046	460.726	132.534	-135.311	-2.356	-0.000	-3.141	70641	-0.305	54.386	-6.926	-8.573	0.488	0.129	-0.016	-1.533	-2.161	0.553	-1.645	0.799	-0.084	-0.005	1.020	0.354	-1.783	-0.713	0.470	0.058	
1.21439	0.01097	0.00044	459.858	131.686	-135.295	-2.356	0.000	-3.141	70884	0.044	54.387	-6.414	-8.288	0.592	0.173	-0.077	-2.313	-1.191	1.164	-1.165	1.023	-0.062	-0.008	1.018	0.354	-1.790	-0.718	0.466	0.061	
5.46235	0.01794	0.00022	455.977	127.842	-135.290	-2.356	0.000	-3.141	71158	-0.254	53.654	-6.582	-8.157	0.578	0.215	-0.108	-2.149	-1.936	1.159	-1.480	1.032	-0.076	-0.014	1.015	0.354	-1.801	-0.727	0.460	0.067	
4.61215	0.02571	0.00024	452.745	124.552	-135.275	-2.356	0.000	-3.141	71440	-0.117	53.519	-6.360	-8.148	0.498	0.041	-0.063	-1.637	-1.756	1.192	-1.420	0.696	-0.096	-0.022	1.010	0.354	-1.817	-0.741	0.451	0.075	
0.03130	0.00026	0.00002	452.769	124.561	-135.292	-2.356	0.000	-3.141	71659	-0.245	53.770	-6.557	-8.163	0.494	0.042	-0.006	-1.485	-1.504	1.007	-1.244	0.628	-0.047	-0.022	1.010	0.354	-1.817	-0.741	0.451	0.075	
0.05394	0.00004	0.00011	452.720	124.581	-135.303	-2.356	0.000	-3.141	71938	-0.269	53.761	-6.546	-8.154	0.492	0.042	-0.004	-1.546	-1.537	1.008	-1.270	0.649	-0.046	-0.022	1.010	0.354	-1.817	-0.741	0.451	0.075	
0.00652	0.00037	0.00537	452.714	124.584	-135.305	-2.351	0.000	-3.141	72175	-0.207	53.832	-6.524	-8.355	0.359	0.018	0.105	-1.302	-1.143	1.179	-0.978	0.479	0.049	-0.022	1.010	0.354	-1.817	-0.741	0.451	0.075	
0.08127	0.15623	0.19621	452.771	124.640	-135.289	-2.155	-0.000	-3.141	72456	-0.363	53.736	-6.518	-8.286	0.356	-0.026	0.103	-0.525	-1.406	1.051	-1.035	0.031	-0.012	-0.022	1.010	0.354	-1.816	-0.740	0.452	-0.081	
0.27514	0.22276	0.18827	452.986	124.811	-135.266	-1.966	-0.000	-3.141	72738	-0.419	53.736	-6.549	-8.263	0.282	-0.042	0.046	-0.215	-1.541	0.978	-1.077	-0.148	-0.059	-0.022	1.011	0.354	-1.816	-0.739	0.452	-0.304	
0.02619	0.01428	0.00280	452.976	124.787	-135.270	-1.964	-0.000	-3.141	72954	-0.394	53.848	-6.631	-7.682	0.565	0.114	0.008	-1.180	-1.277	1.184	-1.038	0.343	0.007	-0.022	1.011	0.354	-1.816	-0.739	0.452	-0.319	
6.01136	0.01637	0.00018	450.749	119.203	-135.222	-1.964	-0.000	-3.141	73236	-0.797	53.513	-6.907	-7.912	0.589	0.203	-0.012	-1.530	-2.357	1.167	-1.572	0.510	0.010	-0.031	1.008	0.354	-1.825	-0.747	0.447	-0.318	
3.94751	0.01729	0.00023	449.161	115.589	-135.250	-1.963	-0.000	-3.141	73515	-0.168	53.263	-6.392	-7.871	0.532	0.126	-0.005	-1.149	-2.424	1.189	-1.681	0.295	-0.045	-0.041	1.005	0.354	-1.834	-0.756	0.442	-0.318	
1.62264	0.00124	0.00030	448.477	114.119	-135.316	-1.963	-0.001	-3.141	73717	0.113	53.566	-6.414	-7.853	0.586	0.190	-0.031	-1.609	-2.330	1.161	-1.593	0.525	-0.013	-0.042	1.005	0.354	-1.835	-0.757	0.442	-0.318	
6.91438	0.02391	0.00069	446.001	107.664	-135.220	-1.964	-0.000	-3.141	74001	-0.046	53.060	-6.385	-7.720	0.492	0.150	-0.035	-0.937	-2.541	0.931	-1.773	0.246	-0.052	-0.056	1.002	0.354	-1.847	-0.769	0.434	-0.317	
1.34231	0.00834	0.00009	445.459	106.436	-135.227	-1.963	-0.000	-3.141	74235	1.535	53.700	-5.609	-7.349	0.582	0.078	-0.035	-0.794	-2.340	0.998	-1.645	0.185	-0.070	-0.061	1.000	0.354	-1.852	-0.773	0.432	-0.317	
4.08217	0.00935	0.00022	443.846	102.686	-135.247	-1.963	-0.000	-3.141	74484	0.039	52.910	-6.112	-7.679	0.612	0.177	-0.054	-1.369	-2.496	1.311	-1.700	0.442	-0.027	-0.067	0.999	0.354	-1.856	-0.778	0.430	-0.317	
6.08687	0.02321	0.00009	441.463	97.085	-135.247	-1.964	-0.000	-3.141	74765	-0.202	52.622	-6.360	-7.393	0.545	0.062	-0.038	-0.990	-2.136	0.988	-1.515	0.210	-0.039	-0.080	0.996	0.354	-1.868	-0.790	0.423	-0.316	
0.08875	0.00111	0.00017	441.474	97.173	-135.251	-1.963	-0.000	-3.141	74947	-0.147	52.566	-6.421	-7.360	0.519	0.072	-0.037	-1.009	-2.021	1.000	-1.447	0.220	-0.037	-0.081	0.996	0.354	-1.869	-0.791	0.423	-0.316	
0.07305	0.00010	0.00013	441.545	97.159	-135.241	-1.963	-0.000	-3.141	75189	-0.176	52.520	-6.394	-7.393	0.486	0.083	-0.034	-0.852	-2.066	0.915	-1.479	0.166	-0.058	-0.081	0.996	0.354	-1.869	-0.791	0.423	-0.316	
0.10120	0.00017	0.00015	441.645	97.169	-135.224	-1.964	-0.000	-3.141	75469	-0.231	52.537	-6.425	-7.412	0.453	0.079	0.159	-0.851	-1.994	0.928	-1.433	0.173	-0.042	-0.081	0.996	0.354	-1.869	-0.791	0.423	-0.316	
0.21263	0.04244	0.07219	441.671	97.380	-135.238	-1.891	-0.000	-3.141	75702	-0.395	52.633	-6.348	-7.738	0.279	0.012	0.274	-0.060	-1.633	1.057	-1.065	-0.265	-0.001	-0.081	0.996	0.354	-1.869	-0.790	0.423	-0.358	
0.70769	0.25110	0.25757	441.944	98.033	-135.230	-1.634	-0.001	-3.141	75983	-0.503	52.489	-6.414	-7.471	0.218	-0.042	0.156	0.522	-1.394	1.032	-0.885	-0.613	-0.034	-0.079	0.996	0.354	-1.867	-0.789	0.424	-0.610	
0.17532	0.09942	0.06276	441.968	98.207	-135.228	-1.571	-0.001	3.142	76262	-0.066	52.454	-6.210	-7.492	0.335	-0.051	0.068	0.687	-1.654	0.849	-1.056	-0.707	-0.089	-0.079	0.996	0.354	-1.867	-0.788	0.424	-0.709	
2.37428	0.00367	0.00025	441.936	95.834	-135.310	-1.571	-0.000	3.142	76480	0.060	52.641	-6.365	-7.180	0.562	0.126	0.160	-0.634	-1.949	1.267	-1.159	0.003	0.135	-0.081	0.996	0.354	-1.868	-0.789	0.424	-0.711	
6.96416	0.02024	0.00020	441.930	88.870	-135.258	-1.571	-0.001	3.142	76761	-0.114	52.586	-6.365	-7.352	0.514	0.130	0.125	-0.899	-2.005	1.383	-1.186	0.098	0.114	-0.097	0.995	0.354	-1.872	-0.794	0.421	-0.721	
0.58684	0.00486	0.00028	441.988	88.287	-135.231	-1.571	-0.000	-3.142	77006	0.518	52.955	-6.159	-7.501	0.588	0.153	0.150	-0.717	-1.847	1.282	-1.099	0.063	0.107	-0.101	0.995	0.354	-1.873	-0.795	0.421	-0.724	
5.07369	0.01097	0.00017	441.908	83.214	-135.252	-1.571	-0.001	3.142	77276	0.136	52.545	-6.258	-7.444	0.587	0.158	0.159	-0.303	-2.344	1.091	-1.352	-0.120	0.131	-0.110	0.994	0.354	-1.875	-0.797	0.419	-0.730	
4.93202	0.01798	0.00034	441.959	78.282	-135.241	-1.571	-0.000	-3.141	77558	0.009	52.215	-6.297	-7.235	0.534	0.119	0.130	-0.264	-2.225	0.995	-1.328	-0.219	0.084	-0.124	0.993	0.354	-1.878	-0.801	0.418	-0.740	
0.29028	0.00014	0.00015	441.971	77.992	-135.250	-1.571	-0.000	-3.141	77759	-0.086	52.113	-6.514	-7.124	0.563	0.178	0.163	-0.418	-2.206	1.294	-1.302	-0.089	0.134	-0.124	0.993	0.354	-1.878	-0.801	0.418	-0.740	
6.86883	0.01785	0.00025	441.965	71.123	-135.253	-1.571	-0.000	-3.141	78039	-1.773	52.520	-7.418	-7.475	0.578	0.254	0.144	-0.981	-2.105	1.428	-1.180	0.175	0.154	-0.138	0.992	0.354	-1.881	-0.804	0.416	-0.750	
2.81626	0.01120	0.00025	441.898	68.308	-135.243	-1.570	-0.000	-3.142	78320	-0.078	52.313	-6.457	-7.206	0.522	0.141	0.120	-0.451	-2.070	1.193	-1.247	-0.115	0.086	-0.146	0.992	0.354	-1.883	-0.806	0.415	-0.756	
