arturo-sol653/Programmierung-und-Regelung-fuer-Mensch-Roboterinteraktion/Robot Programming/iiwa-exercises/logs/log_wireloop.log
TRANS_DIST	JS_DIST	ROT_DIST	X	Y	Z	A	B	C	TIME	MT0	MT1	MT2	MT3	MT4	MT5	MT6	FX	FY	FZ	TA	TB	TC	J0	J1	J2	J3	J4	J5	J6	
0.00000	0.00000	0.00000	449.472	69.945	-135.105	-1.571	0.000	-3.141	1	-0.305	52.678	-3.508	-7.853	0.475	0.142	-0.045	0.440	-1.796	0.800	-1.066	-0.472	0.002	-0.016	0.967	0.202	-1.861	-0.486	0.362	-1.012	
0.00387	0.00001	0.00000	449.475	69.946	-135.103	-1.571	0.000	-3.141	228	-0.309	52.703	-3.494	-7.859	0.475	0.131	-0.043	0.462	-1.767	0.860	-1.033	-0.483	0.000	-0.016	0.967	0.202	-1.861	-0.486	0.362	-1.012	
0.00154	0.00000	0.00000	449.476	69.946	-135.102	-1.571	0.000	-3.141	511	-0.302	52.703	-3.477	-7.841	0.467	0.126	-0.041	0.465	-1.777	0.904	-1.034	-0.488	-0.001	-0.016	0.967	0.202	-1.861	-0.486	0.362	-1.012	
0.00119	0.00000	0.00000	449.477	69.946	-135.101	-1.571	0.000	-3.141	762	1.715	52.454	-2.440	-7.658	0.469	0.085	0.022	0.501	-1.774	0.901	-1.031	-0.497	0.000	-0.016	0.967	0.202	-1.861	-0.486	0.362	-1.012	
3.58566	0.00694	0.00013	449.511	66.361	-135.034	-1.571	0.000	-3.141	997	0.043	52.747	-3.557	-7.897	0.533	0.207	0.103	-0.898	-1.537	1.418	-0.820	0.295	0.169	-0.021	0.967	0.202	-1.862	-0.487	0.361	-1.016	
6.44377	0.02044	0.00040	449.300	59.922	-135.128	-1.571	0.000	-3.142	1278	-0.128	52.380	-3.399	-7.735	0.473	0.072	0.082	-0.009	-1.723	1.683	-0.884	-0.220	0.111	-0.036	0.966	0.202	-1.865	-0.490	0.359	-1.029	
0.10631	0.00204	0.00023	449.399	59.956	-135.112	-1.571	0.000	-3.141	1532	-0.181	52.621	-3.497	-7.728	0.463	0.076	0.079	-0.130	-1.562	1.536	-0.788	-0.123	0.107	-0.038	0.966	0.202	-1.865	-0.490	0.359	-1.030	
0.45135	0.00012	0.00023	449.430	59.506	-135.116	-1.571	0.000	-3.141	1736	-0.015	52.629	-3.588	-7.669	0.509	0.193	0.114	-0.484	-1.652	1.533	-0.852	0.142	0.168	-0.038	0.966	0.202	-1.865	-0.490	0.359	-1.030	
7.02901	0.01829	0.00002	449.412	52.477	-135.106	-1.571	0.000	-3.141	2017	-1.153	52.524	-4.099	-7.612	0.468	0.196	0.085	-0.584	-1.660	1.494	-0.856	0.157	0.166	-0.052	0.966	0.202	-1.868	-0.492	0.358	-1.041	
2.53574	0.01120	0.00021	449.395	49.941	-135.108	-1.571	0.000	-3.141	2297	-0.239	52.693	-3.532	-7.698	0.457	0.151	0.066	0.043	-1.790	1.507	-0.961	-0.206	0.088	-0.060	0.965	0.202	-1.869	-0.493	0.357	-1.049	
0.06926	0.00011	0.00013	449.460	49.919	-135.099	-1.571	0.000	-3.141	2546	2.299	52.617	-2.172	-7.664	0.471	0.101	0.097	0.119	-1.784	1.388	-0.960	-0.251	0.083	-0.060	0.965	0.202	-1.869	-0.493	0.357	-1.049	
3.89120	0.00775	0.00039	449.327	46.030	-135.126	-1.571	-0.000	3.142	2783	0.007	52.591	-3.384	-7.495	0.514	0.164	0.120	-0.419	-1.819	1.494	-0.912	0.086	0.163	-0.066	0.965	0.202	-1.870	-0.493	0.356	-1.054	
6.14341	0.02072	0.00027	449.415	39.887	-135.108	-1.571	0.000	-3.141	3064	-0.056	52.740	-3.429	-7.694	0.457	0.149	0.063	0.094	-1.854	1.411	-0.969	-0.237	0.091	-0.081	0.964	0.202	-1.872	-0.495	0.355	-1.067	
0.04862	0.00138	0.00016	449.378	39.918	-135.115	-1.571	0.000	-3.141	3315	-0.218	52.549	-3.504	-7.625	0.449	0.139	0.057	-0.015	-1.783	1.471	-0.920	-0.163	0.087	-0.082	0.964	0.202	-1.872	-0.495	0.355	-1.068	
0.29737	0.00005	0.00010	449.378	39.621	-135.119	-1.571	0.000	-3.142	3564	0.017	52.419	-3.480	-7.676	0.529	0.190	0.113	-0.334	-1.676	1.542	-0.873	0.033	0.155	-0.082	0.964	0.202	-1.872	-0.495	0.355	-1.068	
6.97046	0.01823	0.00029	449.269	32.651	-135.155	-1.571	0.000	3.141	3845	-1.812	52.547	-4.425	-7.616	0.519	0.227	0.096	-0.886	-1.714	1.580	-0.862	0.270	0.173	-0.096	0.964	0.202	-1.873	-0.496	0.354	-1.080	
2.70942	0.01193	0.00042	449.415	29.946	-135.109	-1.571	0.000	-3.141	4127	-0.216	52.656	-3.529	-7.634	0.462	0.136	0.071	0.074	-1.882	1.385	-0.995	-0.215	0.094	-0.105	0.964	0.202	-1.874	-0.497	0.353	-1.088	
0.03308	0.00016	0.00013	449.443	29.929	-135.111	-1.571	0.000	-3.141	4378	2.110	52.535	-2.296	-7.616	0.469	0.104	0.106	0.087	-1.797	1.341	-0.933	-0.224	0.093	-0.105	0.964	0.202	-1.874	-0.497	0.353	-1.088	
3.64679	0.00734	0.00048	449.299	26.285	-135.155	-1.571	0.000	3.141	4612	0.040	52.466	-3.500	-7.510	0.527	0.174	0.102	-0.319	-1.807	1.584	-0.899	0.077	0.169	-0.110	0.964	0.202	-1.874	-0.497	0.353	-1.093	
6.42200	0.02135	0.00016	449.365	19.864	-135.120	-1.571	-0.000	3.142	4896	-0.109	52.504	-3.413	-7.589	0.476	0.177	0.081	-0.115	-1.877	1.485	-0.963	-0.102	0.121	-0.126	0.963	0.202	-1.875	-0.499	0.352	-1.108	
0.02802	0.00187	0.00023	449.367	19.890	-135.112	-1.571	-0.000	-3.142	5149	-0.012	52.453	-3.404	-7.549	0.472	0.158	0.069	-0.094	-1.799	1.449	-0.923	-0.105	0.107	-0.127	0.963	0.202	-1.876	-0.499	0.352	-1.109	
0.23898	0.00004	0.00007	449.369	19.651	-135.114	-1.571	0.000	-3.142	5383	-0.009	52.605	-3.498	-7.673	0.540	0.189	0.090	-0.063	-1.686	1.528	-0.861	-0.033	0.147	-0.127	0.963	0.202	-1.876	-0.499	0.352	-1.109	
6.88357	0.01833	0.00013	449.341	12.768	-135.105	-1.571	-0.000	3.142	5665	-1.551	52.493	-4.330	-7.687	0.511	0.233	0.092	-0.715	-1.669	1.378	-0.813	0.290	0.180	-0.140	0.963	0.202	-1.876	-0.499	0.352	-1.122	
2.83130	0.01250	0.00013	449.293	9.937	-135.139	-1.571	-0.000	3.142	5948	-0.078	52.428	-3.518	-7.548	0.471	0.170	0.070	-0.243	-1.734	1.462	-0.882	-0.010	0.118	-0.149	0.963	0.202	-1.877	-0.499	0.352	-1.130	
0.02623	0.00006	0.00006	449.301	9.912	-135.139	-1.571	0.000	3.142	6199	2.136	52.513	-2.334	-7.638	0.470	0.124	0.099	-0.032	-1.781	1.466	-0.906	-0.113	0.108	-0.149	0.963	0.202	-1.877	-0.499	0.352	-1.130	
3.63726	0.00746	0.00026	449.368	6.275	-135.141	-1.571	0.000	3.142	6436	0.160	52.490	-3.418	-7.588	0.509	0.175	0.111	-0.822	-1.653	1.620	-0.783	0.354	0.173	-0.155	0.963	0.202	-1.877	-0.499	0.352	-1.136	
6.36870	0.02184	0.00004	449.298	-0.093	-135.146	-1.571	0.000	3.142	6716	0.036	52.391	-3.419	-7.405	0.469	0.160	0.072	-0.458	-1.713	1.556	-0.859	0.103	0.145	-0.170	0.963	0.202	-1.877	-0.500	0.351	-1.151	
0.03152	0.00199	0.00030	449.326	-0.085	-135.135	-1.571	0.000	-3.142	6966	0.071	52.465	-3.436	-7.573	0.467	0.169	0.051	-0.343	-1.742	1.526	-0.854	0.075	0.115	-0.172	0.963	0.202	-1.877	-0.500	0.351	-1.152	
0.39530	0.00007	0.00007	449.338	-0.480	-135.128	-1.571	0.000	-3.142	7215	0.126	52.600	-3.537	-7.593	0.388	0.150	0.108	-0.409	-1.624	1.668	-0.741	0.210	0.140	-0.172	0.963	0.202	-1.877	-0.500	0.351	-1.152	
6.96010	0.01944	0.00028	449.480	-7.439	-135.109	-1.571	0.000	-3.141	7496	-1.136	52.387	-4.197	-7.527	0.291	0.091	0.078	-0.743	-1.255	1.879	-0.492	0.404	0.125	-0.185	0.963	0.202	-1.877	-0.500	0.351	-1.166	
2.57948	0.01215	0.00022	449.468	-10.018	-135.106	-1.571	0.000	-3.141	7780	-0.026	52.436	-3.535	-7.554	0.373	0.064	0.059	-0.280	-1.315	1.640	-0.566	0.106	0.079	-0.194	0.963	0.202	-1.877	-0.499	0.351	-1.175	
0.06205	0.00024	0.00016	449.474	-10.080	-135.108	-1.571	0.000	-3.141	8029	2.252	52.462	-2.278	-7.678	0.389	0.032	0.092	-0.102	-1.370	1.610	-0.612	-0.010	0.086	-0.194	0.963	0.202	-1.877	-0.499	0.351	-1.175	
3.79905	0.00822	0.00026	449.388	-13.878	-135.114	-1.571	0.000	-3.142	8264	0.434	52.441	-3.423	-7.579	0.210	0.005	0.099	-0.703	-1.007	1.990	-0.316	0.479	0.098	-0.200	0.963	0.202	-1.876	-0.499	0.352	-1.181	
6.23517	0.02220	0.00010	449.420	-20.113	-135.111	-1.571	0.000	-3.141	8547	0.206	52.560	-3.390	-7.702	0.190	0.003	0.039	-0.211	-1.105	1.733	-0.383	0.164	0.014	-0.215	0.963	0.202	-1.876	-0.499	0.352	-1.197	
0.04890	0.00161	0.00003	449.442	-20.070	-135.118	-1.571	0.000	-3.141	8797	0.140	52.412	-3.458	-7.615	0.197	0.002	0.036	-0.426	-1.044	1.822	-0.351	0.275	0.023	-0.216	0.963	0.202	-1.875	-0.498	0.352	-1.198	
0.24112	0.00006	0.00002	449.425	-20.310	-135.123	-1.571	0.000	-3.141	9032	0.308	52.504	-3.509	-7.628	0.144	-0.032	0.100	-0.797	-0.900	1.873	-0.241	0.529	0.078	-0.216	0.963	0.202	-1.875	-0.498	0.352	-1.198	
6.88161	0.01896	0.00011	449.410	-27.192	-135.121	-1.571	0.000	-3.142	9310	-1.566	52.372	-4.535	-7.597	0.132	-0.032	0.120	-1.423	-0.619	2.150	-0.021	0.904	0.108	-0.229	0.964	0.202	-1.875	-0.498	0.353	-1.212	
2.88987	0.01348	0.00023	449.326	-30.081	-135.148	-1.571	0.000	3.141	9592	0.075	52.446	-3.518	-7.651	0.175	-0.029	0.056	-0.391	-0.899	1.786	-0.265	0.297	0.029	-0.238	0.964	0.202	-1.874	-0.497	0.354	-1.222	
0.02379	0.00006	0.00008	449.334	-30.103	-135.144	-1.571	0.000	3.141	9855	2.600	52.488	-2.187	-7.802	0.188	-0.072	0.121	-0.328	-0.930	1.754	-0.282	0.259	0.035	-0.238	0.964	0.202	-1.874	-0.497	0.354	-1.222	
3.83807	0.00875	0.00032	449.401	-33.940	-135.120	-1.571	0.000	-3.141	10107	0.067	52.439	-3.767	-7.778	0.142	-0.079	0.138	-1.251	-0.564	2.171	0.022	0.851	0.114	-0.244	0.964	0.202	-1.873	-0.497	0.354	-1.228	
6.18050	0.02251	0.00021	449.305	-40.120	-135.142	-1.571	0.000	3.142	10386	0.277	52.587	-3.408	-7.739	0.188	-0.104	0.095	-0.438	-0.704	1.957	-0.102	0.353	0.069	-0.259	0.964	0.202	-1.872	-0.495	0.355	-1.245	
0.06318	0.00153	0.00022	449.298	-40.058	-135.155	-1.571	0.000	3.141	10635	0.259	52.586	-3.456	-7.692	0.190	-0.103	0.090	-0.776	-0.654	1.862	-0.068	0.545	0.083	-0.260	0.965	0.202	-1.872	-0.495	0.355	-1.246	
0.33658	0.00009	0.00003	449.282	-40.394	-135.149	-1.571	0.000	3.141	10826	0.501	52.263	-3.365	-7.513	0.145	-0.128	0.137	-0.922	-0.502	1.980	0.050	0.760	0.115	-0.260	0.965	0.202	-1.872	-0.495	0.355	-1.246	
6.96115	0.02033	0.00027	449.341	-47.355	-135.152	-1.571	0.000	-3.142	11109	-1.164	52.297	-4.325	-7.133	0.129	-0.152	0.127	-1.481	-0.427	2.154	0.102	1.032	0.125	-0.273	0.965	0.202	-1.870	-0.494	0.356	-1.261	
2.70890	0.01280	0.00034	449.246	-50.062	-135.162	-1.571	0.000	3.141	11387	0.237	52.377	-3.483	-7.708	0.176	-0.063	0.067	-0.605	-0.817	1.798	-0.175	0.470	0.054	-0.282	0.965	0.202	-1.869	-0.493	0.357	-1.270	
0.04588	0.00008	0.00007	449.202	-50.074	-135.170	-1.571	0.000	3.141	11641	2.729	52.696	-2.241	-8.026	0.186	-0.109	0.127	-0.480	-0.814	1.817	-0.176	0.432	0.063	-0.282	0.965	0.202	-1.869	-0.493	0.357	-1.270	
3.84874	0.00868	0.00028	449.280	-53.921	-135.136	-1.571	0.000	3.141	11891	0.255	52.562	-3.578	-7.886	0.133	-0.103	0.136	-1.509	-0.439	2.147	0.087	1.065	0.125	-0.288	0.965	0.202	-1.868	-0.492	0.357	-1.277	
6.24398	0.02357	0.00013	449.372	-60.165	-135.118	-1.571	-0.000	3.142	12175	0.311	52.719	-3.424	-7.759	0.167	-0.039	0.091	-0.595	-0.846	1.884	-0.208	0.470	0.064	-0.303	0.966	0.202	-1.865	-0.490	0.359	-1.295	
0.13246	0.00128	0.00029	449.276	-60.084	-135.158	-1.571	0.000	3.141	12424	0.233	52.575	-3.492	-7.769	0.176	-0.040	0.083	-0.716	-0.868	1.799	-0.212	0.545	0.069	-0.303	0.966	0.202	-1.865	-0.490	0.359	-1.295	
0.28548	0.00005	0.00021	449.260	-60.369	-135.154	-1.571	0.000	3.141	12658	0.413	52.644	-3.542	-7.913	0.136	-0.107	0.137	-0.769	-0.539	1.804	0.011	0.727	0.094	-0.303	0.966	0.202	-1.865	-0.490	0.359	-1.295	
6.92534	0.02038	0.00048	449.471	-67.291	-135.138	-1.571	0.000	-3.141	12939	-1.090	52.449	-4.442	-7.204	0.120	-0.144	0.108	-1.898	-0.374	2.162	0.106	1.232	0.123	-0.316	0.967	0.202	-1.863	-0.488	0.361	-1.311	
2.73662	0.01343	0.00037	449.303	-70.022	-135.166	-1.571	0.000	3.142	13224	0.311	52.559	-3.472	-7.774	0.172	-0.110	0.076	-0.841	-0.752	1.833	-0.094	0.654	0.078	-0.325	0.968	0.202	-1.861	-0.486	0.362	-1.321	
0.04006	0.00008	0.00008	449.293	-70.061	-135.166	-1.571	0.000	3.141	13472	2.574	52.957	-2.360	-8.363	0.198	-0.114	0.120	-0.691	-0.734	1.886	-0.106	0.556	0.074	-0.325	0.968	0.202	-1.861	-0.486	0.362	-1.321	
3.60062	0.00820	0.00043	449.481	-73.656	-135.110	-1.571	0.000	-3.141	13707	2.494	50.210	0.587	-4.183	0.427	-2.361	-0.172	-4.670	-5.456	1.683	-0.298	0.702	-0.055	-0.330	0.968	0.202	-1.860	-0.485	0.362	-1.327	
1.35763	0.00870	0.00014	449.622	-75.006	-135.085	-1.571	0.000	-3.141	13985	3.228	49.920	0.624	-4.120	0.352	-2.345	-0.099	-5.141	-8.296	0.243	-0.489	0.870	-0.078	-0.335	0.968	0.202	-1.858	-0.484	0.363	-1.334	
0.79920	0.00114	0.00108	449.124	-74.393	-135.205	-1.571	-0.000	3.141	14218	-0.504	52.876	-3.529	-7.927	0.408	0.046	-0.056	0.032	-2.903	1.041	-0.738	-0.648	-0.081	-0.335	0.968	0.202	-1.859	-0.484	0.363	-1.333	
3.80210	0.01221	0.00056	449.185	-70.591	-135.172	-1.571	0.000	3.141	14501	-0.013	52.720	-3.398	-7.813	0.413	0.047	-0.040	0.830	-1.572	1.192	-0.741	-0.695	-0.012	-0.327	0.968	0.202	-1.861	-0.486	0.362	-1.324	
0.47871	0.00370	0.00020	449.279	-70.124	-135.126	-1.571	-0.000	3.141	14753	-0.186	52.777	-3.445	-7.827	0.406	0.047	-0.035	0.808	-1.499	1.203	-0.701	-0.635	-0.010	-0.325	0.967	0.202	-1.861	-0.486	0.362	-1.321	
0.00764	0.00008	0.00219	449.285	-70.120	-135.126	-1.569	0.000	3.141	14986	-0.099	52.658	-3.389	-7.764	0.352	0.026	0.112	0.334	-1.440	1.346	-0.617	-0.331	0.101	-0.325	0.967	0.202	-1.861	-0.486	0.362	-1.321	
0.02040	0.07558	0.09998	449.291	-70.100	-135.126	-1.469	0.000	3.141	15268	-0.153	52.730	-3.479	-7.804	0.406	0.026	0.047	0.487	-1.310	1.417	-0.514	-0.363	0.115	-0.325	0.967	0.202	-1.861	-0.486	0.362	-1.396	
0.00244	0.20224	0.20607	449.294	-70.099	-135.127	-1.263	0.000	3.142	15548	-0.195	52.752	-3.446	-7.761	0.317	0.020	0.170	0.807	-1.108	1.404	-0.394	-0.487	0.099	-0.325	0.967	0.202	-1.861	-0.486	0.362	-1.599	
0.00593	0.11108	0.08411	449.299	-70.097	-135.126	-1.178	0.000	3.142	15829	-0.160	52.769	-3.451	-7.826	0.340	0.040	0.151	0.774	-1.114	1.422	-0.398	-0.436	0.105	-0.325	0.967	0.202	-1.861	-0.486	0.362	-1.710	
0.00051	0.00399	0.00036	449.300	-70.097	-135.126	-1.178	0.000	3.142	16093	-0.129	52.766	-3.413	-7.812	0.336	0.042	0.143	0.824	-1.088	1.381	-0.396	-0.464	0.093	-0.325	0.967	0.202	-1.861	-0.486	0.362	-1.714	
0.38739	0.00004	0.00034	449.555	-70.388	-135.124	-1.178	0.000	-3.141	16325	0.504	53.191	-3.381	-7.938	0.153	-0.164	0.188	-0.243	-0.959	1.740	-0.280	0.512	0.122	-0.325	0.967	0.202	-1.861	-0.486	0.362	-1.714	
6.83651	0.02584	0.00032	452.077	-76.742	-135.169	-1.178	0.000	3.142	16606	-1.245	52.747	-4.655	-7.608	0.103	-0.110	0.162	-1.314	-0.835	1.757	-0.286	1.151	0.154	-0.336	0.970	0.202	-1.851	-0.479	0.368	-1.733	
2.72889	0.01676	0.00025	453.054	-79.290	-135.171	-1.178	0.000	3.141	16887	0.370	52.994	-3.505	-8.122	0.177	-0.083	0.113	-0.750	-1.015	1.429	-0.359	0.733	0.110	-0.342	0.972	0.202	-1.845	-0.474	0.372	-1.745	
0.07273	0.00010	0.00012	453.106	-79.341	-135.160	-1.178	0.000	3.141	17135	2.494	53.054	-2.458	-8.925	0.148	-0.104	0.177	-0.561	-0.901	1.396	-0.315	0.625	0.104	-0.342	0.972	0.202	-1.845	-0.474	0.372	-1.745	
3.89349	0.01104	0.00023	454.672	-82.905	-135.120	-1.178	0.000	-3.142	17369	0.590	53.273	-3.477	-8.538	0.125	-0.108	0.178	-1.125	-0.832	1.737	-0.278	1.123	0.162	-0.347	0.973	0.202	-1.841	-0.471	0.375	-1.753	
6.22499	0.02895	0.00012	457.040	-88.662	-135.135	-1.178	0.000	3.142	17650	0.489	52.919	-3.369	-8.334	0.194	-0.059	0.134	-0.583	-1.050	1.726	-0.413	0.677	0.129	-0.358	0.976	0.202	-1.830	-0.462	0.382	-1.774	
0.11445	0.00195	0.00021	456.959	-88.584	-135.154	-1.178	0.000	3.141	17900	0.352	53.575	-3.548	-8.383	0.192	-0.047	0.128	-0.838	-1.169	1.504	-0.472	0.804	0.135	-0.359	0.977	0.202	-1.829	-0.462	0.383	-1.776	
0.52736	0.00009	0.00048	457.250	-89.022	-135.125	-1.178	0.000	-3.141	18150	0.891	53.622	-3.445	-8.639	0.162	-0.145	0.175	-1.332	-1.011	1.721	-0.376	1.271	0.185	-0.359	0.977	0.202	-1.829	-0.462	0.383	-1.776	
7.05156	0.02639	0.00019	460.001	-95.515	-135.105	-1.178	0.000	-3.141	18432	4.193	52.600	1.740	-7.073	0.848	-1.567	-0.118	-5.390	-6.379	1.275	-0.580	1.212	0.030	-0.370	0.980	0.202	-1.818	-0.455	0.390	-1.795	
1.63874	0.01133	0.00010	460.619	-97.033	-135.124	-1.178	0.000	-3.141	18714	5.763	52.283	3.158	-6.581	0.924	-1.996	-0.094	-5.827	-10.072	0.715	-1.099	1.048	-0.020	-0.374	0.981	0.202	-1.813	-0.452	0.393	-1.803	
0.26287	0.00023	0.00051	460.510	-96.794	-135.128	-1.179	0.000	-3.141	18952	0.715	53.283	-2.125	-7.958	0.566	-0.389	-0.068	-1.438	-7.246	1.325	-0.864	-0.406	-0.085	-0.374	0.981	0.202	-1.813	-0.451	0.392	-1.803	
3.61072	0.01354	0.00058	458.754	-93.640	-135.226	-1.178	0.000	3.141	19235	-0.082	53.720	-3.448	-8.333	0.435	0.092	0.009	1.291	-1.337	1.216	-0.525	-0.871	-0.009	-0.369	0.980	0.202	-1.819	-0.455	0.389	-1.793	
1.17398	0.00720	0.00066	458.673	-92.473	-135.129	-1.178	-0.000	-3.141	19484	-0.155	53.856	-3.489	-8.476	0.409	0.099	0.008	1.238	-1.175	1.381	-0.437	-0.751	0.012	-0.366	0.979	0.202	-1.822	-0.457	0.387	-1.788	
0.04723	0.00011	0.00007	458.717	-92.456	-135.120	-1.178	-0.000	-3.141	19724	-0.152	53.665	-3.502	-8.445	0.395	0.101	0.158	0.981	-1.250	1.349	-0.475	-0.576	0.068	-0.366	0.979	0.202	-1.822	-0.457	0.387	-1.788	
0.02214	0.03540	0.05500	458.738	-92.452	-135.115	-1.123	-0.000	-3.141	19968	-0.207	53.769	-3.478	-8.434	0.473	0.101	0.131	0.906	-1.138	1.399	-0.409	-0.476	0.142	-0.366	0.979	0.202	-1.822	-0.457	0.387	-1.824	
0.02778	0.17701	0.19381	458.735	-92.424	-135.116	-0.929	-0.000	-3.141	20249	-0.156	53.817	-3.484	-8.423	0.372	0.106	0.134	1.165	-0.893	1.415	-0.268	-0.591	0.125	-0.366	0.979	0.202	-1.822	-0.457	0.387	-2.001	
0.01401	0.15876	0.13345	458.723	-92.417	-135.120	-0.796	-0.000	-3.141	20532	-0.109	53.794	-3.508	-8.468	0.417	0.081	0.118	1.252	-0.793	1.404	-0.207	-0.616	0.124	-0.366	0.979	0.202	-1.822	-0.457	0.387	-2.159	
0.00780	0.02123	0.01037	458.717	-92.412	-135.121	-0.785	-0.000	-3.141	20782	-0.079	53.766	-3.463	-8.449	0.423	0.078	0.110	1.292	-0.812	1.369	-0.207	-0.636	0.100	-0.366	0.979	0.202	-1.822	-0.457	0.387	-2.181	
0.00239	0.00002	0.00000	458.716	-92.414	-135.121	-0.785	-0.000	-3.141	20999	0.263	54.313	-3.424	-8.394	0.207	-0.108	0.163	0.814	-0.679	1.314	-0.202	-0.338	0.124	-0.366	0.979	0.202	-1.822	-0.457	0.387	-2.181	
4.94774	0.01796	0.00003	462.206	-95.922	-135.118	-0.785	-0.000	-3.141	21264	0.772	54.184	-3.371	-8.525	0.137	-0.246	0.157	-0.613	-1.495	2.110	-0.748	0.844	0.155	-0.370	0.982	0.202	-1.812	-0.451	0.393	-2.192	
4.93107	0.02891	0.00044	465.608	-99.491	-135.178	-0.785	0.000	3.141	21543	0.479	54.353	-3.473	-8.918	0.193	-0.066	0.108	-0.114	-1.466	1.984	-0.724	0.502	0.113	-0.376	0.986	0.202	-1.796	-0.441	0.404	-2.210	
0.04993	0.00023	0.00011	465.574	-99.461	-135.158	-0.785	0.000	3.141	21777	0.512	54.368	-3.584	-8.852	0.192	-0.065	0.106	-0.193	-1.621	1.903	-0.809	0.557	0.124	-0.376	0.986	0.202	-1.797	-0.441	0.404	-2.210	
1.48959	0.00131	0.00036	466.698	-100.433	-135.064	-0.785	-0.000	-3.142	22012	0.870	54.454	-3.479	-9.470	0.175	-0.139	0.142	-0.922	-1.828	1.689	-0.936	1.007	0.162	-0.376	0.986	0.202	-1.796	-0.441	0.404	-2.211	
7.03054	0.03173	0.00021	471.652	-105.421	-135.131	-0.785	-0.000	-3.142	22290	0.776	54.509	-3.457	-9.368	0.219	-0.049	0.109	-0.463	-1.411	1.715	-0.776	0.806	0.155	-0.382	0.992	0.202	-1.778	-0.430	0.415	-2.230	
1.46631	0.01260	0.00035	472.649	-106.496	-135.162	-0.785	0.000	3.141	22529	0.540	54.788	-3.642	-9.225	0.222	-0.041	0.088	-0.221	-1.653	1.561	-0.850	0.535	0.129	-0.385	0.994	0.202	-1.771	-0.426	0.420	-2.237	
0.03436	0.00008	0.00006	472.635	-106.527	-135.162	-0.785	0.000	3.141	22784	0.741	54.689	-3.566	-8.960	0.153	-0.237	0.141	-0.554	-1.378	1.991	-0.775	0.740	0.149	-0.385	0.994	0.202	-1.771	-0.426	0.420	-2.237	
5.02126	0.01684	0.00032	476.241	-110.021	-135.166	-0.785	0.000	-3.141	23039	2.096	55.622	-1.982	-10.211	0.450	-0.282	0.071	-0.650	-1.415	1.961	-0.801	0.892	0.158	-0.388	0.997	0.202	-1.761	-0.420	0.426	-2.247	
4.74706	0.02725	0.00042	479.705	-113.267	-135.175	-0.785	0.000	-3.142	23320	4.591	55.868	1.203	-9.615	0.966	-0.945	-0.065	-2.985	-7.943	1.917	-1.296	0.690	0.011	-0.393	1.002	0.203	-1.744	-0.412	0.437	-2.263	
0.19445	0.00060	0.00029	479.629	-113.441	-135.131	-0.785	0.000	3.142	23504	4.564	55.345	1.524	-9.229	1.027	-1.024	-0.101	-3.851	-9.177	1.398	-1.306	0.692	-0.009	-0.394	1.002	0.202	-1.745	-0.412	0.437	-2.263	
1.52607	0.00468	0.00046	478.314	-112.668	-135.187	-0.786	-0.000	3.141	23743	-0.222	55.148	-3.509	-9.068	0.481	0.106	-0.079	1.383	-2.011	1.169	-0.293	-0.841	-0.031	-0.393	1.001	0.202	-1.748	-0.413	0.435	-2.260	
3.41962	0.01560	0.00025	476.089	-110.072	-135.133	-0.786	0.000	3.141	24024	0.062	55.382	-3.492	-9.441	0.462	0.048	-0.023	1.531	-0.534	1.289	-0.055	-0.758	0.005	-0.390	0.998	0.202	-1.757	-0.418	0.429	-2.251	
0.16454	0.00202	0.00049	476.207	-109.957	-135.132	-0.785	-0.000	-3.141	24259	-0.101	55.375	-3.629	-9.441	0.460	0.048	-0.035	1.509	-0.633	1.467	-0.090	-0.711	0.012	-0.389	0.998	0.202	-1.758	-0.419	0.428	-2.250	
0.00122	0.00137	0.00673	476.206	-109.956	-135.133	-0.778	-0.000	-3.141	24495	-0.070	55.355	-3.628	-9.433	0.490	0.079	0.139	1.271	-0.879	1.465	-0.244	-0.537	0.127	-0.389	0.998	0.202	-1.758	-0.419	0.428	-2.251	
0.00132	0.09620	0.12141	476.205	-109.957	-135.133	-0.657	-0.000	-3.141	24774	-0.065	55.327	-3.616	-9.397	0.390	0.068	0.072	1.433	-0.622	1.438	-0.127	-0.592	0.119	-0.389	0.998	0.202	-1.758	-0.419	0.428	-2.348	
0.01003	0.20298	0.19791	476.206	-109.947	-135.133	-0.459	-0.000	-3.142	25052	-0.075	55.386	-3.588	-9.406	0.444	0.072	0.165	1.507	-0.307	1.420	0.019	-0.604	0.117	-0.389	0.998	0.202	-1.758	-0.419	0.428	-2.551	
0.00879	0.09113	0.06629	476.207	-109.938	-135.134	-0.393	-0.000	-3.142	25336	-0.091	55.332	-3.608	-9.409	0.442	0.076	0.111	1.540	-0.275	1.427	0.032	-0.607	0.110	-0.389	0.998	0.202	-1.758	-0.419	0.428	-2.642	
0.00055	0.00065	0.00004	476.207	-109.939	-135.134	-0.393	-0.000	-3.142	25600	-0.109	55.378	-3.617	-9.452	0.440	0.076	0.110	1.550	-0.301	1.445	0.021	-0.609	0.105	-0.389	0.998	0.202	-1.758	-0.419	0.428	-2.642	
1.57309	0.00183	0.00001	477.661	-110.539	-135.135	-0.393	-0.000	-3.142	25834	0.058	55.750	-3.579	-9.753	0.162	-0.172	0.138	0.466	-0.386	1.607	-0.170	0.095	0.073	-0.389	0.998	0.202	-1.757	-0.419	0.429	-2.643	
7.04000	0.03214	0.00034	484.147	-113.277	-135.118	-0.392	-0.000	3.142	26116	0.503	55.909	-3.545	-9.928	0.239	-0.106	0.071	0.717	-0.598	1.893	-0.364	0.073	0.079	-0.390	1.005	0.202	-1.735	-0.408	0.443	-2.658	
1.22998	0.01185	0.00037	485.280	-113.753	-135.170	-0.393	0.000	3.142	26353	0.319	55.964	-3.623	-9.943	0.234	-0.083	0.072	0.736	-0.816	1.552	-0.421	-0.015	0.059	-0.390	1.008	0.202	-1.727	-0.404	0.448	-2.663	
0.06449	0.00009	0.00009	485.339	-113.773	-135.153	-0.393	0.000	3.142	26612	0.493	56.323	-3.501	-9.696	0.165	-0.206	0.146	0.336	-0.691	1.499	-0.411	0.185	0.082	-0.390	1.008	0.202	-1.727	-0.404	0.448	-2.663	
5.24415	0.01801	0.00023	490.190	-115.764	-135.164	-0.393	-0.000	-3.142	26879	0.321	56.387	-3.713	-10.044	0.178	-0.198	0.135	0.287	-0.950	1.241	-0.579	0.290	0.103	-0.391	1.012	0.202	-1.714	-0.398	0.455	-2.670	
4.78167	0.02717	0.00022	494.603	-117.606	-135.172	-0.393	0.000	3.142	27162	0.359	56.617	-3.689	-10.325	0.232	-0.080	0.104	0.670	-1.117	1.555	-0.644	0.065	0.099	-0.391	1.018	0.202	-1.696	-0.389	0.468	-2.681	
0.06117	0.00022	0.00007	494.621	-117.613	-135.114	-0.393	0.000	3.142	27442	0.324	56.645	-3.706	-10.453	0.228	-0.086	0.108	0.689	-1.004	1.581	-0.591	0.044	0.095	-0.391	1.018	0.202	-1.696	-0.389	0.468	-2.681	
2.61387	0.00590	0.00019	497.044	-118.594	-135.152	-0.393	-0.000	-3.142	27675	1.167	58.264	-1.371	-14.119	0.754	0.206	0.076	0.245	-1.194	1.741	-0.738	0.307	0.118	-0.391	1.020	0.202	-1.692	-0.388	0.470	-2.684	
4.80175	0.02849	0.00088	501.621	-120.042	-135.256	-0.392	0.000	-3.141	27954	6.128	59.803	2.858	-12.946	1.566	-0.295	-0.103	-2.929	-9.923	2.746	-0.968	0.123	-0.063	-0.391	1.027	0.203	-1.671	-0.379	0.483	-2.695	
0.42326	0.00080	0.00066	501.597	-120.448	-135.138	-0.393	0.000	3.142	28174	7.345	61.900	3.934	-14.006	1.687	-0.356	-0.084	-4.719	-13.054	3.033	-1.229	0.374	-0.127	-0.391	1.026	0.202	-1.672	-0.380	0.483	-2.695	
6.94563	0.01465	0.00035	501.696	-120.608	-128.195	-0.393	-0.000	3.142	28454	6.491	59.113	3.363	-13.699	1.602	-0.309	-0.034	-3.810	-12.519	4.750	-1.036	0.220	-0.109	-0.391	1.016	0.202	-1.676	-0.373	0.488	-2.700	
19.29654	0.06228	0.00179	501.776	-121.803	-108.936	-0.394	-0.001	3.141	28736	0.165	54.905	-3.418	-11.101	0.217	-0.199	0.129	0.926	-1.083	2.057	-0.513	-0.013	0.078	-0.392	0.973	0.201	-1.691	-0.346	0.512	-2.721	
3.99325	0.02088	0.00192	501.612	-120.592	-105.134	-0.393	0.000	3.141	29020	0.237	56.122	-3.507	-11.449	0.258	-0.079	0.079	1.128	-0.554	1.878	-0.282	-0.185	0.047	-0.391	0.959	0.202	-1.696	-0.337	0.521	-2.728	
0.03697	0.00026	0.00568	501.624	-120.557	-105.133	-0.398	0.000	3.141	29206	0.164	56.398	-3.550	-11.643	0.272	-0.087	-0.051	1.354	-0.328	1.769	-0.130	-0.306	-0.064	-0.391	0.959	0.202	-1.696	-0.337	0.521	-2.727	
0.01581	0.16004	0.21276	501.629	-120.542	-105.131	-0.611	0.000	3.142	29487	0.098	56.308	-3.574	-11.554	0.188	-0.070	-0.008	1.107	-0.792	1.752	-0.265	-0.235	-0.062	-0.391	0.959	0.202	-1.696	-0.337	0.521	-2.567	
0.00934	0.41514	0.43233	501.631	-120.533	-105.131	-1.044	0.000	3.142	29768	0.122	56.411	-3.502	-11.646	0.349	-0.095	-0.250	0.638	-1.222	1.722	-0.381	-0.093	-0.054	-0.391	0.959	0.202	-1.696	-0.337	0.521	-2.152	
0.00373	0.44140	0.43980	501.632	-120.530	-105.130	-1.483	-0.000	3.142	30050	0.129	56.269	-3.583	-11.621	0.319	-0.042	-0.217	0.088	-1.355	1.726	-0.411	0.042	-0.065	-0.391	0.959	0.202	-1.696	-0.337	0.521	-1.711	
0.00258	0.41109	0.38344	501.632	-120.527	-105.131	-1.867	-0.000	3.142	30330	0.112	56.433	-3.575	-11.627	0.336	-0.038	-0.105	-0.258	-1.381	1.713	-0.434	0.130	-0.093	-0.391	0.959	0.202	-1.696	-0.337	0.521	-1.300	
0.00060	0.14296	0.09676	501.632	-120.527	-105.131	-1.964	-0.000	3.142	30614	0.176	56.366	-3.549	-11.595	0.289	-0.070	-0.067	-0.456	-1.306	1.720	-0.388	0.230	-0.024	-0.391	0.959	0.202	-1.696	-0.337	0.521	-1.157	
0.00030	0.00007	0.00059	501.632	-120.526	-105.131	-1.964	-0.000	3.142	30835	0.137	56.346	-3.559	-11.617	0.348	-0.040	-0.139	-0.319	-1.353	1.688	-0.441	0.123	-0.095	-0.391	0.959	0.202	-1.696	-0.337	0.521	-1.157	
0.00084	0.12051	0.16752	501.632	-120.525	-105.131	-2.132	-0.000	3.142	31129	0.104	56.323	-3.542	-11.643	0.335	-0.046	-0.350	-0.715	-1.216	1.693	-0.403	0.244	-0.078	-0.391	0.959	0.202	-1.696	-0.337	0.521	-1.036	
0.00285	0.39050	0.41669	501.635	-120.525	-105.130	-2.548	-0.000	3.142	31408	0.136	56.333	-3.582	-11.616	0.060	-0.107	0.207	-1.132	-0.797	1.729	-0.276	0.381	-0.083	-0.391	0.959	0.202	-1.696	-0.337	0.521	-0.646	
0.00314	0.44456	0.44299	501.633	-120.522	-105.131	-2.991	-0.000	-3.142	31690	0.168	56.385	-3.585	-11.661	0.331	-0.049	-0.275	-1.429	-0.242	1.647	-0.138	0.468	-0.085	-0.391	0.959	0.202	-1.696	-0.337	0.521	-0.201	
0.00292	0.42457	0.40736	501.635	-120.521	-105.131	2.885	-0.000	-3.142	31971	0.051	56.535	-3.676	-11.764	0.301	-0.010	-0.177	-1.231	0.245	1.822	-0.003	0.419	-0.092	-0.391	0.959	0.202	-1.696	-0.337	0.521	0.223	
0.00462	0.18901	0.13580	501.640	-120.521	-105.129	2.749	-0.000	-3.142	32255	0.285	56.323	-3.538	-11.624	0.290	-0.063	-0.066	-1.290	0.492	1.585	0.127	0.412	-0.038	-0.391	0.959	0.202	-1.696	-0.337	0.521	0.412	
0.00105	0.00177	0.00000	501.639	-120.521	-105.129	2.749	-0.000	-3.142	32491	0.235	54.114	-3.450	-11.195	0.416	0.006	-0.114	-1.334	0.350	1.798	0.041	0.448	-0.052	-0.391	0.959	0.202	-1.696	-0.337	0.521	0.414	
4.54460	0.00837	0.00028	501.660	-120.500	-109.674	2.749	0.000	3.142	32710	-0.125	58.465	-4.059	-12.302	0.551	0.285	-0.151	-1.382	0.615	0.302	0.139	0.694	-0.018	-0.391	0.964	0.202	-1.695	-0.341	0.517	0.417	
18.91779	0.05776	0.00016	501.631	-120.514	-128.591	2.749	-0.000	-3.142	32988	0.320	58.948	-3.830	-11.438	0.557	0.244	-0.143	-1.486	0.608	0.875	0.149	0.805	-0.004	-0.391	1.005	0.202	-1.680	-0.366	0.494	0.436	
6.55085	0.03174	0.00030	501.753	-120.554	-135.141	2.749	0.000	3.142	33270	0.391	57.209	-3.850	-10.760	0.493	0.112	-0.075	-1.291	0.727	1.341	0.218	0.630	0.042	-0.391	1.026	0.202	-1.671	-0.380	0.482	0.447	
0.06344	0.00008	0.00008	501.693	-120.535	-135.148	2.749	0.000	-3.142	33452	0.210	57.213	-3.924	-10.587	0.548	0.202	-0.127	-1.404	0.797	1.240	0.211	0.757	0.022	-0.391	1.026	0.202	-1.671	-0.380	0.482	0.447	
3.29711	0.01218	0.00019	498.661	-119.240	-135.119	2.749	0.000	3.142	33738	0.292	57.153	-3.625	-11.361	0.587	0.227	-0.132	-2.044	0.651	1.540	0.110	1.002	0.014	-0.391	1.023	0.202	-1.680	-0.383	0.477	0.451	
1.67542	0.01026	0.00006	497.108	-118.610	-135.127	2.749	0.000	3.142	34023	0.184	56.984	-3.707	-10.436	0.503	0.110	-0.066	-1.664	0.633	1.500	0.132	0.759	0.040	-0.391	1.021	0.202	-1.687	-0.386	0.472	0.456	
0.01338	0.00009	0.00006	497.104	-118.614	-135.139	2.749	0.000	3.142	34240	0.155	57.022	-3.754	-10.454	0.469	0.106	0.108	-1.620	0.706	1.507	0.178	0.730	0.077	-0.391	1.021	0.202	-1.687	-0.386	0.472	0.455	
0.00152	0.03490	0.05400	497.105	-118.615	-135.140	2.803	0.000	3.142	34510	0.130	57.058	-3.749	-10.522	0.488	0.080	0.097	-1.439	0.759	1.623	0.270	0.597	0.170	-0.391	1.021	0.202	-1.687	-0.386	0.472	0.421	
0.00652	0.17553	0.19230	497.106	-118.608	-135.140	2.995	0.000	-3.142	34790	0.203	57.075	-3.760	-10.478	0.517	0.089	0.146	-1.601	0.427	1.580	0.130	0.654	0.190	-0.391	1.021	0.202	-1.687	-0.386	0.472	0.245	
0.00941	0.15857	0.13475	497.108	-118.599	-135.141	3.130	0.000	-3.142	35069	0.215	57.132	-3.705	-10.475	0.514	0.071	0.081	-1.675	0.333	1.654	0.079	0.686	0.185	-0.391	1.021	0.202	-1.687	-0.386	0.472	0.086	
0.00229	0.02351	0.01151	497.109	-118.597	-135.141	-3.142	0.000	-3.142	35326	0.181	57.104	-3.737	-10.461	0.512	0.071	0.079	-1.649	0.177	1.538	-0.000	0.685	0.145	-0.391	1.021	0.202	-1.687	-0.386	0.472	0.063	
0.00095	0.00000	0.00000	497.109	-118.596	-135.141	-3.142	0.000	-3.142	35584	-0.285	57.534	-3.757	-10.124	0.198	-0.209	0.126	-1.183	0.006	1.353	-0.057	0.441	0.134	-0.391	1.021	0.202	-1.687	-0.386	0.472	0.063	
4.95271	0.01648	0.00028	502.062	-118.616	-135.163	-3.142	-0.000	-3.141	35850	-0.296	57.277	-3.728	-10.629	0.196	-0.213	0.106	-0.661	-0.325	1.316	-0.240	0.119	0.011	-0.388	1.025	0.202	-1.675	-0.381	0.480	0.059	
4.95172	0.02602	0.00006	507.013	-118.579	-135.159	3.142	-0.000	-3.142	36130	-0.199	57.867	-3.855	-11.052	0.288	-0.046	0.074	-0.791	-0.307	1.023	-0.237	0.258	0.024	-0.384	1.032	0.202	-1.656	-0.374	0.492	0.054	
0.04152	0.00020	0.00007	507.034	-118.590	-135.125	-3.142	-0.000	-3.141	36378	-0.181	57.479	-3.767	-10.925	0.281	-0.051	0.072	-0.892	-0.427	1.144	-0.308	0.296	0.015	-0.384	1.032	0.202	-1.656	-0.374	0.492	0.053	
1.66924	0.00176	0.00027	508.700	-118.685	-135.075	-3.141	0.000	-3.141	36580	-0.484	57.930	-3.884	-11.182	0.209	-0.172	0.128	-0.173	-0.249	1.177	-0.201	-0.049	0.025	-0.384	1.032	0.202	-1.654	-0.373	0.493	0.053	
7.10888	0.02995	0.00014	515.808	-118.613	-135.098	3.142	0.000	-3.141	36859	-0.054	58.570	-3.647	-11.250	0.258	-0.088	0.076	-0.832	-0.480	1.581	-0.286	0.177	0.009	-0.379	1.040	0.202	-1.632	-0.365	0.507	0.047	
1.23363	0.01073	0.00014	517.042	-118.621	-135.110	3.142	0.000	-3.142	37141	-0.055	58.461	-3.715	-11.378	0.271	-0.081	0.075	-1.003	-0.524	1.402	-0.337	0.298	0.003	-0.377	1.043	0.202	-1.624	-0.362	0.512	0.045	
0.02164	0.00003	0.00004	517.054	-118.603	-135.108	-3.142	0.000	-3.141	37376	-0.005	58.422	-3.781	-11.359	0.215	-0.176	0.120	-0.689	-0.392	1.381	-0.284	0.123	0.012	-0.377	1.043	0.202	-1.624	-0.362	0.512	0.045	
5.99801	0.02076	0.00016	523.051	-118.556	-135.172	3.141	-0.000	-3.142	37656	0.126	59.210	-3.669	-11.595	0.205	-0.179	0.128	-0.412	-0.451	1.281	-0.265	0.033	0.017	-0.374	1.048	0.202	-1.608	-0.357	0.522	0.041	
3.93795	0.02195	0.00014	526.989	-118.589	-135.158	-3.142	-0.000	-3.142	37938	-0.176	58.951	-3.847	-11.683	0.249	-0.080	0.096	-0.933	-0.331	1.330	-0.221	0.275	0.021	-0.371	1.054	0.202	-1.591	-0.352	0.532	0.037	
0.01646	0.00009	0.00002	526.995	-118.595	-135.144	-3.142	-0.000	-3.142	38190	-0.097	59.334	-3.787	-12.035	0.276	-0.091	0.098	-0.925	-0.328	1.264	-0.214	0.276	0.022	-0.371	1.054	0.202	-1.591	-0.352	0.532	0.037	
2.91039	0.00657	0.00026	529.905	-118.626	-135.115	-3.142	0.000	-3.141	38438	-0.208	59.511	-3.754	-11.995	0.209	-0.149	0.109	-0.626	-0.377	1.393	-0.221	0.090	0.008	-0.370	1.056	0.202	-1.586	-0.350	0.535	0.036	
6.83845	0.03030	0.00005	536.744	-118.622	-135.125	-3.142	0.000	-3.141	38718	-0.161	59.842	-3.811	-12.269	0.317	-0.114	0.076	-0.600	-0.408	1.040	-0.245	0.118	0.018	-0.365	1.065	0.202	-1.563	-0.343	0.550	0.030	
0.30071	0.00614	0.00013	537.044	-118.608	-135.137	-3.142	0.000	-3.142	38998	-0.108	60.114	-3.862	-12.338	0.313	-0.102	0.073	-1.014	-0.369	1.258	-0.245	0.278	0.023	-0.364	1.066	0.202	-1.558	-0.342	0.552	0.029	
0.32859	0.00010	0.00027	537.367	-118.643	-135.090	-3.142	0.000	-3.141	39185	-0.488	60.268	-3.982	-12.417	0.253	-0.229	0.121	-0.468	-0.290	1.165	-0.161	0.025	0.029	-0.364	1.066	0.202	-1.558	-0.342	0.552	0.029	
6.87409	0.02610	0.00037	544.241	-118.607	-135.148	3.142	-0.000	-3.141	39467	0.019	60.970	-3.651	-11.981	0.229	-0.264	0.107	-0.144	-0.208	0.917	-0.139	-0.086	0.024	-0.360	1.074	0.202	-1.538	-0.337	0.565	0.025	
2.73882	0.01743	0.00008	546.980	-118.579	-135.155	3.142	-0.000	-3.142	39745	-0.173	60.968	-3.889	-12.740	0.291	-0.056	0.089	-1.073	-0.401	1.211	-0.239	0.343	0.021	-0.357	1.079	0.202	-1.524	-0.333	0.573	0.022	
0.02870	0.00006	0.00004	546.991	-118.596	-135.134	3.142	-0.000	-3.142	39998	-0.923	60.196	-4.160	-13.504	0.256	-0.082	0.113	-1.052	-0.380	1.280	-0.231	0.327	0.022	-0.357	1.079	0.202	-1.524	-0.333	0.573	0.022	
4.02536	0.01220	0.00017	551.016	-118.584	-135.143	-3.142	0.000	-3.142	40235	-0.255	61.138	-3.934	-13.150	0.238	-0.139	0.115	-0.603	-0.447	1.258	-0.241	0.069	0.019	-0.356	1.082	0.202	-1.514	-0.331	0.579	0.020	
6.04343	0.03043	0.00008	557.060	-118.587	-135.169	-3.142	0.000	-3.142	40516	-0.222	61.654	-3.952	-13.176	0.284	-0.098	0.059	-0.765	-0.612	1.103	-0.313	0.191	-0.010	-0.351	1.091	0.202	-1.491	-0.325	0.593	0.016	
0.10020	0.00147	0.00013	556.961	-118.571	-135.159	-3.142	-0.000	-3.142	40798	-0.142	61.537	-3.874	-13.149	0.292	-0.095	0.058	-0.854	-0.495	1.049	-0.283	0.231	-0.006	-0.351	1.092	0.202	-1.490	-0.325	0.594	0.015	
1.48702	0.00118	0.00042	558.438	-118.680	-135.024	3.142	0.000	-3.141	41031	-0.039	62.146	-3.760	-13.258	0.247	-0.207	0.116	-0.406	-0.444	1.251	-0.245	-0.006	0.012	-0.351	1.092	0.202	-1.489	-0.325	0.594	0.015	
7.02194	0.03125	0.00016	565.460	-118.621	-135.091	3.141	0.000	-3.141	41311	-0.223	62.143	-3.907	-13.429	0.262	-0.118	0.103	-0.809	-0.386	1.518	-0.217	0.140	0.017	-0.346	1.101	0.202	-1.464	-0.319	0.609	0.011	
1.50501	0.01250	0.00033	566.963	-118.593	-135.146	-3.142	-0.000	-3.142	41554	-0.399	62.432	-3.977	-13.590	0.315	-0.092	0.080	-1.074	-0.481	1.365	-0.260	0.305	0.015	-0.344	1.105	0.202	-1.454	-0.317	0.615	0.009	
0.05179	0.00010	0.00009	566.967	-118.541	-135.140	-3.141	-0.000	-3.142	41773	-0.397	62.231	-3.937	-13.567	0.243	-0.183	0.123	-0.466	-0.763	0.899	-0.382	0.047	0.013	-0.344	1.105	0.202	-1.454	-0.317	0.615	0.009	
5.30921	0.01839	0.00026	572.276	-118.584	-135.169	3.142	0.000	-3.142	42048	-0.321	62.657	-3.860	-13.766	0.265	-0.219	0.115	-0.250	-0.562	1.174	-0.266	-0.059	0.023	-0.342	1.111	0.202	-1.440	-0.314	0.623	0.007	
4.72211	0.02742	0.00021	576.998	-118.574	-135.178	-3.142	-0.000	-3.142	42327	-0.208	63.162	-3.897	-14.020	0.327	-0.126	0.093	-0.930	-0.467	1.247	-0.256	0.213	0.028	-0.338	1.119	0.202	-1.418	-0.309	0.636	0.003	
0.06471	0.00024	0.00004	577.012	-118.590	-135.117	-3.142	-0.000	-3.142	42607	-0.234	63.110	-3.948	-14.134	0.332	-0.110	0.090	-0.965	-0.469	1.242	-0.261	0.246	0.027	-0.338	1.119	0.202	-1.418	-0.309	0.636	0.003	
2.62540	0.00622	0.00011	579.638	-118.600	-135.141	-3.142	0.000	-3.142	42842	-0.063	63.392	-3.884	-14.172	0.285	-0.253	0.134	-0.431	-0.436	1.107	-0.221	-0.007	0.037	-0.337	1.121	0.202	-1.413	-0.309	0.639	0.002	
6.96217	0.03314	0.00018	586.600	-118.585	-135.176	-3.142	-0.000	-3.142	43126	-0.336	64.056	-3.990	-14.597	0.350	-0.043	0.093	-0.434	-0.470	0.900	-0.249	0.013	0.030	-0.332	1.131	0.202	-1.387	-0.304	0.654	-0.002	
0.42546	0.00708	0.00009	587.017	-118.588	-135.094	-3.142	-0.000	-3.142	43362	-0.215	63.943	-3.896	-14.439	0.353	-0.060	0.082	-1.053	-0.486	0.983	-0.273	0.334	0.023	-0.332	1.133	0.202	-1.381	-0.303	0.658	-0.003	
0.07111	0.00006	0.00009	586.984	-118.576	-135.155	-3.142	-0.000	-3.142	43591	-0.086	64.576	-3.896	-14.566	0.301	-0.207	0.110	-0.867	-0.564	1.258	-0.298	0.122	0.019	-0.332	1.133	0.202	-1.381	-0.303	0.658	-0.003	
6.30172	0.02372	0.00025	593.285	-118.613	-135.170	-3.142	0.000	-3.141	43875	0.485	64.243	-3.506	-13.867	0.263	-0.353	0.119	-0.056	-0.381	1.585	-0.228	-0.127	0.020	-0.328	1.141	0.202	-1.362	-0.299	0.668	-0.005	
3.67179	0.02380	0.00030	596.957	-118.573	-135.169	-3.142	-0.000	-3.142	44158	-0.207	64.507	-3.897	-14.820	0.344	-0.049	0.069	-0.937	-0.455	0.831	-0.240	0.304	0.013	-0.325	1.148	0.202	-1.343	-0.296	0.679	-0.008	
0.04035	0.00010	0.00006	596.977	-118.545	-135.148	-3.142	-0.000	-3.142	44390	-0.333	64.839	-4.002	-15.444	0.364	-0.065	0.082	-0.932	-0.479	0.886	-0.260	0.309	0.014	-0.325	1.148	0.202	-1.343	-0.296	0.679	-0.008	
2.93662	0.00791	0.00031	599.913	-118.590	-135.112	3.141	0.000	-3.142	44641	-0.167	65.427	-3.829	-15.358	0.301	-0.188	0.123	-0.392	-0.738	1.007	-0.343	-0.038	0.025	-0.324	1.151	0.202	-1.337	-0.295	0.683	-0.009	
6.83738	0.03431	0.00005	606.750	-118.586	-135.152	3.141	0.000	-3.142	44921	-0.434	65.554	-4.060	-15.364	0.332	-0.123	0.104	-0.679	-0.602	1.164	-0.282	0.120	0.031	-0.319	1.162	0.202	-1.310	-0.291	0.699	-0.013	
0.31007	0.00636	0.00017	607.056	-118.602	-135.102	-3.142	0.000	-3.142	45154	-0.227	65.543	-3.886	-15.325	0.349	-0.120	0.081	-0.978	-0.516	1.267	-0.258	0.245	0.023	-0.319	1.164	0.202	-1.305	-0.290	0.702	-0.014	
0.01683	0.00001	0.00003	607.049	-118.592	-135.114	-3.142	0.000	-3.142	45392	0.027	65.255	-3.623	-15.062	0.285	-0.228	0.124	-0.654	-0.746	1.192	-0.350	0.065	0.022	-0.319	1.164	0.202	-1.305	-0.290	0.702	-0.014	
6.06800	0.02419	0.00004	613.116	-118.572	-135.206	-3.142	-0.000	-3.142	45669	-0.007	65.486	-3.649	-14.843	0.274	-0.239	0.122	-0.463	-0.492	1.084	-0.220	0.013	0.035	-0.315	1.172	0.202	-1.285	-0.287	0.713	-0.016	
3.86512	0.02560	0.00012	616.982	-118.569	-135.180	-3.142	-0.000	-3.142	45950	-0.336	66.319	-3.898	-15.628	0.359	-0.108	0.098	-1.142	-0.571	1.202	-0.290	0.312	0.031	-0.312	1.180	0.202	-1.265	-0.284	0.725	-0.019	
0.07360	0.00019	0.00009	617.018	-118.585	-135.118	-3.142	-0.000	-3.142	46199	-0.250	65.953	-3.835	-15.900	0.364	-0.111	0.097	-1.018	-0.555	1.273	-0.276	0.279	0.033	-0.312	1.180	0.202	-1.265	-0.284	0.725	-0.019	
2.85355	0.00782	0.00018	619.871	-118.602	-135.177	-3.141	0.000	-3.142	46435	-0.071	66.673	-3.585	-15.856	0.342	-0.254	0.112	0.014	-0.856	0.578	-0.352	-0.150	0.033	-0.311	1.183	0.202	-1.258	-0.284	0.728	-0.020	
6.81293	0.03604	0.00020	626.684	-118.564	-135.162	-3.142	-0.000	-3.142	46717	-0.290	67.390	-3.831	-16.380	0.394	-0.117	0.077	-0.720	-0.746	1.014	-0.344	0.141	0.016	-0.307	1.194	0.202	-1.229	-0.280	0.744	-0.023	
0.32894	0.00723	0.00011	627.006	-118.608	-135.110	3.142	-0.000	-3.142	46950	-0.222	67.026	-3.803	-16.132	0.385	-0.117	0.075	-0.981	-0.642	1.181	-0.316	0.253	0.021	-0.306	1.197	0.202	-1.224	-0.279	0.748	-0.024	
0.57259	0.00015	0.00024	627.576	-118.609	-135.162	-3.142	0.000	-3.141	47138	-0.508	66.786	-3.755	-15.950	0.317	-0.240	0.111	-0.292	-0.620	1.504	-0.310	-0.042	0.019	-0.306	1.197	0.202	-1.224	-0.279	0.748	-0.024	
6.96287	0.03326	0.00015	634.539	-118.567	-135.162	-3.141	0.000	-3.142	47417	-0.206	68.459	-3.737	-16.518	0.362	-0.182	0.113	-0.277	-0.533	0.693	-0.240	-0.065	0.037	-0.301	1.208	0.202	-1.197	-0.275	0.763	-0.027	
2.53043	0.01935	0.00009	637.068	-118.601	-135.079	-3.142	0.000	-3.142	47700	-0.331	67.952	-3.789	-16.629	0.414	-0.111	0.078	-1.018	-0.619	1.152	-0.315	0.268	0.028	-0.299	1.214	0.202	-1.181	-0.274	0.772	-0.029	
0.07240	0.00005	0.00009	637.026	-118.590	-135.137	-3.142	-0.000	-3.142	47951	-0.532	68.206	-3.811	-16.594	0.340	-0.347	0.128	-0.060	-0.614	0.577	-0.285	-0.107	0.045	-0.299	1.214	0.202	-1.181	-0.274	0.772	-0.029	
5.14631	0.02186	0.00024	642.171	-118.593	-135.240	-3.141	-0.000	-3.141	48227	-0.370	67.747	-3.738	-16.671	0.327	-0.262	0.122	-0.354	-0.551	0.686	-0.234	-0.081	0.038	-0.296	1.222	0.202	-1.164	-0.272	0.782	-0.031	
4.83064	0.03244	0.00028	647.002	-118.556	-135.207	3.142	-0.000	3.142	48508	-0.316	68.519	-3.732	-16.981	0.407	-0.151	0.097	-0.883	-0.558	1.081	-0.258	0.182	0.047	-0.292	1.233	0.202	-1.137	-0.269	0.796	-0.034	
0.08528	0.00025	0.00010	647.036	-118.581	-135.133	-3.142	0.000	-3.142	48790	-0.333	68.601	-3.772	-17.248	0.409	-0.136	0.089	-0.792	-0.504	1.046	-0.240	0.169	0.039	-0.292	1.233	0.202	-1.138	-0.269	0.796	-0.034	
2.67041	0.00767	0.00016	649.706	-118.619	-135.167	3.142	0.000	-3.141	49023	-0.155	69.389	-3.559	-17.210	0.387	-0.269	0.130	-0.158	-0.601	1.470	-0.275	-0.115	0.041	-0.292	1.235	0.202	-1.131	-0.268	0.799	-0.035	
6.93763	0.03967	0.00005	656.644	-118.613	-135.151	3.142	0.000	-3.141	49303	-0.219	69.726	-3.691	-17.507	0.453	-0.168	0.066	-0.683	-0.582	1.025	-0.276	0.079	0.036	-0.287	1.249	0.202	-1.099	-0.265	0.817	-0.039	
0.41844	0.00886	0.00013	657.057	-118.586	-135.087	-3.142	0.000	-3.142	49538	-0.317	69.435	-3.676	-17.522	0.460	-0.154	0.064	-0.896	-0.628	1.081	-0.306	0.182	0.032	-0.286	1.252	0.202	-1.092	-0.264	0.821	-0.039	
0.04829	0.00001	0.00006	657.028	-118.579	-135.125	-3.142	0.000	-3.142	49724	-0.745	69.332	-3.834	-17.644	0.346	-0.278	0.135	0.012	-0.592	0.936	-0.290	-0.149	0.047	-0.286	1.252	0.202	-1.092	-0.264	0.821	-0.039	
5.07265	0.02213	0.00017	662.100	-118.589	-135.203	-3.141	0.000	-3.141	49959	0.847	70.870	-2.428	-19.259	0.811	0.434	0.019	-0.126	-0.646	0.675	-0.254	-0.140	0.041	-0.283	1.260	0.202	-1.074	-0.262	0.831	-0.041	
4.77822	0.03633	0.00066	666.864	-118.275	-135.409	-3.141	-0.000	3.142	50239	4.085	73.401	-0.192	-21.451	1.687	0.941	-0.072	2.428	5.368	1.714	0.132	0.041	-0.091	-0.278	1.273	0.202	-1.045	-0.259	0.847	-0.045	
0.32115	0.00044	0.00037	666.939	-118.507	-135.200	-3.142	-0.000	3.142	50474	4.662	73.607	0.387	-21.587	1.907	0.991	-0.090	2.610	7.169	2.500	0.249	0.096	-0.120	-0.279	1.272	0.202	-1.045	-0.259	0.847	-0.045	
0.99138	0.00333	0.00062	665.993	-118.762	-135.047	3.141	0.000	-3.141	50707	0.013	70.123	-3.590	-17.482	0.636	0.056	-0.059	-2.012	1.435	1.310	-0.092	0.985	-0.014	-0.279	1.271	0.202	-1.048	-0.259	0.846	-0.045	
3.59669	0.02074	0.00040	662.406	-119.012	-135.102	3.141	0.000	-3.141	50988	0.442	69.406	-3.441	-17.477	0.651	0.040	-0.070	-2.994	0.004	1.722	-0.150	1.117	-0.005	-0.282	1.264	0.202	-1.064	-0.261	0.836	-0.043	
0.47956	0.00561	0.00040	662.109	-118.640	-135.159	-3.142	0.000	-3.141	51273	0.210	70.238	-3.649	-17.805	0.644	0.046	-0.062	-2.422	-0.092	1.301	-0.122	0.913	0.011	-0.282	1.262	0.202	-1.069	-0.262	0.834	-0.042	
0.01758	0.00186	0.00829	662.110	-118.622	-135.163	-3.133	0.000	-3.141	51511	0.356	70.062	-3.553	-17.687	0.625	0.048	0.120	-2.360	0.209	1.339	0.077	0.895	0.195	-0.282	1.262	0.202	-1.069	-0.262	0.834	-0.044	
0.00112	0.10092	0.12722	662.109	-118.621	-135.163	-3.006	0.000	-3.141	51793	0.282	70.035	-3.619	-17.656	0.659	0.051	0.245	-2.405	-0.244	1.384	-0.087	0.918	0.190	-0.282	1.262	0.202	-1.069	-0.262	0.834	-0.145	
0.01270	0.20557	0.19765	662.108	-118.609	-135.167	-2.808	0.000	-3.141	52077	0.301	70.056	-3.585	-17.687	0.651	0.052	0.146	-2.260	-0.630	1.384	-0.226	0.873	0.199	-0.282	1.262	0.202	-1.069	-0.262	0.834	-0.350	
0.01087	0.08414	0.05953	662.114	-118.609	-135.158	-2.749	0.000	-3.141	52362	0.258	70.046	-3.607	-17.670	0.638	0.048	0.107	-2.277	-0.729	1.415	-0.272	0.877	0.165	-0.282	1.262	0.202	-1.069	-0.262	0.834	-0.434	
0.00112	0.00024	0.00005	662.115	-118.608	-135.158	-2.749	0.000	-3.141	52614	0.293	70.048	-3.598	-17.674	0.644	0.046	0.101	-2.264	-0.777	1.403	-0.294	0.869	0.153	-0.282	1.262	0.202	-1.069	-0.262	0.834	-0.435	
1.41084	0.00184	0.00018	663.447	-118.165	-135.013	-2.749	0.000	-3.141	52848	-0.454	70.023	-3.631	-18.093	0.394	-0.192	-0.007	-0.105	-1.053	1.009	-0.402	-0.145	-0.034	-0.282	1.262	0.202	-1.067	-0.262	0.835	-0.435	
6.98825	0.03557	0.00019	669.876	-115.429	-135.132	-2.749	0.000	-3.141	53128	-0.532	70.597	-3.622	-18.162	0.446	-0.164	-0.019	-0.656	-0.793	1.423	-0.301	0.015	-0.072	-0.274	1.275	0.202	-1.039	-0.259	0.850	-0.434	
1.53599	0.01446	0.00025	671.274	-114.793	-135.112	-2.749	-0.000	-3.141	53374	-0.484	70.604	-3.617	-18.086	0.442	-0.161	-0.012	-0.753	-1.107	1.384	-0.433	0.111	-0.047	-0.270	1.280	0.202	-1.028	-0.258	0.857	-0.433	
0.06822	0.00011	0.00009	671.297	-114.732	-135.091	-2.749	0.000	-3.141	53583	-1.372	70.538	-3.897	-18.037	0.329	-0.260	-0.021	-0.234	-0.884	1.032	-0.369	-0.093	-0.052	-0.270	1.280	0.202	-1.028	-0.258	0.857	-0.433	
4.77542	0.01903	0.00023	675.721	-112.934	-135.120	-2.749	0.000	-3.141	53844	-0.421	71.284	-3.350	-18.445	0.395	-0.285	-0.052	0.606	-0.814	0.768	-0.310	-0.420	-0.104	-0.266	1.286	0.202	-1.012	-0.256	0.865	-0.433	
5.17510	0.03472	0.00038	680.460	-110.857	-135.220	-2.749	-0.000	-3.142	54126	-0.469	71.198	-3.441	-18.419	0.462	-0.165	-0.040	-0.679	-1.022	1.312	-0.387	0.048	-0.070	-0.259	1.298	0.202	-0.985	-0.254	0.880	-0.432	
0.15202	0.00025	0.00014	680.509	-110.931	-135.097	-2.749	-0.000	-3.141	54376	-0.288	71.150	-3.412	-18.441	0.459	-0.159	-0.036	-0.691	-1.130	1.309	-0.457	0.086	-0.069	-0.259	1.298	0.202	-0.985	-0.254	0.880	-0.432	
1.33941	0.00189	0.00019	681.791	-110.549	-135.158	-2.749	-0.000	-3.141	54624	-0.304	71.708	-3.342	-18.925	0.413	-0.186	-0.053	0.429	-0.545	0.736	-0.191	-0.363	-0.097	-0.258	1.299	0.202	-0.983	-0.254	0.881	-0.432	
7.12894	0.03873	0.00016	688.346	-107.745	-135.165	-2.749	0.000	-3.141	54905	-0.313	72.666	-3.146	-19.742	0.649	0.137	-0.065	0.297	0.215	1.370	-0.152	-0.129	-0.103	-0.250	1.313	0.202	-0.952	-0.251	0.898	-0.432	
1.52763	0.01576	0.00019	689.740	-107.122	-135.120	-2.749	-0.000	-3.142	55152	0.366	72.994	-2.905	-20.176	0.688	0.390	-0.076	0.735	0.942	1.601	-0.275	-0.008	-0.099	-0.247	1.318	0.202	-0.939	-0.250	0.905	-0.432	
0.04178	0.00016	0.00005	689.764	-107.117	-135.087	-2.749	-0.000	-3.141	55412	-0.026	74.153	-2.464	-22.575	0.984	1.641	-0.183	2.470	1.410	0.621	-0.235	-0.447	-0.123	-0.247	1.318	0.202	-0.939	-0.250	0.905	-0.432	
2.13915	0.01330	0.00115	691.419	-105.852	-135.572	-2.748	-0.001	3.141	55675	3.695	77.234	-0.755	-24.755	1.672	2.307	-0.226	3.944	7.339	2.207	0.008	-0.087	-0.225	-0.244	1.323	0.202	-0.929	-0.249	0.911	-0.432	
0.80181	0.00058	0.00127	691.901	-106.310	-135.123	-2.749	0.000	-3.141	55877	2.873	74.625	-1.420	-21.633	1.335	1.102	-0.122	1.554	5.695	2.537	-0.143	0.362	-0.180	-0.244	1.323	0.202	-0.929	-0.249	0.910	-0.432	
2.65436	0.01237	0.00124	689.813	-107.889	-134.685	-2.749	0.001	-3.140	56158	0.781	72.054	-3.217	-18.981	0.700	0.161	0.010	-2.881	-1.290	1.505	-0.573	1.080	0.036	-0.247	1.318	0.202	-0.938	-0.250	0.905	-0.432	
2.51350	0.01673	0.00100	687.356	-108.268	-135.055	-2.749	0.000	-3.141	56439	0.426	71.846	-3.284	-18.663	0.656	0.050	0.012	-2.431	-0.950	1.481	-0.391	0.913	0.068	-0.250	1.312	0.202	-0.952	-0.251	0.898	-0.432	
0.13098	0.00031	0.00015	687.303	-108.215	-135.162	-2.749	0.000	-3.141	56689	0.323	71.866	-3.330	-18.726	0.646	0.052	0.117	-2.409	-0.884	1.352	-0.353	0.912	0.074	-0.250	1.313	0.202	-0.952	-0.251	0.898	-0.432	
0.04237	0.01817	0.03431	687.313	-108.175	-135.158	-2.715	0.000	-3.141	56921	0.305	71.869	-3.392	-18.728	0.651	0.042	0.105	-2.263	-0.906	1.321	-0.314	0.887	0.198	-0.250	1.312	0.202	-0.952	-0.251	0.898	-0.450	
0.01051	0.15314	0.17500	687.315	-108.164	-135.157	-2.540	0.000	-3.141	57204	0.180	71.916	-3.437	-18.757	0.652	0.039	0.241	-2.014	-1.353	1.328	-0.492	0.791	0.187	-0.250	1.312	0.202	-0.952	-0.251	0.898	-0.603	
0.03660	0.18108	0.15924	687.312	-108.201	-135.154	-2.380	0.000	-3.141	57484	0.250	71.890	-3.370	-18.725	0.645	0.052	0.168	-1.982	-1.504	1.336	-0.541	0.798	0.218	-0.250	1.312	0.202	-0.952	-0.251	0.898	-0.784	
0.01837	0.04029	0.02413	687.312	-108.219	-135.150	-2.356	0.000	-3.141	57767	0.374	71.917	-3.318	-18.751	0.648	0.048	0.050	-1.919	-1.671	1.345	-0.624	0.745	0.103	-0.250	1.312	0.202	-0.952	-0.251	0.898	-0.825	
0.04657	0.00007	0.00005	687.320	-108.173	-135.148	-2.356	0.000	-3.141	58031	-2.198	71.236	-4.172	-18.954	0.604	0.018	0.002	-1.788	-1.711	1.291	-0.635	0.697	0.099	-0.250	1.312	0.202	-0.952	-0.251	0.898	-0.825	
3.49846	0.00978	0.00049	689.723	-105.630	-135.159	-2.356	-0.000	-3.142	58265	-0.286	72.311	-3.156	-19.037	0.467	-0.268	-0.072	0.114	-0.750	1.350	-0.209	-0.241	-0.110	-0.247	1.316	0.202	-0.945	-0.251	0.902	-0.823	
6.40507	0.02996	0.00026	694.271	-101.121	-135.166	-2.356	-0.000	-3.141	58546	-0.262	71.786	-3.202	-18.955	0.496	-0.107	-0.046	0.125	-1.244	1.152	-0.446	-0.158	-0.082	-0.237	1.326	0.202	-0.922	-0.249	0.914	-0.818	
0.04498	0.00277	0.00012	694.293	-101.123	-135.127	-2.356	-0.000	-3.141	58812	-0.364	72.087	-3.241	-19.046	0.503	-0.115	-0.039	-0.102	-1.070	0.945	-0.390	-0.072	-0.064	-0.236	1.327	0.202	-0.920	-0.249	0.915	-0.818	
0.30937	0.00010	0.00036	694.515	-100.911	-135.092	-2.356	0.000	-3.141	58998	-0.426	72.469	-3.197	-19.489	0.464	-0.233	-0.078	0.514	-0.844	0.869	-0.213	-0.393	-0.113	-0.236	1.327	0.202	-0.920	-0.249	0.915	-0.818	
6.76318	0.02553	0.00017	699.291	-96.123	-135.164	-2.356	-0.000	-3.141	59279	1.204	73.318	-2.677	-19.408	0.480	-0.211	-0.073	0.820	-1.004	1.311	-0.276	-0.485	-0.122	-0.227	1.335	0.202	-0.900	-0.247	0.926	-0.814	
2.94168	0.01861	0.00027	701.366	-94.039	-135.139	-2.356	-0.000	-3.141	59559	-0.526	72.787	-3.197	-19.361	0.497	-0.156	-0.028	-0.227	-1.175	1.110	-0.383	-0.051	-0.055	-0.221	1.342	0.202	-0.886	-0.246	0.933	-0.811	
0.07751	0.00012	0.00010	701.403	-93.986	-135.095	-2.356	-0.000	-3.141	59824	-3.054	72.701	-4.095	-19.891	0.440	-0.157	-0.068	-0.129	-1.064	1.319	-0.345	-0.088	-0.054	-0.221	1.341	0.202	-0.886	-0.246	0.933	-0.811	
3.78892	0.01170	0.00009	704.078	-91.303	-135.133	-2.356	-0.000	-3.141	60074	-0.714	73.280	-3.180	-19.434	0.433	-0.254	-0.097	0.976	-0.563	0.845	-0.138	-0.554	-0.131	-0.218	1.345	0.202	-0.877	-0.246	0.938	-0.810	
6.15309	0.03234	0.00023	708.353	-86.878	-135.226	-2.356	-0.000	3.142	60355	-0.226	74.029	-3.014	-20.194	0.570	0.021	-0.070	0.321	-0.247	1.325	-0.280	-0.154	-0.099	-0.207	1.357	0.202	-0.852	-0.244	0.951	-0.806	
0.19298	0.00214	0.00020	708.445	-86.976	-135.088	-2.356	-0.000	-3.141	60604	-0.453	73.708	-3.168	-20.201	0.508	0.159	-0.076	0.662	-0.220	1.220	-0.331	-0.154	-0.100	-0.207	1.357	0.202	-0.850	-0.244	0.952	-0.805	
0.32964	0.00009	0.00028	708.658	-86.734	-135.156	-2.356	-0.000	-3.141	60839	0.754	76.938	-2.665	-23.841	0.738	1.736	-0.226	5.879	4.237	0.137	-0.017	-0.853	-0.300	-0.207	1.357	0.202	-0.850	-0.244	0.952	-0.805	
2.35774	0.01292	0.00063	710.119	-84.905	-135.437	-2.356	-0.000	3.141	61122	1.183	79.106	-2.542	-26.078	1.020	2.911	-0.269	5.420	8.323	2.233	0.113	-0.388	-0.279	-0.203	1.362	0.202	-0.841	-0.243	0.958	-0.804	
0.45181	0.00042	0.00052	710.119	-85.243	-135.138	-2.356	-0.000	-3.141	61359	1.141	75.029	-2.692	-21.226	0.893	1.017	0.000	0.362	4.206	2.294	-0.508	0.648	-0.064	-0.203	1.362	0.202	-0.841	-0.243	0.958	-0.804	
3.51908	0.01593	0.00142	708.178	-88.132	-134.618	-2.356	0.001	-3.140	61642	0.257	73.263	-3.014	-19.859	0.732	0.076	0.057	-2.299	-2.024	1.230	-0.777	0.915	0.157	-0.208	1.356	0.202	-0.852	-0.244	0.951	-0.806	
1.45525	0.00776	0.00119	706.907	-88.582	-135.165	-2.356	-0.000	-3.141	61922	0.073	73.201	-3.178	-19.491	0.681	0.010	0.059	-1.755	-1.673	1.277	-0.614	0.646	0.104	-0.210	1.354	0.202	-0.859	-0.244	0.948	-0.807	
0.03787	0.00006	0.00004	706.917	-88.615	-135.151	-2.356	-0.000	-3.141	62155	0.284	73.212	-3.095	-19.521	0.692	0.019	0.198	-1.855	-1.550	1.279	-0.542	0.706	0.183	-0.210	1.354	0.202	-0.859	-0.244	0.948	-0.807	
0.00862	0.05031	0.07337	706.920	-88.607	-135.148	-2.283	-0.000	-3.141	62436	0.214	73.178	-3.083	-19.553	0.712	0.023	0.162	-1.642	-1.791	1.276	-0.639	0.646	0.195	-0.210	1.354	0.202	-0.859	-0.244	0.948	-0.857	
0.00695	0.19073	0.20234	706.919	-88.600	-135.148	-2.080	-0.000	-3.141	62717	0.270	73.174	-3.090	-19.464	0.662	0.039	0.095	-1.255	-2.174	1.320	-0.788	0.496	0.159	-0.210	1.354	0.202	-0.859	-0.244	0.948	-1.048	
0.01050	0.13960	0.11280	706.913	-88.592	-135.151	-1.968	-0.000	-3.141	63001	0.198	73.212	-3.107	-19.492	0.690	0.026	0.098	-1.118	-2.270	1.325	-0.817	0.447	0.152	-0.210	1.354	0.202	-0.859	-0.244	0.948	-1.188	
0.00074	0.01200	0.00416	706.913	-88.592	-135.150	-1.963	-0.000	-3.141	63265	0.202	73.216	-3.102	-19.505	0.684	0.027	0.064	-1.044	-2.303	1.322	-0.834	0.406	0.108	-0.210	1.354	0.202	-0.859	-0.244	0.948	-1.200	
0.01490	0.00001	0.00000	706.916	-88.578	-135.149	-1.963	-0.000	-3.141	63511	-0.169	73.141	-2.984	-19.823	0.641	-0.136	-0.100	-0.083	-1.518	0.981	-0.527	-0.017	0.006	-0.210	1.354	0.202	-0.859	-0.244	0.948	-1.200	
5.81484	0.01253	0.00026	709.069	-83.176	-135.171	-1.964	-0.000	-3.141	63795	0.368	72.931	-2.634	-19.585	0.538	-0.262	-0.111	0.198	-0.911	0.896	-0.188	-0.251	-0.137	-0.203	1.357	0.202	-0.851	-0.244	0.952	-1.194	
4.16674	0.01480	0.00017	710.615	-79.307	-135.179	-1.964	-0.000	-3.142	64077	-0.489	73.380	-3.064	-19.709	0.510	-0.135	-0.064	0.443	-1.126	0.984	-0.323	-0.250	-0.091	-0.195	1.361	0.202	-0.843	-0.243	0.957	-1.188	
0.04713	0.00012	0.00005	710.638	-79.279	-135.149	-1.964	-0.000	-3.142	64343	-0.418	73.303	-3.050	-19.707	0.516	-0.136	-0.062	0.445	-1.210	1.071	-0.363	-0.266	-0.087	-0.195	1.361	0.202	-0.843	-0.243	0.957	-1.188	
2.06301	0.00262	0.00040	711.579	-77.445	-135.054	-1.964	-0.000	-3.141	64574	-0.925	73.399	-3.241	-19.648	0.425	-0.305	-0.105	0.920	-0.220	0.477	0.078	-0.499	-0.150	-0.194	1.361	0.202	-0.841	-0.243	0.957	-1.187	
7.16878	0.01993	0.00020	714.250	-70.793	-135.118	-1.964	-0.000	-3.141	64857	-0.388	73.458	-2.984	-19.830	0.493	-0.116	-0.096	0.636	-0.785	1.154	-0.168	-0.369	-0.140	-0.183	1.367	0.202	-0.829	-0.242	0.964	-1.179	
0.69564	0.00544	0.00025	714.452	-70.128	-135.153	-1.964	-0.000	-3.142	65123	-0.364	73.526	-2.962	-19.851	0.499	-0.119	-0.088	0.415	-1.180	0.997	-0.368	-0.249	-0.116	-0.180	1.368	0.202	-0.825	-0.242	0.966	-1.177	
0.09918	0.00014	0.00013	714.463	-70.030	-135.151	-1.964	-0.000	-3.142	65310	-1.765	72.787	-3.326	-19.555	0.453	-0.269	-0.131	0.351	-0.821	1.044	-0.224	-0.260	-0.122	-0.180	1.368	0.202	-0.825	-0.242	0.966	-1.177	
4.56017	0.00959	0.00020	716.236	-65.829	-135.213	-1.963	-0.000	-3.141	65545	-0.343	73.645	-2.916	-19.880	0.454	-0.277	-0.113	0.589	-0.655	1.052	-0.082	-0.374	-0.159	-0.175	1.371	0.202	-0.819	-0.242	0.969	-1.174	
5.29105	0.01887	0.00096	717.861	-60.802	-135.496	-1.963	-0.000	3.141	65825	-0.682	77.038	-3.450	-23.775	0.510	1.996	-0.171	2.630	4.394	1.080	-0.060	-0.326	-0.182	-0.165	1.377	0.202	-0.808	-0.241	0.975	-1.167	
0.63608	0.00032	0.00108	718.334	-61.027	-135.135	-1.964	-0.000	-3.141	66018	0.956	76.332	-2.652	-21.782	0.632	0.684	-0.041	3.965	3.358	1.775	-0.312	-0.446	-0.195	-0.165	1.377	0.202	-0.808	-0.241	0.975	-1.167	
1.93390	0.00444	0.00107	717.991	-62.887	-134.729	-1.963	0.000	-3.140	66311	0.153	73.785	-2.961	-19.681	0.645	0.095	0.061	-1.127	-2.950	1.334	-1.120	0.488	0.088	-0.167	1.375	0.202	-0.810	-0.241	0.973	-1.169	
3.25159	0.01008	0.00112	716.363	-65.673	-135.125	-1.963	-0.000	-3.141	66593	0.198	73.375	-2.925	-19.583	0.607	0.070	0.008	-1.219	-2.803	1.296	-1.065	0.477	0.047	-0.173	1.372	0.202	-0.817	-0.242	0.970	-1.172	
0.08000	0.00036	0.00015	716.389	-65.600	-135.144	-1.963	-0.000	-3.141	66860	0.136	73.932	-3.001	-19.863	0.609	0.088	0.021	-1.021	-2.668	1.225	-1.004	0.421	0.032	-0.173	1.372	0.202	-0.817	-0.242	0.970	-1.172	
0.00626	0.00832	0.01890	716.395	-65.599	-135.144	-1.945	-0.000	-3.141	67100	0.147	73.713	-2.970	-19.808	0.587	0.038	0.076	-1.035	-2.570	1.237	-0.934	0.466	0.154	-0.173	1.372	0.202	-0.817	-0.242	0.970	-1.180	
0.01081	0.12927	0.15544	716.405	-65.597	-135.144	-1.789	-0.000	-3.141	67385	0.117	73.725	-2.931	-19.723	0.613	0.038	0.084	-0.529	-2.718	1.307	-0.987	0.279	0.158	-0.173	1.372	0.202	-0.817	-0.242	0.970	-1.310	
0.01172	0.19735	0.18071	716.417	-65.596	-135.145	-1.608	-0.000	-3.141	67668	0.148	73.717	-2.978	-19.779	0.616	0.073	0.170	-0.217	-2.750	1.303	-1.012	0.176	0.171	-0.173	1.372	0.202	-0.817	-0.242	0.970	-1.507	
0.00502	0.05765	0.03761	716.422	-65.596	-135.145	-1.571	-0.000	-3.141	67954	0.122	73.750	-2.988	-19.789	0.621	0.076	0.085	-0.097	-2.819	1.287	-1.045	0.119	0.124	-0.173	1.372	0.202	-0.817	-0.242	0.970	-1.565	
0.00227	0.00011	0.00004	716.424	-65.595	-135.145	-1.571	-0.000	-3.141	68208	-0.039	73.760	-3.036	-19.795	0.607	0.076	0.040	-0.057	-2.829	1.304	-1.047	0.097	0.101	-0.173	1.372	0.202	-0.817	-0.242	0.970	-1.565	
2.39076	0.00260	0.00038	716.403	-63.206	-135.210	-1.571	-0.000	-3.141	68446	-0.984	73.539	-3.139	-19.695	0.647	0.094	-0.046	1.174	-2.621	1.283	-1.001	-0.557	-0.054	-0.171	1.372	0.202	-0.817	-0.242	0.970	-1.563	
6.98374	0.01473	0.00030	716.350	-56.222	-135.186	-1.571	-0.000	-3.141	68729	-0.432	73.414	-2.924	-19.661	0.689	0.051	-0.035	1.113	-2.455	0.967	-0.905	-0.558	-0.056	-0.162	1.370	0.202	-0.821	-0.242	0.968	-1.553	
0.59855	0.00352	0.00019	716.408	-55.628	-135.146	-1.571	-0.000	-3.141	68993	-0.427	73.482	-2.933	-19.691	0.687	0.050	-0.030	1.056	-2.548	1.535	-0.932	-0.523	-0.038	-0.159	1.370	0.202	-0.822	-0.242	0.967	-1.550	
0.04834	0.00008	0.00007	716.411	-55.580	-135.147	-1.571	-0.000	-3.141	69175	-1.782	73.731	-3.398	-19.538	0.640	0.056	-0.072	0.823	-2.587	1.498	-0.948	-0.469	-0.051	-0.159	1.370	0.202	-0.822	-0.242	0.967	-1.550	
4.68394	0.00710	0.00038	716.296	-50.897	-135.181	-1.571	-0.000	3.142	69413	-0.460	73.315	-2.894	-19.558	0.718	0.085	-0.059	0.829	-2.871	1.599	-1.084	-0.499	-0.069	-0.155	1.369	0.202	-0.824	-0.242	0.967	-1.545	
5.37868	0.01323	0.00037	716.404	-45.520	-135.159	-1.571	-0.000	-3.141	69692	-0.698	73.622	-3.091	-19.735	0.682	0.059	-0.027	0.866	-2.395	1.098	-0.897	-0.456	-0.034	-0.146	1.368	0.202	-0.826	-0.242	0.965	-1.536	
0.13230	0.00020	0.00021	716.489	-45.607	-135.107	-1.571	-0.000	-3.141	69960	-0.515	73.794	-2.999	-19.808	0.685	0.061	-0.028	1.021	-2.318	1.205	-0.866	-0.514	-0.035	-0.146	1.368	0.202	-0.826	-0.242	0.965	-1.536	
1.08633	0.00037	0.00037	716.343	-44.535	-135.202	-1.571	-0.000	-3.142	70209	-0.255	73.622	-2.859	-19.716	0.699	0.090	-0.117	0.842	-2.822	1.362	-1.062	-0.516	-0.100	-0.146	1.368	0.202	-0.826	-0.242	0.965	-1.535	
7.20207	0.01396	0.00018	716.349	-37.333	-135.191	-1.571	-0.000	-3.141	70492	-0.473	73.611	-2.996	-19.721	0.697	0.084	-0.036	0.971	-2.708	1.478	-1.034	-0.538	-0.080	-0.136	1.367	0.202	-0.829	-0.242	0.964	-1.526	
1.70172	0.00589	0.00010	716.336	-35.631	-135.156	-1.571	-0.000	-3.142	70755	-0.477	73.483	-2.992	-19.668	0.695	0.068	-0.029	1.026	-2.544	1.318	-0.962	-0.523	-0.034	-0.132	1.367	0.202	-0.830	-0.242	0.963	-1.521	
0.07194	0.00008	0.00012	716.336	-35.560	-135.161	-1.571	-0.000	-3.142	71011	-1.660	73.896	-3.379	-19.701	0.656	0.088	-0.073	0.746	-2.534	1.211	-0.953	-0.450	-0.046	-0.132	1.367	0.202	-0.830	-0.242	0.963	-1.521	
4.63562	0.00693	0.00023	716.259	-30.925	-135.199	-1.571	-0.000	3.141	71271	-4.109	75.707	-5.759	-22.986	-0.260	2.341	-0.173	5.085	5.106	-0.311	-0.291	-0.809	-0.212	-0.128	1.366	0.202	-0.831	-0.242	0.963	-1.516	
0.95360	0.00458	0.00041	716.137	-29.991	-135.348	-1.571	-0.001	3.141	71556	-4.757	77.304	-6.862	-23.311	-0.732	2.211	-0.208	6.952	5.846	2.423	-0.337	-0.862	-0.219	-0.124	1.366	0.202	-0.831	-0.242	0.963	-1.513	
0.36304	0.00045	0.00059	716.402	-29.996	-135.100	-1.571	-0.000	-3.141	71742	0.108	73.599	-3.010	-19.782	0.688	0.095	0.112	1.638	1.682	1.487	-0.614	-0.167	0.042	-0.124	1.366	0.202	-0.831	-0.243	0.963	-1.513	
3.54831	0.00616	0.00043	716.445	-33.544	-135.128	-1.570	-0.001	-3.141	72023	-0.430	73.322	-3.132	-19.590	0.630	-0.065	0.087	-0.379	-1.887	1.271	-0.617	0.167	0.143	-0.128	1.366	0.202	-0.830	-0.243	0.963	-1.517	
1.38504	0.00398	0.00036	716.337	-34.922	-135.205	-1.571	-0.001	-3.142	72293	-0.108	73.571	-3.016	-19.804	0.652	-0.046	0.077	-0.046	-1.645	1.106	-0.538	0.021	0.093	-0.131	1.367	0.202	-0.830	-0.243	0.963	-1.520	
0.00380	0.00002	0.00002	716.334	-34.921	-135.204	-1.571	-0.001	-3.142	72535	-0.015	73.563	-2.964	-19.770	0.630	-0.037	0.140	-0.231	-1.687	1.142	-0.549	0.103	0.141	-0.131	1.367	0.202	-0.830	-0.243	0.963	-1.520	
0.00200	0.05121	0.07390	716.333	-34.920	-135.203	-1.497	-0.001	-3.142	72818	-0.067	73.596	-2.965	-19.745	0.666	-0.039	0.175	0.022	-1.755	1.150	-0.584	0.031	0.165	-0.131	1.367	0.202	-0.830	-0.243	0.963	-1.571	
0.01091	0.19206	0.20175	716.339	-34.923	-135.194	-1.295	-0.001	3.141	73097	-0.005	73.524	-2.972	-19.799	0.700	-0.036	0.154	0.335	-1.627	1.138	-0.538	-0.057	0.190	-0.131	1.367	0.202	-0.830	-0.242	0.963	-1.764	
0.01441	0.13703	0.11271	716.348	-34.924	-135.183	-1.182	-0.001	3.141	73379	0.040	73.543	-2.945	-19.789	0.650	-0.057	0.106	0.474	-1.549	1.151	-0.487	-0.100	0.163	-0.131	1.367	0.202	-0.830	-0.242	0.963	-1.901	
0.00285	0.01239	0.00428	716.346	-34.924	-135.182	-1.178	-0.001	3.141	73645	0.030	73.540	-2.955	-19.780	0.648	-0.057	0.105	0.541	-1.542	1.159	-0.478	-0.139	0.116	-0.131	1.367	0.202	-0.830	-0.242	0.963	-1.913	
0.01511	0.00001	0.00002	716.340	-34.910	-135.183	-1.178	-0.001	3.141	73879	0.085	73.220	-2.822	-19.713	0.710	0.147	-0.035	1.992	-2.233	1.925	-0.770	-0.777	0.007	-0.131	1.367	0.202	-0.830	-0.242	0.963	-1.913	
5.83858	0.01712	0.00008	714.092	-29.522	-135.183	-1.178	-0.000	3.141	74159	-0.136	73.228	-2.852	-19.772	0.748	0.159	-0.060	2.666	-2.264	1.757	-0.792	-1.215	-0.073	-0.126	1.361	0.202	-0.842	-0.243	0.957	-1.905	
4.12891	0.01937	0.00023	712.584	-25.678	-135.149	-1.178	-0.001	3.142	74439	-0.582	73.134	-3.022	-19.449	0.700	0.036	-0.013	1.831	-2.006	1.465	-0.634	-0.828	-0.028	-0.121	1.355	0.202	-0.855	-0.244	0.950	-1.897	
0.12595	0.00022	0.00015	712.510	-25.660	-135.250	-1.178	-0.001	3.141	74707	-0.821	73.317	-3.106	-19.425	0.695	0.040	-0.020	1.865	-1.935	1.366	-0.607	-0.844	-0.029	-0.121	1.355	0.202	-0.855	-0.244	0.950	-1.897	
2.28411	0.00390	0.00025	711.714	-23.521	-135.168	-1.178	-0.000	-3.142	74896	-0.875	73.309	-3.096	-19.541	0.739	0.193	-0.051	2.408	-2.132	1.503	-0.730	-1.137	-0.074	-0.120	1.354	0.202	-0.858	-0.244	0.948	-1.895	
7.02529	0.02486	0.00038	708.915	-17.077	-135.138	-1.178	-0.000	3.141	75178	-0.504	73.126	-3.137	-19.329	0.692	0.028	-0.031	1.979	-2.085	1.260	-0.722	-0.964	-0.062	-0.112	1.346	0.202	-0.875	-0.246	0.939	-1.883	
0.63480	0.00622	0.00028	708.731	-16.472	-135.189	-1.178	-0.001	3.142	75459	-0.574	72.936	-3.075	-19.333	0.707	0.023	-0.020	1.723	-1.719	1.214	-0.527	-0.810	-0.040	-0.110	1.345	0.202	-0.879	-0.246	0.937	-1.880	
0.02604	0.00009	0.00002	708.727	-16.446	-135.193	-1.178	-0.001	3.142	75691	-0.743	72.643	-3.131	-19.217	0.733	0.179	-0.067	2.844	-2.109	1.970	-0.731	-1.290	-0.096	-0.110	1.345	0.202	-0.879	-0.246	0.937	-1.880	
5.90496	0.01605	0.00004	706.465	-10.992	-135.168	-1.178	-0.001	3.142	75973	0.460	73.422	-2.705	-19.813	0.811	0.130	-0.058	2.203	-2.379	1.531	-0.813	-1.101	-0.087	-0.105	1.340	0.202	-0.890	-0.247	0.931	-1.873	
4.09591	0.01779	0.00011	704.939	-7.191	-135.148	-1.178	-0.001	-3.142	76257	-0.524	72.362	-3.114	-19.024	0.698	-0.002	-0.026	1.722	-1.800	1.435	-0.532	-0.819	-0.045	-0.099	1.335	0.202	-0.902	-0.248	0.925	-1.864	
0.12159	0.00023	0.00015	704.869	-7.165	-135.244	-1.178	-0.001	3.141	76522	-0.798	72.783	-3.221	-19.161	0.692	0.008	-0.022	1.735	-1.577	1.250	-0.458	-0.824	-0.042	-0.099	1.335	0.202	-0.902	-0.248	0.925	-1.864	
2.31262	0.00357	0.00027	703.919	-5.058	-135.180	-1.178	-0.000	3.141	76756	-6.167	73.986	-7.976	-21.025	-1.115	1.496	-0.171	4.932	4.388	0.141	-0.140	-0.988	-0.190	-0.098	1.334	0.202	-0.904	-0.248	0.924	-1.862	
1.21552	0.00823	0.00016	703.475	-3.929	-135.267	-1.178	-0.000	3.141	77038	-7.509	74.571	-8.880	-21.107	-1.388	1.719	-0.205	7.852	6.737	0.833	0.051	-1.130	-0.231	-0.096	1.331	0.202	-0.909	-0.248	0.921	-1.858	
0.45530	0.00069	0.00052	703.743	-4.295	-135.224	-1.178	-0.000	3.141	77270	-0.336	72.615	-3.529	-19.609	0.470	0.016	0.121	2.668	4.045	1.235	0.218	-0.310	0.037	-0.096	1.331	0.202	-0.909	-0.248	0.921	-1.859	
3.70410	0.01195	0.00049	705.384	-7.605	-134.957	-1.178	-0.000	-3.141	77553	0.278	72.642	-3.064	-19.242	0.545	-0.095	0.121	0.539	-0.965	1.198	-0.222	-0.047	0.118	-0.099	1.335	0.202	-0.901	-0.247	0.925	-1.864	
0.92157	0.00416	0.00052	705.395	-8.501	-135.169	-1.178	-0.000	3.141	77820	0.047	72.592	-3.082	-19.251	0.617	-0.096	0.115	0.508	-1.249	1.142	-0.338	-0.134	0.110	-0.101	1.336	0.202	-0.898	-0.247	0.927	-1.866	
0.03616	0.00012	0.00192	705.377	-8.508	-135.200	-1.176	-0.001	3.141	78057	-0.089	72.616	-3.135	-19.237	0.597	-0.111	0.199	0.358	-1.281	1.141	-0.346	-0.062	0.171	-0.101	1.336	0.202	-0.898	-0.247	0.927	-1.866	
0.00331	0.07488	0.10013	705.375	-8.507	-135.202	-1.076	-0.000	3.141	78338	-0.031	72.602	-3.199	-19.241	0.536	-0.113	0.148	0.543	-1.158	1.170	-0.297	-0.090	0.151	-0.101	1.336	0.202	-0.898	-0.247	0.927	-1.941	
0.01208	0.20279	0.20386	705.373	-8.496	-135.206	-0.872	-0.000	3.141	78617	-0.005	72.622	-3.102	-19.236	0.579	-0.119	0.166	0.790	-1.006	1.192	-0.243	-0.157	0.132	-0.101	1.336	0.202	-0.898	-0.247	0.927	-2.144	
0.00603	0.11065	0.08629	705.370	-8.498	-135.211	-0.786	-0.000	3.141	78898	-0.042	72.607	-3.131	-19.238	0.581	-0.119	0.093	0.910	-0.959	1.184	-0.224	-0.198	0.091	-0.101	1.336	0.202	-0.898	-0.247	0.927	-2.255	
0.00501	0.00430	0.00048	705.368	-8.497	-135.215	-0.785	-0.000	3.141	79164	-0.078	72.598	-3.137	-19.230	0.585	-0.118	0.089	0.911	-0.988	1.183	-0.231	-0.202	0.080	-0.101	1.336	0.202	-0.898	-0.247	0.927	-2.259	
0.31883	0.00002	0.00020	705.109	-8.311	-135.232	-0.785	-0.000	3.141	79399	-0.492	72.100	-3.090	-18.893	0.709	0.183	-0.069	2.292	-1.538	1.232	-0.441	-0.930	-0.070	-0.101	1.336	0.202	-0.898	-0.247	0.927	-2.259	
6.81610	0.03074	0.00044	700.385	-3.399	-135.147	-0.786	-0.000	3.141	79679	0.696	71.733	-2.705	-19.078	0.755	0.137	-0.067	3.114	-1.106	0.708	-0.231	-1.339	-0.111	-0.097	1.326	0.202	-0.922	-0.249	0.914	-2.249	
2.79804	0.02033	0.00018	698.399	-1.428	-135.186	-0.785	-0.000	3.141	79961	-0.652	72.252	-3.220	-18.872	0.667	0.038	-0.042	2.323	-0.963	1.203	-0.162	-0.984	-0.073	-0.095	1.319	0.202	-0.938	-0.250	0.905	-2.243	
0.04854	0.00007	0.00005	698.382	-1.393	-135.215	-0.785	-0.000	3.141	80211	-3.047	73.540	-4.148	-18.849	0.614	0.155	-0.080	2.329	-1.076	1.384	-0.213	-1.006	-0.072	-0.095	1.319	0.202	-0.938	-0.250	0.905	-2.243	
4.04713	0.01385	0.00020	695.480	1.428	-135.195	-0.785	-0.000	3.141	80463	-0.450	71.825	-3.181	-18.635	0.725	0.146	-0.097	2.609	-0.939	1.437	-0.190	-1.251	-0.115	-0.093	1.314	0.202	-0.948	-0.251	0.900	-2.239	
5.97535	0.03354	0.00021	691.313	5.710	-135.167	-0.785	-0.000	3.141	80745	-0.532	71.682	-3.277	-18.590	0.660	0.022	-0.064	2.230	-0.899	1.078	-0.122	-0.971	-0.095	-0.088	1.303	0.202	-0.974	-0.253	0.886	-2.228	
0.07539	0.00150	0.00013	691.301	5.648	-135.208	-0.785	-0.000	3.141	80980	-0.690	71.479	-3.316	-18.490	0.649	0.018	-0.058	2.332	-0.794	1.285	-0.069	-1.014	-0.097	-0.088	1.302	0.202	-0.975	-0.253	0.885	-2.227	
0.55600	0.00007	0.00042	690.842	5.951	-135.285	-0.786	-0.000	3.141	81231	-0.472	71.705	-3.320	-18.643	0.717	0.207	-0.093	3.031	-1.428	1.336	-0.293	-1.374	-0.132	-0.088	1.302	0.202	-0.975	-0.253	0.885	-2.227	
6.90802	0.02963	0.00041	686.065	10.940	-135.170	-0.786	-0.000	3.141	81510	-0.765	70.917	-3.563	-18.461	0.622	0.171	-0.087	2.761	-1.072	1.026	-0.195	-1.280	-0.130	-0.083	1.293	0.202	-0.998	-0.255	0.873	-2.217	
2.53804	0.01744	0.00014	684.267	12.732	-135.173	-0.785	-0.000	3.141	81791	-0.867	70.960	-3.492	-18.172	0.620	0.061	-0.058	2.380	-0.721	1.197	-0.093	-1.047	-0.099	-0.081	1.287	0.202	-1.011	-0.257	0.866	-2.211	
0.00616	0.00001	0.00001	684.272	12.731	-135.170	-0.785	-0.000	3.141	82026	-2.714	71.343	-4.203	-17.538	0.544	0.123	-0.109	2.347	-0.725	1.240	-0.100	-1.027	-0.099	-0.081	1.287	0.202	-1.011	-0.257	0.866	-2.211	
1.67414	0.00881	0.00049	682.860	13.630	-135.204	-0.786	-0.001	3.141	82261	-6.345	70.759	-8.731	-18.807	-1.371	1.253	-0.189	5.620	6.445	0.184	0.411	-1.143	-0.218	-0.080	1.284	0.202	-1.018	-0.257	0.862	-2.208	
0.25201	0.00073	0.00033	682.911	13.875	-135.228	-0.786	-0.000	3.141	82447	-7.806	71.491	-9.795	-19.149	-1.606	1.257	-0.198	7.116	9.270	0.011	0.621	-1.131	-0.264	-0.080	1.284	0.202	-1.017	-0.257	0.862	-2.208	
1.07445	0.00441	0.00069	683.868	13.387	-135.258	-0.785	0.000	3.141	82683	0.433	70.482	-3.377	-18.256	0.449	-0.175	0.101	1.883	3.499	0.910	0.276	-0.168	0.005	-0.080	1.286	0.202	-1.014	-0.257	0.864	-2.210	
3.62115	0.01655	0.00036	686.403	10.804	-135.151	-0.785	-0.000	3.141	82965	0.026	70.815	-3.297	-18.277	0.475	-0.115	0.085	0.615	-0.980	0.982	-0.258	-0.052	0.063	-0.082	1.291	0.202	-1.001	-0.256	0.871	-2.216	
0.30345	0.00228	0.00032	686.392	10.504	-135.198	-0.786	-0.000	3.141	83212	-0.125	71.089	-3.371	-18.386	0.475	-0.115	0.079	0.912	-0.955	1.187	-0.231	-0.189	0.047	-0.083	1.292	0.202	-1.000	-0.255	0.872	-2.216	
0.00641	0.00260	0.00913	686.395	10.505	-135.192	-0.776	-0.000	3.141	83463	-0.141	71.050	-3.346	-18.350	0.439	-0.111	0.190	0.863	-0.905	1.177	-0.223	-0.154	0.095	-0.083	1.292	0.202	-1.000	-0.255	0.872	-2.219	
0.00310	0.10332	0.13138	686.396	10.505	-135.190	-0.645	-0.000	3.141	83742	-0.078	71.069	-3.415	-18.299	0.471	-0.119	0.083	1.016	-0.728	1.188	-0.172	-0.183	0.087	-0.083	1.292	0.202	-1.000	-0.255	0.872	-2.322	
0.00209	0.20523	0.19497	686.397	10.505	-135.188	-0.450	-0.000	3.141	84025	-0.102	71.054	-3.372	-18.380	0.483	-0.122	0.117	1.071	-0.491	1.165	-0.104	-0.187	0.085	-0.083	1.292	0.202	-1.000	-0.255	0.872	-2.527	
0.00505	0.08143	0.05723	686.398	10.501	-135.187	-0.393	-0.000	3.141	84309	-0.099	71.061	-3.376	-18.359	0.478	-0.126	0.088	1.144	-0.492	1.184	-0.099	-0.208	0.058	-0.083	1.292	0.202	-1.000	-0.255	0.872	-2.609	
0.00172	0.00017	0.00004	686.399	10.499	-135.186	-0.393	-0.000	3.141	84555	-0.091	71.054	-3.373	-18.364	0.483	-0.126	0.081	1.178	-0.478	1.197	-0.089	-0.223	0.049	-0.083	1.292	0.202	-1.000	-0.255	0.872	-2.609	
1.72565	0.00340	0.00023	684.778	11.091	-135.193	-0.393	0.000	3.141	84804	-0.421	70.993	-3.366	-17.902	0.683	0.132	-0.076	2.633	-0.533	0.872	-0.014	-1.042	-0.068	-0.083	1.291	0.202	-1.002	-0.255	0.870	-2.608	
6.96584	0.04063	0.00037	678.385	13.857	-135.220	-0.393	-0.000	3.141	85086	-0.933	70.365	-3.656	-17.727	0.629	0.106	-0.054	2.705	-0.351	1.093	0.127	-1.142	-0.089	-0.082	1.277	0.202	-1.035	-0.259	0.853	-2.599	
1.26157	0.01355	0.00014	677.212	14.316	-135.285	-0.393	-0.000	3.141	85367	-0.633	70.236	-3.504	-17.813	0.628	0.085	-0.052	2.504	-0.175	1.322	0.167	-1.010	-0.078	-0.081	1.272	0.202	-1.045	-0.260	0.847	-2.596	
0.14781	0.00014	0.00018	677.288	14.312	-135.159	-0.393	-0.000	3.141	85602	-0.316	69.847	-3.367	-17.892	0.688	0.203	-0.095	3.191	-0.125	1.148	0.204	-1.302	-0.106	-0.081	1.272	0.202	-1.045	-0.260	0.847	-2.596	
6.22968	0.02822	0.00016	671.544	16.722	-135.147	-0.393	-0.000	3.141	85885	0.000	69.392	-3.228	-18.189	0.747	0.258	-0.090	3.298	-0.039	1.416	0.326	-1.413	-0.127	-0.080	1.262	0.202	-1.068	-0.262	0.835	-2.589	
3.74600	0.02716	0.00022	668.074	18.134	-135.162	-0.393	-0.000	3.141	86166	-0.624	69.623	-3.508	-17.429	0.663	0.069	-0.070	2.612	0.222	1.359	0.396	-1.085	-0.110	-0.079	1.253	0.202	-1.089	-0.264	0.823	-2.583	
0.05752	0.00022	0.00009	668.047	18.126	-135.212	-0.393	-0.000	3.141	86400	-1.902	70.479	-4.017	-16.786	0.643	0.079	-0.100	2.420	0.074	1.033	0.340	-1.026	-0.106	-0.079	1.253	0.202	-1.089	-0.264	0.823	-2.583	
4.17173	0.01552	0.00024	664.194	19.726	-135.151	-0.393	-0.000	3.141	86649	-0.828	69.272	-3.605	-17.403	0.711	0.270	-0.086	3.071	0.134	0.932	0.390	-1.364	-0.121	-0.079	1.248	0.202	-1.102	-0.265	0.816	-2.579	
5.86263	0.03651	0.00028	658.791	22.001	-135.137	-0.393	-0.000	3.141	86930	-0.825	69.111	-3.715	-17.131	0.643	0.060	-0.037	2.315	0.034	0.924	0.329	-0.980	-0.086	-0.077	1.236	0.202	-1.130	-0.268	0.800	-2.569	
0.10340	0.00145	0.00019	658.781	21.954	-135.229	-0.393	-0.000	3.141	87209	-0.766	69.004	-3.605	-17.054	0.633	0.054	-0.033	2.412	0.186	1.163	0.395	-1.016	-0.086	-0.077	1.235	0.202	-1.131	-0.268	0.799	-2.569	
1.80963	0.00303	0.00018	657.107	22.642	-135.199	-0.393	-0.000	3.141	87460	-4.064	67.929	-6.632	-16.300	-0.358	0.351	-0.195	3.835	2.213	1.396	0.603	-1.406	-0.186	-0.077	1.234	0.202	-1.134	-0.268	0.798	-2.568	
4.58403	0.03086	0.00037	652.793	24.189	-135.120	-0.393	-0.000	3.141	87741	-5.850	67.711	-8.584	-16.774	-1.012	0.829	-0.175	3.921	8.279	0.310	0.970	-1.125	-0.212	-0.076	1.224	0.202	-1.158	-0.271	0.785	-2.560	
0.29326	0.00065	0.00051	652.855	24.461	-135.212	-0.393	-0.000	3.141	87928	-5.964	71.403	-9.141	-17.742	-1.183	0.584	-0.171	5.872	8.853	1.346	0.922	-1.182	-0.276	-0.075	1.224	0.202	-1.158	-0.271	0.785	-2.560	
6.49579	0.01012	0.00036	652.726	24.523	-128.717	-0.393	0.000	3.141	88209	-5.116	68.861	-8.758	-17.864	-1.227	0.633	-0.049	3.909	7.182	3.417	0.563	-0.601	-0.161	-0.075	1.216	0.202	-1.162	-0.269	0.788	-2.561	
19.03560	0.04553	0.00105	652.790	25.347	-109.700	-0.392	0.000	-3.141	88488	-0.446	67.032	-3.536	-17.078	0.378	-0.212	0.076	1.803	-0.059	1.714	0.179	-0.390	-0.021	-0.076	1.180	0.203	-1.179	-0.260	0.807	-2.565	
4.58519	0.01652	0.00107	652.730	24.450	-105.203	-0.393	0.000	3.141	88769	-0.516	67.940	-3.690	-17.395	0.404	-0.159	0.043	1.804	-0.278	1.762	0.132	-0.462	-0.047	-0.077	1.167	0.202	-1.185	-0.257	0.814	-2.566	
0.02377	0.00055	0.00721	652.707	24.455	-105.198	-0.400	0.000	3.141	88972	-0.505	67.788	-3.718	-17.284	0.415	-0.134	-0.024	1.925	-0.118	1.253	0.210	-0.589	-0.159	-0.077	1.167	0.202	-1.185	-0.257	0.815	-2.566	
0.01098	0.16761	0.22064	652.696	24.454	-105.198	-0.621	0.000	3.141	89253	-0.561	67.729	-3.647	-17.166	0.353	-0.091	0.093	1.767	-0.880	1.426	-0.078	-0.649	-0.151	-0.077	1.167	0.202	-1.185	-0.257	0.815	-2.398	
0.00160	0.41541	0.43097	652.698	24.455	-105.198	-1.052	-0.000	3.141	89532	-0.418	67.844	-3.649	-17.400	0.368	-0.102	0.031	1.185	-1.536	1.461	-0.381	-0.549	-0.140	-0.077	1.167	0.202	-1.185	-0.257	0.815	-1.983	
0.00054	0.43957	0.43655	652.697	24.455	-105.197	-1.488	-0.000	3.141	89812	-0.313	68.102	-3.685	-17.369	0.416	-0.127	0.140	0.535	-1.979	1.367	-0.644	-0.409	-0.180	-0.077	1.167	0.202	-1.185	-0.257	0.815	-1.543	
0.00064	0.40774	0.38036	652.698	24.454	-105.197	-1.868	-0.000	3.141	90094	-0.367	67.883	-3.583	-17.335	0.430	-0.100	-0.122	0.010	-2.029	1.293	-0.752	-0.233	-0.187	-0.077	1.167	0.202	-1.185	-0.257	0.815	-1.136	
0.00046	0.14002	0.09506	652.697	24.455	-105.198	-1.964	-0.000	3.141	90374	-0.391	67.801	-3.595	-17.317	0.434	-0.100	-0.054	-0.207	-1.881	1.346	-0.688	-0.121	-0.079	-0.077	1.167	0.202	-1.185	-0.257	0.815	-0.996	
0.00028	0.00006	0.00023	652.698	24.455	-105.197	-1.964	-0.000	3.141	90594	-0.397	67.800	-3.579	-17.339	0.476	-0.104	-0.172	-0.109	-2.015	1.327	-0.778	-0.206	-0.187	-0.077	1.167	0.202	-1.185	-0.257	0.815	-0.995	
0.00029	0.10896	0.15663	652.697	24.455	-105.198	-2.120	-0.000	3.142	90876	-0.282	67.907	-3.691	-17.444	0.556	-0.088	-0.220	-0.665	-1.926	1.381	-0.822	0.010	-0.172	-0.077	1.167	0.202	-1.185	-0.257	0.815	-0.887	
0.00037	0.39120	0.41400	652.698	24.455	-105.198	-2.534	-0.000	-3.141	91156	-0.367	67.813	-3.553	-17.206	0.460	-0.096	0.210	-1.437	-1.483	1.377	-0.767	0.346	-0.168	-0.077	1.167	0.202	-1.185	-0.257	0.815	-0.495	
0.00071	0.43794	0.43964	652.698	24.456	-105.197	-2.974	-0.000	-3.141	91438	-0.350	67.782	-3.583	-17.376	0.457	-0.101	0.024	-1.881	-0.755	1.344	-0.591	0.619	-0.179	-0.077	1.167	0.202	-1.185	-0.257	0.815	-0.057	
0.00056	0.42793	0.40974	652.698	24.456	-105.197	2.899	-0.000	-3.141	91718	-0.393	67.867	-3.583	-17.312	0.370	-0.098	-0.219	-2.069	-0.127	1.335	-0.400	0.804	-0.220	-0.077	1.167	0.202	-1.185	-0.257	0.815	0.371	
0.00049	0.20127	0.15051	652.698	24.457	-105.197	2.749	-0.000	-3.141	92001	-0.378	67.842	-3.605	-17.351	0.432	-0.087	-0.076	-1.986	0.140	1.338	-0.282	0.773	-0.141	-0.077	1.167	0.202	-1.185	-0.257	0.815	0.572	
0.00009	0.00351	0.00023	652.698	24.457	-105.197	2.749	-0.000	-3.141	92250	-0.464	66.758	-3.614	-17.106	0.540	0.052	-0.117	-1.856	0.072	0.889	-0.284	0.803	-0.148	-0.077	1.167	0.202	-1.185	-0.257	0.815	0.575	
6.91556	0.01051	0.00021	652.720	24.451	-112.113	2.749	-0.000	-3.141	92513	-8.797	67.463	-11.164	-16.309	-1.931	1.191	-0.336	-4.348	-9.369	-3.510	-0.661	1.155	-0.304	-0.076	1.175	0.202	-1.181	-0.259	0.810	0.576	
18.74135	0.04527	0.00047	652.795	24.000	-130.848	2.749	0.000	-3.141	92794	-12.156	68.086	-14.681	-16.903	-2.874	1.751	-0.400	-6.411	-16.622	-3.005	-1.371	1.339	-0.409	-0.076	1.211	0.202	-1.164	-0.268	0.791	0.580	
4.38451	0.01640	0.00032	652.799	24.319	-135.221	2.749	0.000	-3.141	93075	-13.534	66.020	-15.720	-15.620	-3.364	1.468	-0.434	-8.369	-19.177	-2.612	-1.552	1.394	-0.466	-0.075	1.224	0.202	-1.158	-0.271	0.785	0.581	
0.24886	0.00022	0.00061	653.047	24.315	-135.233	2.749	-0.000	-3.141	93282	-10.286	69.004	-13.053	-18.305	-2.434	1.682	-0.132	-3.146	-18.120	-0.880	-1.477	0.405	-0.250	-0.075	1.224	0.202	-1.158	-0.271	0.785	0.581	
3.63744	0.01793	0.00070	656.578	23.440	-135.210	2.749	0.000	3.142	93563	-4.228	68.307	-7.314	-16.700	-0.784	0.219	-0.062	-2.469	-8.219	0.345	-0.833	0.358	-0.111	-0.076	1.230	0.203	-1.144	-0.269	0.793	0.576	
0.98730	0.00802	0.00034	657.356	22.832	-135.207	2.749	-0.000	-3.141	93845	-2.780	68.100	-5.919	-16.633	-0.330	0.121	-0.029	-2.717	-3.818	0.278	-0.446	0.552	-0.088	-0.076	1.233	0.202	-1.137	-0.269	0.796	0.574	
0.15066	0.00024	0.00187	657.329	22.684	-135.222	2.751	-0.000	-3.141	94081	-0.840	68.746	-4.047	-17.070	0.417	-0.045	0.106	-1.400	-1.188	0.841	-0.227	0.477	0.013	-0.076	1.233	0.202	-1.137	-0.269	0.796	0.574	
0.01816	0.07820	0.10232	657.314	22.675	-135.228	2.853	-0.000	-3.141	94363	-0.492	68.721	-3.701	-17.100	0.428	-0.070	0.111	-1.215	-0.012	0.992	-0.206	0.432	0.043	-0.077	1.233	0.203	-1.137	-0.269	0.796	0.496	
0.12573	0.20215	0.20424	657.302	22.551	-135.247	3.058	-0.000	-3.141	94644	-0.388	68.648	-3.602	-17.049	0.469	-0.063	0.109	-1.205	-0.269	1.019	-0.317	0.404	0.036	-0.077	1.233	0.202	-1.137	-0.269	0.796	0.294	
0.01014	0.10879	0.08361	657.300	22.542	-135.248	3.141	-0.000	-3.141	94923	-0.219	68.649	-3.551	-17.054	0.443	-0.059	0.103	-1.212	-0.457	1.025	-0.384	0.413	0.032	-0.077	1.233	0.202	-1.137	-0.269	0.796	0.185	
0.03992	0.00364	0.00036	657.301	22.502	-135.249	-3.142	-0.000	-3.141	95189	-0.347	68.648	-3.588	-17.050	0.445	-0.055	0.090	-1.229	-0.414	1.009	-0.376	0.425	0.017	-0.077	1.233	0.202	-1.137	-0.269	0.796	0.182	
0.50801	0.00025	0.00035	656.805	22.610	-135.229	3.141	0.000	-3.141	95440	-0.212	68.686	-3.701	-16.859	0.646	0.229	-0.034	-2.486	-0.277	1.306	-0.408	1.042	-0.029	-0.077	1.233	0.202	-1.138	-0.269	0.796	0.182	
7.04886	0.03586	0.00031	649.756	22.527	-135.213	-3.141	-0.000	-3.141	95722	-0.043	67.471	-3.634	-16.533	0.631	0.125	-0.047	-2.926	0.182	1.864	-0.214	1.240	-0.022	-0.079	1.221	0.202	-1.166	-0.272	0.780	0.187	
2.30119	0.01940	0.00027	647.455	22.512	-135.236	3.142	0.000	-3.141	95993	-0.023	67.952	-3.631	-16.537	0.616	0.046	-0.002	-2.162	-0.045	1.264	-0.277	0.859	0.009	-0.080	1.214	0.202	-1.182	-0.274	0.771	0.190	
0.03775	0.00010	0.00005	647.487	22.509	-135.216	3.142	0.000	-3.141	96259	0.050	67.578	-3.702	-15.988	0.639	0.153	-0.061	-2.758	-0.072	2.219	-0.317	1.163	-0.025	-0.080	1.214	0.202	-1.182	-0.274	0.771	0.190	
5.01586	0.02069	0.00016	642.472	22.505	-135.138	-3.142	0.000	-3.141	96518	-0.022	67.469	-3.566	-15.771	0.666	0.076	-0.045	-2.628	0.023	1.449	-0.258	1.173	-0.005	-0.081	1.207	0.202	-1.199	-0.276	0.762	0.193	
4.98497	0.03306	0.00018	637.487	22.508	-135.157	-3.142	0.000	-3.141	96800	-0.017	67.097	-3.696	-16.078	0.594	0.048	-0.019	-2.230	-0.051	1.537	-0.287	0.889	-0.008	-0.083	1.196	0.202	-1.225	-0.279	0.747	0.199	
0.10617	0.00025	0.00013	637.437	22.520	-135.250	3.142	0.000	-3.141	97081	-0.060	67.149	-3.704	-16.071	0.601	0.047	-0.014	-2.218	-0.040	1.418	-0.281	0.883	-0.006	-0.083	1.196	0.202	-1.225	-0.279	0.747	0.199	
1.60512	0.00243	0.00016	635.835	22.578	-135.171	3.141	0.000	-3.141	97271	0.134	67.044	-3.589	-15.676	0.681	0.139	-0.047	-2.706	0.125	1.143	-0.224	1.190	-0.004	-0.083	1.195	0.202	-1.227	-0.279	0.746	0.199	
7.07102	0.03683	0.00010	628.765	22.524	-135.208	3.141	0.000	-3.141	97553	0.094	66.333	-3.617	-15.593	0.624	0.033	-0.010	-2.827	0.047	1.319	-0.274	1.204	-0.023	-0.086	1.183	0.202	-1.256	-0.283	0.729	0.205	
1.33498	0.01286	0.00016	627.431	22.558	-135.251	-3.142	0.000	-3.141	97835	-0.079	66.454	-3.756	-15.626	0.612	0.046	-0.012	-2.227	-0.048	1.413	-0.300	0.893	0.006	-0.086	1.179	0.202	-1.267	-0.285	0.723	0.208	
0.04114	0.00009	0.00005	627.431	22.519	-135.240	3.142	0.000	-3.141	98070	-0.110	66.341	-3.733	-15.050	0.633	0.099	-0.091	-2.835	0.266	1.328	-0.196	1.227	-0.026	-0.086	1.179	0.202	-1.267	-0.285	0.723	0.208	
5.99600	0.02522	0.00025	621.436	22.512	-135.118	-3.141	0.000	-3.141	98352	-0.059	65.895	-3.754	-15.793	0.687	0.262	-0.063	-2.555	0.086	1.065	-0.254	1.139	-0.015	-0.088	1.171	0.202	-1.287	-0.288	0.712	0.212	
3.94243	0.02553	0.00019	617.494	22.507	-135.180	3.142	0.000	-3.141	98635	-0.086	65.786	-3.769	-15.330	0.622	0.139	-0.039	-2.335	-0.020	1.460	-0.315	1.034	-0.018	-0.089	1.163	0.202	-1.307	-0.291	0.700	0.217	
0.03687	0.00020	0.00003	617.480	22.519	-135.212	-3.142	0.000	-3.141	98881	-0.109	65.547	-3.745	-14.635	0.593	0.085	-0.043	-2.364	-0.070	1.311	-0.325	1.033	-0.016	-0.089	1.163	0.202	-1.307	-0.291	0.700	0.217	
2.84792	0.00787	0.00021	614.632	22.523	-135.203	-3.141	0.000	-3.141	99132	1.097	64.427	-1.882	-12.657	1.196	-1.253	0.062	-2.402	0.072	1.164	-0.257	1.096	-0.004	-0.090	1.160	0.202	-1.313	-0.292	0.697	0.218	
3.72127	0.02693	0.00102	610.928	22.689	-134.888	-3.141	0.001	-3.141	99414	2.624	61.305	-0.465	-10.746	1.295	-2.047	0.161	-7.279	4.812	-0.435	0.032	0.968	0.169	-0.091	1.151	0.202	-1.335	-0.295	0.684	0.223	
0.51163	0.00057	0.00098	610.496	22.634	-135.157	3.142	0.000	-3.141	99602	1.592	63.610	-1.998	-14.113	0.904	-0.756	0.107	-6.004	4.649	-0.780	0.243	0.660	0.190	-0.091	1.152	0.202	-1.335	-0.295	0.684	0.223	
2.46132	0.01136	0.00107	612.900	22.310	-135.575	3.141	-0.001	-3.141	99885	-0.302	65.538	-3.740	-15.256	0.364	-0.149	0.076	-0.899	-0.396	1.085	-0.370	0.228	-0.001	-0.091	1.156	0.202	-1.326	-0.293	0.690	0.221	
2.38032	0.01360	0.00067	615.237	22.652	-135.276	-3.142	-0.000	-3.141	100165	-0.286	65.348	-3.784	-15.180	0.419	-0.072	0.062	-1.346	-0.551	1.278	-0.474	0.468	-0.012	-0.090	1.160	0.202	-1.315	-0.292	0.696	0.219	
0.23215	0.00020	0.00034	615.432	22.626	-135.154	-3.142	-0.000	-3.141	100415	-0.402	65.391	-3.838	-15.206	0.415	-0.065	-0.092	-1.295	-0.522	1.173	-0.483	0.456	-0.040	-0.090	1.160	0.202	-1.315	-0.292	0.696	0.219	
0.01632	0.03105	0.05001	615.448	22.622	-135.156	3.092	-0.000	-3.141	100678	-0.405	65.297	-3.848	-15.246	0.471	-0.057	-0.173	-1.439	-0.599	1.189	-0.580	0.543	-0.163	-0.090	1.160	0.202	-1.315	-0.292	0.696	0.250	
0.00627	0.17498	0.19036	615.447	22.628	-135.157	2.901	-0.000	-3.141	100961	-0.407	65.345	-3.786	-15.166	0.364	-0.086	-0.187	-1.600	-0.424	1.209	-0.537	0.684	-0.208	-0.090	1.160	0.202	-1.315	-0.292	0.696	0.425	
0.00867	0.16229	0.14025	615.448	22.637	-135.157	2.761	0.000	-3.141	101243	-0.407	65.341	-3.830	-15.189	0.423	-0.084	-0.132	-1.605	-0.302	1.182	-0.494	0.717	-0.202	-0.090	1.160	0.202	-1.315	-0.292	0.696	0.587	
0.00146	0.02440	0.01207	615.449	22.638	-135.157	2.749	0.000	-3.141	101524	-0.387	65.332	-3.819	-15.202	0.428	-0.086	-0.118	-1.560	-0.256	1.182	-0.466	0.688	-0.160	-0.090	1.160	0.202	-1.315	-0.292	0.696	0.611	
0.00101	0.00001	0.00000	615.449	22.639	-135.157	2.749	0.000	-3.141	101776	-0.656	65.782	-3.912	-15.298	0.558	0.181	-0.156	-2.060	-0.293	0.992	-0.490	0.944	-0.186	-0.090	1.160	0.202	-1.315	-0.292	0.696	0.611	
4.90502	0.01792	0.00025	610.930	24.545	-135.138	2.749	0.000	-3.141	102040	-0.628	64.882	-3.779	-14.482	0.648	0.127	-0.168	-2.770	-0.126	1.356	-0.518	1.506	-0.179	-0.088	1.154	0.202	-1.329	-0.294	0.688	0.617	
5.10161	0.02904	0.00010	606.209	26.480	-135.182	2.749	0.000	-3.141	102322	-0.676	64.543	-3.816	-14.689	0.582	0.091	-0.083	-2.352	-0.040	1.017	-0.445	1.223	-0.118	-0.086	1.145	0.202	-1.351	-0.298	0.675	0.626	
0.05351	0.00025	0.00007	606.260	26.471	-135.196	2.749	0.000	-3.141	102557	-0.679	64.723	-3.892	-14.730	0.569	0.094	-0.082	-2.389	-0.135	1.154	-0.488	1.234	-0.121	-0.086	1.145	0.202	-1.351	-0.298	0.675	0.626	
1.82314	0.00232	0.00049	604.536	27.045	-135.332	2.749	-0.000	-3.141	102808	-0.691	64.075	-3.777	-14.108	0.642	0.087	-0.153	-3.135	-0.241	1.400	-0.585	1.629	-0.173	-0.086	1.145	0.202	-1.353	-0.298	0.674	0.627	
6.96586	0.03223	0.00052	598.145	29.813	-135.190	2.749	0.000	-3.141	103089	-0.692	63.916	-3.867	-14.265	0.558	0.113	-0.083	-2.615	0.035	1.171	-0.495	1.431	-0.164	-0.083	1.135	0.202	-1.377	-0.302	0.660	0.638	
1.17403	0.01121	0.00023	597.055	30.251	-135.181	2.749	0.000	-3.141	103368	-0.563	64.005	-3.829	-14.351	0.560	0.103	-0.083	-2.349	-0.159	1.099	-0.498	1.247	-0.125	-0.082	1.132	0.202	-1.385	-0.304	0.655	0.642	
0.06656	0.00012	0.00011	597.056	30.317	-135.182	2.749	0.000	-3.141	103554	-1.090	64.273	-4.114	-14.060	0.625	0.190	-0.157	-2.695	0.186	0.637	-0.392	1.370	-0.154	-0.082	1.132	0.202	-1.385	-0.304	0.655	0.642	
2.96654	0.01489	0.00075	594.424	31.660	-134.914	2.749	0.001	3.141	103788	1.639	59.959	-0.861	-9.542	1.077	-2.251	0.106	-5.448	5.011	0.324	-0.295	1.208	0.018	-0.080	1.127	0.202	-1.396	-0.306	0.648	0.647	
0.43714	0.00066	0.00080	594.097	31.497	-135.154	2.749	0.000	-3.141	104022	2.652	60.826	-0.586	-11.700	1.055	-1.635	0.125	-8.196	6.853	-0.521	-0.181	1.399	0.087	-0.080	1.127	0.202	-1.396	-0.306	0.648	0.647	
1.65609	0.00710	0.00151	595.352	30.529	-135.633	2.749	-0.001	-3.141	104305	-0.181	63.582	-3.710	-14.264	0.342	-0.170	0.074	-0.827	0.143	0.880	-0.245	0.294	0.001	-0.081	1.130	0.202	-1.392	-0.305	0.652	0.644	
3.36671	0.01561	0.00108	598.528	29.474	-135.267	2.749	-0.000	-3.141	104588	-0.122	64.004	-3.772	-14.347	0.389	-0.054	0.052	-1.350	0.323	1.031	-0.147	0.564	-0.013	-0.083	1.134	0.202	-1.379	-0.303	0.659	0.639	
0.13904	0.00032	0.00022	598.533	29.350	-135.203	2.749	0.000	-3.141	104867	-0.266	63.851	-3.869	-14.425	0.391	-0.047	0.007	-1.302	0.279	1.067	-0.171	0.564	-0.018	-0.083	1.134	0.202	-1.379	-0.302	0.659	0.639	
0.28365	0.00879	0.01907	598.533	29.634	-135.193	2.730	-0.000	-3.141	105070	-0.105	64.058	-3.846	-14.519	0.428	-0.050	-0.211	-1.517	0.132	1.156	-0.254	0.675	-0.171	-0.082	1.134	0.202	-1.379	-0.302	0.659	0.647	
0.02318	0.12958	0.15500	598.556	29.634	-135.194	2.575	0.000	-3.141	105352	-0.347	63.927	-3.883	-14.429	0.424	-0.048	-0.167	-1.455	0.448	1.078	-0.124	0.734	-0.180	-0.082	1.134	0.202	-1.379	-0.303	0.659	0.777	
0.02091	0.19581	0.18046	598.577	29.631	-135.195	2.394	0.000	-3.141	105633	-0.155	63.973	-3.824	-14.471	0.432	-0.029	-0.188	-1.394	0.626	1.097	-0.038	0.754	-0.171	-0.082	1.134	0.202	-1.379	-0.303	0.659	0.973	
0.03522	0.05876	0.03806	598.582	29.597	-135.195	2.356	0.000	-3.141	105914	-0.194	63.977	-3.833	-14.458	0.439	-0.023	-0.130	-1.393	0.697	1.071	0.002	0.760	-0.142	-0.083	1.134	0.202	-1.379	-0.303	0.659	1.032	
0.00780	0.00004	0.00002	598.583	29.589	-135.195	2.356	0.000	-3.141	106180	-0.867	63.649	-4.113	-13.884	0.396	-0.024	-0.141	-1.404	0.701	1.089	0.011	0.749	-0.132	-0.082	1.134	0.202	-1.379	-0.303	0.659	1.032	
2.88562	0.00624	0.00021	596.541	31.627	-135.218	2.356	0.000	-3.141	106429	-0.847	63.953	-3.956	-14.318	0.612	0.171	-0.153	-3.212	0.455	1.187	-0.179	1.828	-0.210	-0.081	1.133	0.202	-1.384	-0.303	0.656	1.035	
6.92539	0.02695	0.00020	591.661	36.542	-135.216	2.356	0.000	-3.141	106713	-0.406	63.685	-3.824	-14.153	0.559	0.068	-0.134	-2.720	0.551	1.244	-0.136	1.582	-0.178	-0.073	1.125	0.202	-1.402	-0.307	0.645	1.048	
0.15392	0.00490	0.00015	591.573	36.667	-135.202	2.356	0.000	-3.142	106996	-0.645	63.610	-3.835	-14.098	0.554	0.076	-0.123	-2.396	0.684	1.253	-0.086	1.424	-0.166	-0.072	1.124	0.202	-1.405	-0.307	0.643	1.050	
0.56749	0.00006	0.00046	591.102	36.975	-135.270	2.356	0.000	-3.141	107248	-0.686	62.975	-3.741	-14.184	0.659	0.228	-0.152	-2.602	1.129	1.309	0.107	1.644	-0.179	-0.072	1.124	0.202	-1.405	-0.307	0.643	1.050	
7.04230	0.02366	0.00028	586.180	42.013	-135.235	2.356	0.000	-3.141	107528	0.266	63.301	-3.276	-13.879	0.639	0.116	-0.155	-3.095	0.470	0.884	-0.133	1.844	-0.198	-0.065	1.118	0.202	-1.420	-0.310	0.634	1.062	
2.40375	0.01366	0.00009	584.476	43.708	-135.219	2.356	0.000	-3.141	107806	-0.570	63.131	-3.810	-13.778	0.570	0.103	-0.104	-2.363	0.856	1.111	0.014	1.429	-0.138	-0.061	1.115	0.202	-1.429	-0.312	0.629	1.069	
0.04802	0.00005	0.00008	584.472	43.755	-135.224	2.356	0.000	-3.141	108067	-1.312	63.195	-4.148	-14.078	0.633	0.213	-0.161	-2.454	0.923	0.757	0.021	1.506	-0.169	-0.061	1.115	0.202	-1.429	-0.312	0.629	1.069	
4.79384	0.01351	0.00014	581.070	47.133	-135.170	2.356	0.000	-3.141	108321	1.073	59.697	-2.667	-11.341	0.556	-0.986	0.000	-5.196	3.409	1.195	0.172	1.939	-0.109	-0.057	1.111	0.202	-1.438	-0.314	0.624	1.076	
2.56085	0.01400	0.00029	579.357	49.032	-135.043	2.356	0.001	-3.142	108603	0.048	58.221	-2.426	-7.976	0.571	-2.479	0.087	-6.831	8.129	0.116	0.314	1.568	0.033	-0.053	1.108	0.202	-1.447	-0.316	0.619	1.084	
0.30444	0.00046	0.00040	579.354	48.827	-135.268	2.356	0.000	-3.141	108836	0.214	62.529	-3.576	-13.547	0.406	-0.204	0.101	-2.227	4.076	0.525	0.124	0.572	0.076	-0.053	1.108	0.202	-1.447	-0.316	0.619	1.084	
3.48750	0.01240	0.00056	581.672	46.226	-135.429	2.356	-0.000	-3.141	109118	-0.141	61.999	-3.806	-13.489	0.320	-0.144	0.073	-0.677	0.384	0.887	-0.096	0.269	0.023	-0.057	1.111	0.202	-1.439	-0.314	0.624	1.077	
1.16179	0.00603	0.00039	582.579	45.533	-135.211	2.356	0.000	-3.141	109402	-0.167	62.645	-3.860	-13.768	0.380	-0.050	0.050	-0.909	0.868	1.061	0.107	0.460	0.001	-0.059	1.112	0.202	-1.435	-0.313	0.626	1.074	
0.03585	0.00009	0.00029	582.580	45.497	-135.214	2.356	0.000	-3.141	109638	-0.065	62.708	-3.797	-13.798	0.372	-0.060	-0.130	-1.187	0.720	1.082	0.020	0.643	-0.122	-0.059	1.112	0.202	-1.435	-0.313	0.626	1.074	
0.01954	0.05640	0.08094	582.585	45.478	-135.214	2.275	0.000	-3.141	109932	-0.184	62.750	-3.781	-13.781	0.442	-0.070	-0.062	-1.144	0.836	1.061	0.059	0.664	-0.155	-0.059	1.112	0.202	-1.435	-0.313	0.626	1.130	
0.03335	0.19603	0.20464	582.612	45.498	-135.207	2.070	0.000	-3.141	110214	-0.145	62.729	-3.810	-13.781	0.387	-0.072	-0.188	-0.935	0.959	1.034	0.147	0.629	-0.156	-0.059	1.112	0.202	-1.435	-0.313	0.626	1.326	
0.00917	0.13058	0.10404	582.620	45.499	-135.205	1.966	0.000	-3.141	110494	-0.222	62.733	-3.861	-13.798	0.410	-0.067	-0.096	-0.872	1.032	1.080	0.186	0.608	-0.129	-0.059	1.112	0.202	-1.435	-0.313	0.626	1.457	
0.00158	0.00992	0.00295	582.622	45.500	-135.204	1.963	0.000	-3.141	110744	-0.172	62.746	-3.844	-13.806	0.416	-0.069	-0.098	-0.839	1.022	1.061	0.184	0.585	-0.107	-0.059	1.112	0.202	-1.435	-0.313	0.626	1.467	
0.02778	0.00001	0.00005	582.616	45.527	-135.205	1.964	0.000	-3.141	110982	-0.411	62.889	-3.698	-14.022	0.522	0.154	-0.157	-1.672	1.286	1.271	0.328	1.102	-0.184	-0.059	1.112	0.202	-1.435	-0.313	0.626	1.467	
6.13820	0.01412	0.00016	580.318	51.219	-135.203	1.963	0.000	-3.141	111274	0.364	62.377	-3.140	-13.668	0.623	0.138	-0.154	-2.300	1.839	1.402	0.618	1.596	-0.208	-0.051	1.110	0.202	-1.441	-0.314	0.623	1.477	
3.79268	0.01434	0.00015	578.888	54.731	-135.216	1.963	0.000	3.142	111555	-0.721	62.681	-3.838	-13.598	0.536	0.091	-0.099	-1.847	1.648	1.178	0.513	1.284	-0.141	-0.043	1.108	0.202	-1.446	-0.316	0.619	1.486	
0.03528	0.00008	0.00005	578.884	54.766	-135.211	1.964	0.000	3.142	111805	-0.965	62.653	-3.971	-13.501	0.527	0.098	-0.113	-1.857	1.634	1.157	0.508	1.302	-0.145	-0.043	1.108	0.202	-1.446	-0.316	0.619	1.486	
2.53402	0.00358	0.00011	577.972	57.130	-135.221	1.963	0.000	3.142	112053	-1.155	62.764	-4.046	-13.231	0.574	0.147	-0.193	-2.754	1.701	0.905	0.594	1.829	-0.221	-0.041	1.108	0.202	-1.448	-0.316	0.619	1.489	
6.94032	0.01986	0.00030	575.189	63.488	-135.233	1.963	0.000	-3.141	112335	-0.581	62.466	-3.803	-13.536	0.547	0.171	-0.098	-2.205	1.911	1.227	0.683	1.562	-0.177	-0.030	1.105	0.202	-1.455	-0.318	0.614	1.503	
0.47273	0.00454	0.00019	575.051	63.940	-135.237	1.963	0.000	-3.142	112585	-0.695	62.486	-3.816	-13.475	0.555	0.148	-0.091	-2.014	1.760	1.158	0.615	1.431	-0.153	-0.027	1.104	0.202	-1.457	-0.318	0.613	1.506	
0.03422	0.00009	0.00006	575.054	63.974	-135.240	1.964	0.000	-3.142	112818	-1.445	63.068	-4.176	-13.573	0.576	0.194	-0.167	-2.174	1.799	1.071	0.628	1.546	-0.189	-0.027	1.104	0.202	-1.457	-0.318	0.613	1.506	
4.77518	0.00993	0.00037	573.127	68.344	-135.216	1.964	0.000	-3.141	113053	-0.928	62.508	-3.922	-13.243	0.590	0.153	-0.166	-2.215	2.050	1.268	0.729	1.624	-0.204	-0.022	1.103	0.202	-1.460	-0.319	0.611	1.513	
5.27831	0.01775	0.00046	571.280	73.288	-135.188	1.964	0.000	3.141	113334	-0.727	62.184	-3.851	-13.302	0.562	0.059	-0.100	-1.862	1.711	1.110	0.530	1.364	-0.147	-0.012	1.100	0.202	-1.467	-0.320	0.607	1.525	
0.08928	0.00028	0.00017	571.238	73.231	-135.242	1.964	0.000	-3.142	113596	-0.620	62.224	-3.785	-13.363	0.554	0.057	-0.098	-2.029	1.581	1.183	0.474	1.425	-0.148	-0.012	1.100	0.202	-1.467	-0.320	0.607	1.525	
1.36323	0.00094	0.00042	570.710	74.488	-135.265	1.963	0.000	-3.141	113847	0.738	60.282	-2.637	-11.201	0.565	-0.963	-0.043	-4.233	5.158	1.527	0.921	2.096	-0.174	-0.011	1.100	0.202	-1.467	-0.320	0.607	1.526	
2.56294	0.01012	0.00058	569.882	76.909	-135.130	1.964	0.001	3.141	114128	-0.402	58.995	-3.109	-9.484	0.476	-1.458	-0.008	-2.320	6.958	0.105	0.917	1.321	-0.072	-0.005	1.099	0.202	-1.470	-0.321	0.605	1.533	
0.27728	0.00015	0.00028	569.816	76.657	-135.224	1.964	0.000	3.142	114316	0.102	60.655	-3.400	-11.613	0.408	-0.885	0.096	-1.031	6.108	0.700	0.551	0.593	0.056	-0.005	1.099	0.202	-1.470	-0.321	0.605	1.533	
3.52751	0.00918	0.00103	570.746	73.261	-135.431	1.963	0.000	-3.141	114600	-0.372	62.205	-3.948	-13.395	0.354	-0.131	0.030	-0.304	1.050	1.362	0.117	0.269	0.022	-0.010	1.100	0.202	-1.467	-0.320	0.607	1.526	
1.27775	0.00480	0.00065	571.523	72.271	-135.207	1.964	0.000	-3.141	114858	-0.227	62.149	-3.836	-13.432	0.386	-0.068	0.024	-0.600	1.128	1.310	0.224	0.472	-0.023	-0.013	1.101	0.202	-1.466	-0.320	0.608	1.523	
0.02623	0.00007	0.00008	571.535	72.248	-135.206	1.963	0.000	-3.141	115097	-0.214	62.180	-3.828	-13.436	0.394	-0.068	-0.157	-0.866	1.173	1.300	0.242	0.636	-0.123	-0.013	1.101	0.202	-1.466	-0.320	0.608	1.523	
0.00614	0.05046	0.07351	571.540	72.245	-135.205	1.890	0.000	-3.141	115378	-0.277	62.181	-3.887	-13.500	0.442	-0.077	-0.056	-0.809	1.288	1.298	0.312	0.659	-0.169	-0.013	1.101	0.202	-1.466	-0.320	0.608	1.573	
0.00895	0.18918	0.20087	571.546	72.252	-135.203	1.689	0.001	-3.141	115658	-0.239	62.208	-3.880	-13.461	0.342	-0.084	-0.163	-0.590	1.446	1.307	0.452	0.636	-0.194	-0.013	1.101	0.202	-1.466	-0.320	0.608	1.763	
0.00604	0.14066	0.11410	571.550	72.247	-135.204	1.575	0.001	-3.141	115940	-0.210	62.174	-3.797	-13.435	0.423	-0.074	-0.125	-0.473	1.450	1.271	0.470	0.590	-0.174	-0.013	1.101	0.202	-1.466	-0.320	0.608	1.903	
0.00146	0.01267	0.00433	571.551	72.246	-135.204	1.571	0.001	-3.141	116223	-0.207	62.180	-3.811	-13.449	0.432	-0.074	-0.120	-0.431	1.410	1.280	0.446	0.553	-0.132	-0.013	1.101	0.202	-1.466	-0.320	0.608	1.916	
0.02068	0.00000	0.00004	571.550	72.267	-135.204	1.571	0.001	-3.141	116454	-0.630	61.844	-3.668	-13.518	0.416	-0.135	-0.176	-1.585	1.365	1.331	0.472	1.166	-0.226	-0.013	1.101	0.202	-1.466	-0.320	0.608	1.916	
5.97174	0.01155	0.00025	571.620	78.238	-135.235	1.571	0.000	3.141	116739	-0.183	62.229	-3.521	-13.572	0.317	-0.142	-0.178	-1.581	1.301	1.078	0.450	1.283	-0.311	-0.005	1.102	0.202	-1.463	-0.319	0.609	1.923	
4.00289	0.01301	0.00034	571.527	82.240	-135.280	1.571	0.001	-3.141	117020	-0.921	62.311	-3.946	-13.508	0.319	-0.061	-0.131	-1.330	1.510	1.207	0.558	1.061	-0.241	0.005	1.103	0.202	-1.461	-0.319	0.611	1.932	
0.09226	0.00014	0.00011	571.574	82.283	-135.214	1.571	0.001	-3.142	117285	-0.960	62.271	-3.919	-13.459	0.337	-0.058	-0.140	-1.240	1.588	1.182	0.594	1.052	-0.240	0.005	1.103	0.202	-1.461	-0.319	0.611	1.932	
2.30009	0.00248	0.00035	571.668	84.581	-135.180	1.571	0.001	3.141	117519	-0.874	62.102	-3.829	-13.458	0.292	-0.141	-0.175	-1.927	1.368	1.152	0.494	1.397	-0.309	0.006	1.103	0.202	-1.460	-0.319	0.611	1.933	
7.05900	0.01765	0.00016	571.658	91.640	-135.215	1.571	0.000	3.141	117802	-0.665	62.247	-3.714	-13.494	0.332	-0.122	-0.164	-1.906	1.446	1.246	0.534	1.381	-0.305	0.019	1.104	0.202	-1.456	-0.318	0.613	1.945	
0.59761	0.00424	0.00020	571.620	92.236	-135.243	1.571	0.000	3.142	118069	-0.794	62.368	-3.791	-13.542	0.331	-0.107	-0.159	-1.515	1.488	1.073	0.534	1.181	-0.272	0.022	1.105	0.202	-1.455	-0.318	0.614	1.947	
0.05282	0.00010	0.00009	571.605	92.286	-135.243	1.571	0.000	3.142	118254	-0.366	62.108	-3.548	-13.457	0.294	-0.172	-0.184	-2.161	1.408	1.115	0.538	1.498	-0.321	0.022	1.105	0.202	-1.455	-0.318	0.614	1.947	
5.96709	0.01172	0.00024	571.679	98.253	-135.243	1.571	0.000	3.141	118540	-0.086	62.014	-3.409	-13.529	0.305	-0.170	-0.179	-2.068	1.199	0.904	0.431	1.437	-0.306	0.030	1.106	0.202	-1.452	-0.317	0.616	1.955	
4.03574	0.01285	0.00015	571.643	102.289	-135.250	1.571	0.000	3.141	118821	-0.820	62.744	-3.864	-13.773	0.333	-0.115	-0.132	-1.385	1.237	0.882	0.423	1.094	-0.242	0.040	1.107	0.202	-1.449	-0.316	0.618	1.963	
0.01685	0.00008	0.00004	571.634	102.303	-135.250	1.571	0.000	3.142	119086	-0.972	62.645	-3.898	-13.707	0.331	-0.114	-0.135	-1.467	1.347	1.007	0.481	1.154	-0.248	0.040	1.107	0.202	-1.449	-0.316	0.618	1.963	
2.29769	0.00261	0.00018	571.640	104.600	-135.184	1.571	0.001	3.141	119319	-1.018	62.213	-3.750	-13.617	0.310	-0.175	-0.187	-2.334	1.319	0.928	0.491	1.585	-0.342	0.041	1.107	0.202	-1.448	-0.316	0.618	1.964	
6.76086	0.01749	0.00080	571.273	111.349	-135.357	1.571	0.001	-3.141	119600	-3.213	65.297	-6.637	-17.122	-0.232	1.824	-0.257	-5.834	-2.837	0.609	0.407	1.463	-0.408	0.054	1.109	0.202	-1.443	-0.315	0.621	1.975	
0.32622	0.00303	0.00060	571.543	111.527	-135.311	1.571	0.001	-3.141	119849	-4.277	65.754	-8.490	-18.289	-0.688	2.587	-0.330	-9.644	-5.188	0.995	0.169	1.591	-0.461	0.056	1.110	0.202	-1.443	-0.315	0.621	1.977	
0.84350	0.00202	0.00110	571.738	110.740	-135.079	1.571	0.000	3.141	120115	-0.371	62.513	-3.906	-13.494	0.423	0.082	0.012	-0.166	1.512	1.119	0.638	0.168	-0.016	0.055	1.109	0.203	-1.443	-0.315	0.621	1.976	
3.89200	0.00885	0.00087	571.597	106.859	-135.329	1.571	0.001	3.142	120396	-0.212	62.571	-3.768	-13.527	0.458	0.090	-0.028	0.072	2.090	1.138	0.838	0.308	-0.050	0.048	1.108	0.202	-1.446	-0.316	0.619	1.970	
0.17530	0.00150	0.00028	571.631	106.709	-135.245	1.571	0.001	3.141	120660	-0.328	62.670	-3.853	-13.650	0.450	0.075	-0.031	-0.064	2.028	1.155	0.801	0.373	-0.065	0.047	1.108	0.202	-1.446	-0.316	0.619	1.969	
0.01959	0.00198	0.00832	571.632	106.689	-135.248	1.579	0.001	3.141	120849	-0.231	62.604	-3.801	-13.590	0.528	0.062	0.029	-0.041	1.905	1.266	0.705	0.334	-0.006	0.047	1.108	0.202	-1.446	-0.316	0.619	1.967	
0.01201	0.10261	0.12854	571.623	106.697	-135.248	1.708	0.001	3.142	121131	-0.317	62.661	-3.788	-13.553	0.468	0.058	0.114	-0.419	1.863	1.259	0.646	0.492	-0.006	0.047	1.108	0.202	-1.446	-0.316	0.619	1.865	
0.01265	0.20424	0.19808	571.631	106.704	-135.242	1.906	0.001	-3.142	121412	-0.289	62.586	-3.789	-13.592	0.431	0.046	0.091	-0.690	1.768	1.206	0.559	0.580	0.024	0.047	1.108	0.202	-1.446	-0.316	0.619	1.661	
0.00513	0.08335	0.05761	571.630	106.710	-135.242	1.963	0.001	-3.142	121694	-0.276	62.622	-3.784	-13.588	0.455	0.041	0.019	-0.825	1.741	1.240	0.545	0.661	-0.022	0.047	1.108	0.202	-1.446	-0.316	0.619	1.577	
0.00203	0.00046	0.00010	571.630	106.712	-135.242	1.964	0.001	-3.142	121976	-0.272	62.599	-3.782	-13.586	0.448	0.037	0.016	-0.856	1.737	1.228	0.543	0.681	-0.034	0.047	1.108	0.202	-1.446	-0.316	0.619	1.577	
1.06847	0.00065	0.00071	571.140	107.660	-135.295	1.963	0.001	-3.141	122163	-0.885	62.786	-3.683	-13.532	0.549	0.100	-0.085	-1.663	2.075	1.104	0.722	1.312	-0.163	0.048	1.108	0.202	-1.446	-0.316	0.619	1.577	
7.13464	0.01787	0.00059	568.478	114.279	-135.289	1.963	0.001	-3.141	122442	-0.675	62.618	-3.694	-13.210	0.537	0.090	-0.103	-1.882	2.217	1.024	0.795	1.489	-0.197	0.059	1.106	0.202	-1.451	-0.317	0.616	1.590	
1.73885	0.00805	0.00025	567.740	115.853	-135.245	1.963	0.001	-3.141	122705	-0.774	62.458	-3.724	-13.453	0.528	0.110	-0.092	-2.088	1.849	1.090	0.668	1.504	-0.177	0.064	1.105	0.202	-1.453	-0.317	0.615	1.596	
0.04932	0.00007	0.00008	567.733	115.902	-135.245	1.963	0.001	-3.141	122961	-3.491	62.401	-5.048	-13.189	0.472	0.169	-0.125	-1.966	1.849	1.184	0.665	1.450	-0.173	0.064	1.105	0.202	-1.453	-0.317	0.615	1.596	
3.82312	0.00677	0.00008	566.268	119.433	-135.283	1.963	0.001	-3.141	123190	-1.350	62.727	-3.963	-13.492	0.563	0.180	-0.106	-2.310	2.016	0.947	0.779	1.695	-0.201	0.068	1.105	0.202	-1.455	-0.318	0.614	1.601	
6.22910	0.01832	0.00014	563.883	125.187	-135.299	1.964	0.001	-3.141	123473	-0.794	62.231	-3.767	-13.303	0.537	0.126	-0.105	-2.020	2.010	1.198	0.760	1.519	-0.185	0.079	1.103	0.202	-1.460	-0.319	0.611	1.614	
0.07052	0.00116	0.00014	563.920	125.145	-135.256	1.963	0.001	-3.141	123721	-0.789	62.395	-3.750	-13.432	0.540	0.127	-0.099	-2.098	1.956	1.111	0.729	1.552	-0.186	0.080	1.103	0.202	-1.460	-0.319	0.611	1.615	
0.28366	0.00007	0.00009	563.839	125.417	-135.266	1.964	0.001	-3.141	123954	-3.815	63.497	-7.091	-15.295	-0.358	1.611	-0.269	-2.294	1.976	0.859	0.899	1.620	-0.250	0.080	1.103	0.202	-1.460	-0.319	0.611	1.615	
3.20595	0.00947	0.00035	562.523	128.340	-135.297	1.963	0.001	-3.141	124235	-5.829	65.039	-9.518	-17.056	-0.710	2.281	-0.249	-7.664	-4.986	2.197	0.204	1.676	-0.320	0.086	1.102	0.202	-1.462	-0.319	0.610	1.621	
0.19995	0.00042	0.00029	562.589	128.524	-135.256	1.963	0.001	-3.141	124424	-1.839	64.326	-5.882	-15.825	0.087	1.171	-0.043	-5.496	-6.172	1.648	0.015	1.077	-0.203	0.086	1.102	0.202	-1.462	-0.319	0.610	1.621	
2.84806	0.00694	0.00073	564.044	126.081	-135.083	1.964	0.000	3.141	124703	-1.414	62.400	-4.478	-13.376	0.361	-0.070	0.046	-0.217	1.236	1.318	0.283	0.306	0.000	0.082	1.103	0.203	-1.460	-0.319	0.611	1.616	
