arturo-sol653/Programmierung-und-Regelung-fuer-Mensch-Roboterinteraktion/Robot Programming/iiwa-exercises/logs/log_wireloop_record_small.log
TRANS_DIST	JS_DIST	ROT_DIST	X	Y	Z	A	B	C	TIME	MT0	MT1	MT2	MT3	MT4	MT5	MT6	FX	FY	FZ	TA	TB	TC	J0	J1	J2	J3	J4	J5	J6	
0.00000	0.00000	0.00000	449.447	69.936	-135.101	-1.571	0.000	-3.141	0	0.034	52.541	-6.260	-7.482	0.539	0.148	-0.049	-0.204	-2.206	0.428	-1.434	-0.321	-0.052	-0.143	0.998	0.355	-1.861	-0.781	0.427	-0.781	
0.01808	0.00002	0.00003	449.461	69.937	-135.089	-1.571	0.000	-3.141	232	-0.015	52.377	-6.267	-7.510	0.531	0.142	-0.046	-0.164	-2.142	0.412	-1.406	-0.330	-0.049	-0.143	0.998	0.355	-1.861	-0.781	0.427	-0.781	
0.07344	0.00009	0.00011	449.408	69.946	-135.139	-1.571	0.000	-3.141	512	-0.017	52.622	-6.331	-7.606	0.531	0.147	-0.040	-0.120	-2.072	0.419	-1.371	-0.334	-0.045	-0.143	0.998	0.355	-1.861	-0.781	0.427	-0.781	
0.00168	0.00001	0.00000	449.407	69.947	-135.140	-1.571	0.000	-3.141	750	0.883	53.090	-6.050	-7.812	0.631	0.186	0.151	-1.175	-1.822	0.833	-1.089	0.219	0.068	-0.143	0.998	0.355	-1.861	-0.781	0.427	-0.781	
5.07945	0.01121	0.00012	449.337	64.868	-135.107	-1.571	0.000	-3.142	1025	0.233	52.649	-6.214	-7.240	0.626	0.157	0.140	-0.927	-1.979	0.890	-1.215	0.101	0.145	-0.151	0.997	0.355	-1.863	-0.783	0.426	-0.788	
5.01306	0.01796	0.00022	449.311	59.855	-135.117	-1.571	-0.000	3.142	1311	-0.003	52.469	-6.293	-7.398	0.565	0.146	0.110	-0.432	-2.210	0.695	-1.357	-0.196	0.078	-0.165	0.996	0.355	-1.865	-0.786	0.425	-0.798	
0.02281	0.00013	0.00007	449.324	59.873	-135.115	-1.571	-0.000	3.142	1560	0.262	52.606	-6.156	-7.488	0.563	0.138	0.108	-0.505	-2.098	0.860	-1.301	-0.168	0.073	-0.165	0.996	0.355	-1.865	-0.786	0.425	-0.798	
2.32121	0.00325	0.00019	449.313	57.552	-135.154	-1.571	-0.000	3.141	1795	0.344	52.856	-6.310	-7.867	0.651	0.207	0.139	-0.422	-2.190	0.892	-1.357	-0.151	0.123	-0.168	0.996	0.355	-1.866	-0.786	0.425	-0.801	
6.97428	0.02052	0.00020	449.400	50.579	-135.097	-1.571	-0.000	-3.142	2075	-0.253	52.364	-6.448	-7.364	0.570	0.163	0.115	-0.768	-1.858	0.855	-1.174	0.004	0.127	-0.183	0.996	0.355	-1.868	-0.789	0.423	-0.813	
0.66020	0.00539	0.00020	449.446	49.920	-135.097	-1.571	0.000	-3.141	2338	0.009	52.402	-6.315	-7.311	0.555	0.137	0.104	-0.572	-1.980	0.975	-1.217	-0.109	0.086	-0.187	0.995	0.355	-1.869	-0.789	0.423	-0.816	
0.39616	0.00011	0.00012	449.395	49.528	-135.113	-1.571	0.000	-3.142	2590	0.051	52.600	-6.230	-7.409	0.638	0.163	0.155	-0.699	-1.890	1.099	-1.144	0.032	0.161	-0.188	0.995	0.355	-1.869	-0.789	0.423	-0.816	
7.04296	0.01841	0.00016	449.338	42.485	-135.138	-1.571	0.000	3.142	2873	-1.014	52.510	-6.990	-7.199	0.589	0.202	0.130	-1.160	-1.947	1.262	-1.116	0.223	0.170	-0.201	0.995	0.355	-1.871	-0.791	0.422	-0.828	
2.59374	0.01116	0.00025	449.304	39.891	-135.116	-1.571	-0.000	3.142	3154	-0.020	52.492	-6.406	-7.297	0.561	0.149	0.082	-0.598	-2.078	0.823	-1.239	-0.102	0.078	-0.210	0.995	0.355	-1.872	-0.792	0.421	-0.835	
0.02977	0.00009	0.00007	449.302	39.862	-135.118	-1.571	-0.000	3.142	3377	0.731	52.364	-6.090	-7.401	0.618	0.162	0.160	-0.842	-1.986	1.041	-1.131	0.063	0.113	-0.210	0.995	0.355	-1.872	-0.792	0.421	-0.835	
4.76755	0.01048	0.00023	449.258	35.094	-135.127	-1.571	-0.000	3.141	3640	0.477	52.391	-6.272	-7.328	0.617	0.180	0.157	-1.231	-2.005	1.133	-1.135	0.238	0.170	-0.218	0.995	0.355	-1.873	-0.793	0.421	-0.842	
5.22980	0.01935	0.00041	449.425	29.867	-135.122	-1.571	0.000	-3.141	3922	0.114	52.451	-6.318	-7.310	0.573	0.083	0.087	-0.614	-2.052	1.134	-1.172	-0.093	0.103	-0.232	0.994	0.355	-1.874	-0.795	0.420	-0.855	
0.05236	0.00032	0.00014	449.439	29.914	-135.104	-1.571	0.000	-3.141	4190	0.327	52.445	-6.197	-7.304	0.574	0.086	0.093	-0.690	-1.912	1.116	-1.082	-0.048	0.097	-0.232	0.994	0.355	-1.874	-0.795	0.420	-0.855	
2.35992	0.00331	0.00031	449.337	27.557	-135.147	-1.571	0.000	3.142	4423	0.073	52.157	-6.490	-7.202	0.593	0.182	0.157	-1.459	-1.903	1.208	-1.023	0.355	0.185	-0.235	0.994	0.355	-1.874	-0.795	0.420	-0.857	
6.98550	0.02164	0.00008	449.385	20.571	-135.127	-1.571	-0.000	-3.142	4703	0.093	52.266	-6.299	-7.272	0.573	0.150	0.110	-1.307	-1.827	1.127	-1.007	0.308	0.169	-0.251	0.994	0.355	-1.875	-0.796	0.419	-0.871	
0.66820	0.00534	0.00018	449.351	19.904	-135.131	-1.571	-0.000	-3.142	4969	0.218	52.275	-6.283	-7.238	0.559	0.139	0.097	-0.838	-1.959	1.113	-1.105	0.067	0.109	-0.255	0.994	0.355	-1.876	-0.797	0.419	-0.875	
0.42381	0.00011	0.00012	449.355	19.480	-135.129	-1.571	-0.000	3.142	5219	0.609	52.316	-6.093	-7.308	0.627	0.145	0.159	-1.273	-1.830	1.166	-0.967	0.337	0.189	-0.255	0.994	0.355	-1.876	-0.797	0.419	-0.875	
7.00897	0.01905	0.00013	449.328	12.471	-135.136	-1.571	-0.000	3.141	5501	-0.880	52.385	-6.975	-7.137	0.585	0.195	0.133	-1.443	-1.750	1.324	-0.929	0.433	0.203	-0.269	0.994	0.355	-1.876	-0.797	0.419	-0.888	
2.56114	0.01166	0.00014	449.304	9.910	-135.123	-1.571	-0.000	3.142	5784	0.192	52.317	-6.362	-7.299	0.570	0.159	0.113	-0.935	-1.962	1.097	-1.094	0.109	0.130	-0.277	0.993	0.355	-1.877	-0.798	0.419	-0.896	
0.04844	0.00011	0.00008	449.334	9.874	-135.114	-1.571	-0.000	3.142	6004	1.035	52.274	-5.913	-7.311	0.571	0.120	0.159	-0.912	-1.835	1.222	-0.993	0.180	0.151	-0.277	0.993	0.355	-1.877	-0.798	0.419	-0.896	
4.70273	0.01075	0.00017	449.355	5.171	-135.128	-1.571	0.000	3.142	6267	0.586	52.130	-6.353	-7.175	0.547	0.161	0.157	-1.589	-1.673	1.252	-0.848	0.529	0.212	-0.285	0.993	0.355	-1.877	-0.798	0.419	-0.904	
5.31180	0.02033	0.00010	449.287	-0.140	-135.148	-1.571	0.000	3.141	6548	0.254	52.557	-6.365	-7.270	0.549	0.147	0.111	-0.847	-1.938	1.358	-1.062	0.084	0.126	-0.299	0.993	0.355	-1.877	-0.798	0.418	-0.918	
0.03164	0.00019	0.00010	449.294	-0.110	-135.145	-1.571	0.000	3.142	6814	0.583	52.329	-6.148	-7.267	0.550	0.132	0.122	-0.846	-1.906	1.171	-1.027	0.113	0.122	-0.299	0.993	0.355	-1.877	-0.798	0.418	-0.918	
2.72108	0.00457	0.00001	449.292	-2.831	-135.144	-1.571	0.000	3.142	7063	0.223	52.293	-6.495	-7.267	0.454	0.123	0.160	-1.614	-1.627	1.606	-0.752	0.572	0.187	-0.303	0.993	0.355	-1.877	-0.798	0.418	-0.921	
6.85201	0.02260	0.00037	449.470	-9.680	-135.099	-1.571	0.000	-3.141	7347	0.325	52.079	-6.217	-7.260	0.404	0.119	0.095	-1.335	-1.395	1.404	-0.651	0.459	0.102	-0.319	0.993	0.355	-1.877	-0.798	0.418	-0.937	
0.37816	0.00448	0.00017	449.489	-10.058	-135.101	-1.571	0.000	-3.141	7593	0.258	52.197	-6.305	-7.329	0.431	0.120	0.095	-0.960	-1.641	1.364	-0.837	0.224	0.085	-0.322	0.993	0.355	-1.876	-0.798	0.418	-0.941	
0.37089	0.00012	0.00004	449.481	-10.429	-135.101	-1.571	0.000	-3.141	7843	0.446	52.395	-6.411	-7.326	0.289	0.051	0.167	-1.184	-1.266	1.601	-0.549	0.418	0.146	-0.322	0.993	0.355	-1.876	-0.798	0.418	-0.941	
6.93105	0.01965	0.00028	449.357	-17.359	-135.114	-1.571	0.000	-3.142	8123	-0.895	52.342	-7.121	-7.063	0.222	0.045	0.151	-2.287	-0.904	2.170	-0.193	0.994	0.133	-0.335	0.994	0.355	-1.876	-0.797	0.419	-0.955	
2.68643	0.01248	0.00010	449.423	-20.044	-135.130	-1.571	0.000	-3.141	8404	0.301	52.271	-6.362	-7.318	0.249	0.013	0.072	-0.991	-1.115	1.526	-0.432	0.331	0.031	-0.344	0.994	0.355	-1.875	-0.796	0.419	-0.964	
0.04382	0.00009	0.00009	449.406	-20.084	-135.138	-1.571	0.000	-3.142	8623	0.995	52.306	-6.020	-7.333	0.253	-0.021	0.161	-1.761	-0.970	1.816	-0.271	0.770	0.103	-0.344	0.994	0.355	-1.875	-0.796	0.419	-0.964	
4.87402	0.01218	0.00002	449.372	-24.958	-135.126	-1.571	0.000	-3.142	8891	1.034	52.298	-6.018	-7.532	0.219	-0.050	0.153	-1.632	-0.574	1.923	-0.039	0.812	0.126	-0.352	0.994	0.355	-1.875	-0.796	0.419	-0.973	
5.21788	0.02043	0.00029	449.300	-30.175	-135.142	-1.571	-0.000	3.141	9172	0.473	52.207	-6.252	-7.302	0.229	-0.006	0.082	-0.992	-1.096	1.740	-0.376	0.375	0.036	-0.366	0.994	0.355	-1.874	-0.795	0.420	-0.988	
0.04531	0.00024	0.00005	449.325	-30.138	-135.138	-1.571	-0.000	3.141	9424	0.805	52.365	-6.102	-7.397	0.239	-0.009	0.099	-1.137	-1.082	1.693	-0.374	0.433	0.040	-0.366	0.994	0.355	-1.874	-0.795	0.420	-0.988	
2.37959	0.00403	0.00023	449.350	-32.518	-135.110	-1.571	0.000	-3.142	9659	0.651	52.207	-6.394	-7.350	0.198	-0.065	0.155	-2.059	-0.641	1.966	-0.001	0.981	0.125	-0.368	0.994	0.355	-1.874	-0.795	0.420	-0.991	
6.94092	0.02330	0.00011	449.323	-39.458	-135.150	-1.571	0.000	-3.142	9937	0.395	52.236	-6.338	-7.445	0.230	-0.070	0.119	-1.648	-0.525	1.806	0.008	0.786	0.116	-0.384	0.995	0.355	-1.872	-0.793	0.421	-1.008	
0.59116	0.00571	0.00016	449.352	-40.049	-135.151	-1.571	0.000	-3.142	10204	0.479	52.243	-6.312	-7.379	0.237	-0.072	0.110	-1.372	-0.766	1.759	-0.134	0.611	0.089	-0.387	0.995	0.355	-1.872	-0.792	0.421	-1.013	
0.24061	0.00008	0.00016	449.350	-40.289	-135.148	-1.571	0.000	-3.142	10438	0.711	52.100	-6.198	-7.257	0.170	-0.111	0.163	-1.101	-0.532	1.814	0.024	0.635	0.124	-0.387	0.995	0.355	-1.872	-0.792	0.421	-1.013	
7.17928	0.01993	0.00012	449.295	-47.468	-135.162	-1.571	0.000	3.142	10721	0.039	52.228	-6.583	-7.255	0.185	-0.087	0.106	-2.049	-0.676	2.255	0.031	1.021	0.118	-0.400	0.995	0.355	-1.870	-0.791	0.422	-1.028	
2.52602	0.01368	0.00013	449.302	-49.994	-135.164	-1.571	0.000	3.142	11020	0.535	52.352	-6.305	-7.520	0.238	-0.075	0.078	-1.234	-0.851	1.866	-0.183	0.535	0.061	-0.409	0.996	0.355	-1.869	-0.789	0.423	-1.038	
0.05203	0.00008	0.00009	449.307	-50.046	-135.161	-1.571	0.000	3.142	11256	0.413	52.180	-6.343	-7.677	0.186	-0.081	0.138	-1.608	-0.679	1.842	-0.020	0.821	0.110	-0.409	0.996	0.355	-1.869	-0.789	0.423	-1.038	
5.94362	0.01611	0.00008	449.340	-55.990	-135.155	-1.571	0.000	-3.142	11537	-0.378	52.114	-6.798	-7.472	0.168	-0.071	0.149	-1.531	-0.441	1.969	0.102	0.862	0.119	-0.419	0.996	0.355	-1.867	-0.787	0.424	-1.050	
4.12029	0.01806	0.00021	449.296	-60.110	-135.151	-1.571	-0.000	3.141	11819	0.641	52.320	-6.244	-7.518	0.214	-0.083	0.077	-1.209	-0.877	1.872	-0.186	0.518	0.056	-0.431	0.997	0.355	-1.865	-0.785	0.425	-1.064	
0.02171	0.00014	0.00004	449.279	-60.122	-135.152	-1.571	-0.000	3.141	12067	3.054	52.738	-5.126	-7.856	0.234	-0.120	0.139	-1.079	-0.899	1.787	-0.198	0.505	0.062	-0.431	0.997	0.355	-1.865	-0.785	0.425	-1.064	
3.79038	0.00908	0.00043	449.407	-63.910	-135.120	-1.571	0.000	-3.141	12317	0.493	52.459	-6.333	-7.370	0.177	-0.142	0.136	-1.870	-0.643	2.145	0.051	1.016	0.115	-0.436	0.997	0.355	-1.864	-0.784	0.425	-1.071	
5.85656	0.02395	0.00051	449.693	-69.759	-135.051	-1.571	0.000	-3.141	12600	2.457	50.396	-3.198	-4.749	0.184	-1.801	-0.095	-4.503	-6.081	1.118	-0.545	0.888	-0.063	-0.451	0.998	0.355	-1.861	-0.781	0.427	-1.089	
0.31342	0.00089	0.00051	449.435	-69.923	-135.123	-1.571	0.000	-3.141	12833	1.249	51.353	-4.618	-6.013	0.332	-0.993	-0.144	-3.537	-7.361	0.364	-0.813	0.244	-0.147	-0.451	0.998	0.355	-1.861	-0.781	0.427	-1.090	
2.57949	0.00746	0.00062	449.054	-67.373	-135.208	-1.571	-0.000	3.141	13114	-0.089	52.677	-6.360	-7.531	0.549	0.060	-0.116	0.801	-2.044	0.678	-1.133	-0.858	-0.084	-0.447	0.997	0.354	-1.862	-0.782	0.427	-1.084	
2.47480	0.01006	0.00055	449.374	-64.921	-135.116	-1.571	0.000	-3.141	13408	0.044	52.668	-6.361	-7.536	0.508	0.051	-0.064	0.447	-1.911	0.805	-1.044	-0.656	-0.056	-0.441	0.997	0.355	-1.863	-0.784	0.426	-1.077	
0.01736	0.00003	0.00003	449.379	-64.904	-135.116	-1.571	0.000	-3.141	13660	-0.023	52.497	-6.361	-7.460	0.497	0.053	0.070	0.433	-1.930	0.713	-1.035	-0.632	-0.044	-0.441	0.997	0.355	-1.863	-0.784	0.426	-1.077	
0.00931	0.01822	0.03212	449.379	-64.913	-135.116	-1.539	0.000	-3.141	13894	-0.001	52.674	-6.300	-7.495	0.534	0.042	0.151	0.029	-1.621	1.036	-0.779	-0.357	0.108	-0.441	0.997	0.355	-1.863	-0.784	0.426	-1.095	
0.00780	0.14761	0.17005	449.386	-64.909	-135.116	-1.369	0.000	-3.141	14170	0.001	52.553	-6.307	-7.452	0.400	0.020	0.181	0.374	-1.590	1.010	-0.694	-0.520	0.108	-0.441	0.997	0.355	-1.863	-0.784	0.426	-1.242	
0.01225	0.18458	0.16516	449.394	-64.900	-135.116	-1.203	0.000	-3.141	14453	-0.005	52.556	-6.364	-7.529	0.493	0.066	0.152	0.524	-1.532	1.017	-0.632	-0.568	0.121	-0.441	0.997	0.355	-1.863	-0.784	0.426	-1.427	
0.00579	0.04223	0.02531	449.399	-64.897	-135.116	-1.178	0.000	-3.141	14736	0.008	52.531	-6.351	-7.486	0.498	0.060	0.071	0.768	-1.602	0.892	-0.671	-0.722	0.049	-0.441	0.997	0.355	-1.863	-0.784	0.426	-1.469	
0.00324	0.00001	0.00000	449.401	-64.895	-135.116	-1.178	0.000	-3.141	14972	0.430	52.309	-6.274	-7.475	0.169	-0.100	0.156	-0.171	-1.442	1.376	-0.554	-0.164	0.116	-0.441	0.997	0.355	-1.863	-0.784	0.426	-1.469	
4.90131	0.01720	0.00035	451.177	-69.464	-135.150	-1.178	0.000	3.141	15234	0.509	52.947	-6.625	-7.706	0.151	-0.128	0.165	-1.741	-1.178	2.231	-0.251	1.125	0.159	-0.447	0.999	0.355	-1.857	-0.778	0.429	-1.482	
5.12315	0.02864	0.00006	453.130	-74.200	-135.166	-1.178	0.000	3.141	15515	0.625	52.873	-6.368	-7.707	0.250	-0.074	0.075	-0.881	-1.365	1.864	-0.395	0.560	0.081	-0.458	1.001	0.355	-1.848	-0.768	0.435	-1.504	
0.03608	0.00020	0.00009	453.110	-74.177	-135.146	-1.178	0.000	3.141	15766	0.741	52.972	-6.355	-7.889	0.247	-0.080	0.112	-0.954	-1.449	2.025	-0.431	0.610	0.085	-0.457	1.001	0.355	-1.848	-0.768	0.435	-1.504	
2.77932	0.00727	0.00011	454.218	-76.726	-135.109	-1.178	-0.000	3.142	16002	0.539	52.721	-6.465	-7.843	0.159	-0.171	0.162	-1.635	-1.275	2.454	-0.295	1.177	0.166	-0.460	1.002	0.355	-1.845	-0.766	0.436	-1.510	
6.90154	0.03184	0.00023	456.949	-83.064	-135.123	-1.178	-0.000	-3.141	16280	0.548	53.271	-6.458	-7.874	0.220	-0.134	0.098	-1.648	-1.477	2.127	-0.379	1.065	0.141	-0.471	1.005	0.355	-1.834	-0.755	0.442	-1.534	
0.32185	0.00613	0.00024	457.009	-83.380	-135.134	-1.178	0.000	-3.142	16515	0.686	53.386	-6.465	-7.993	0.244	-0.113	0.094	-1.068	-1.408	2.013	-0.382	0.717	0.099	-0.474	1.006	0.355	-1.832	-0.753	0.443	-1.539	
0.34792	0.00010	0.00027	457.144	-83.699	-135.101	-1.178	-0.000	-3.141	16749	1.215	53.129	-6.164	-8.124	0.186	-0.147	0.160	-1.340	-1.522	2.108	-0.378	1.043	0.154	-0.474	1.006	0.355	-1.832	-0.753	0.443	-1.539	
6.85711	0.02707	0.00039	459.922	-89.968	-135.107	-1.178	-0.000	-3.141	17030	4.678	52.920	-0.978	-6.635	0.756	-2.188	-0.129	-5.364	-7.048	2.141	-0.751	1.095	-0.001	-0.483	1.008	0.355	-1.822	-0.744	0.449	-1.560	
1.31493	0.01076	0.00018	460.439	-91.177	-135.088	-1.178	-0.000	-3.141	17257	3.557	52.035	-1.418	-5.235	0.691	-2.342	-0.210	-6.013	-11.023	2.137	-1.097	0.959	-0.095	-0.487	1.010	0.355	-1.818	-0.740	0.451	-1.568	
2.03627	0.00737	0.00109	459.144	-89.612	-135.227	-1.179	-0.000	3.141	17547	0.052	53.669	-6.383	-8.208	0.542	0.146	-0.039	1.118	-2.516	0.910	-0.834	-1.145	-0.065	-0.485	1.009	0.354	-1.821	-0.743	0.449	-1.562	
3.02869	0.01487	0.00066	458.284	-86.709	-135.125	-1.178	-0.000	3.141	17826	-0.020	53.691	-6.487	-8.084	0.482	0.127	0.005	1.129	-1.797	1.251	-0.764	-0.917	-0.013	-0.479	1.007	0.355	-1.826	-0.748	0.447	-1.551	
0.15715	0.00035	0.00031	458.439	-86.686	-135.104	-1.178	-0.000	-3.141	18075	0.073	53.708	-6.475	-8.114	0.475	0.121	0.018	1.122	-1.701	1.186	-0.723	-0.889	-0.021	-0.479	1.007	0.355	-1.826	-0.748	0.447	-1.551	
0.01634	0.00762	0.01756	458.454	-86.681	-135.101	-1.160	-0.000	-3.141	18310	0.013	53.611	-6.477	-8.080	0.506	0.113	0.189	0.682	-1.650	1.310	-0.650	-0.577	0.103	-0.479	1.007	0.355	-1.826	-0.748	0.447	-1.559	
0.01209	0.12477	0.15117	458.460	-86.671	-135.100	-1.009	-0.000	-3.141	18590	0.048	53.579	-6.458	-8.066	0.462	0.083	0.149	1.016	-1.406	1.293	-0.471	-0.704	0.109	-0.479	1.007	0.355	-1.826	-0.748	0.447	-1.684	
0.01035	0.19710	0.18196	458.457	-86.661	-135.101	-0.827	-0.000	-3.141	18870	0.009	53.615	-6.461	-8.082	0.498	0.099	0.175	1.182	-1.260	1.276	-0.369	-0.749	0.114	-0.479	1.007	0.355	-1.826	-0.748	0.446	-1.881	
0.00234	0.06296	0.04188	458.457	-86.658	-135.101	-0.785	-0.000	-3.141	19152	0.011	53.591	-6.480	-8.088	0.476	0.103	0.114	1.293	-1.251	1.254	-0.357	-0.811	0.087	-0.479	1.007	0.355	-1.826	-0.748	0.446	-1.944	
0.00084	0.00012	0.00005	458.458	-86.658	-135.101	-0.785	-0.000	-3.141	19418	1.428	53.439	-5.782	-9.337	0.338	0.098	0.177	1.367	-1.225	1.221	-0.346	-0.853	0.073	-0.479	1.007	0.355	-1.826	-0.748	0.446	-1.944	
3.79325	0.01363	0.00020	461.133	-89.347	-135.111	-0.785	-0.000	-3.142	19651	0.897	53.502	-6.481	-8.616	0.219	-0.110	0.166	-1.049	-1.576	1.846	-0.639	0.937	0.170	-0.481	1.009	0.355	-1.819	-0.742	0.450	-1.953	
6.17427	0.03616	0.00013	465.453	-93.758	-135.141	-0.786	-0.000	3.142	19932	0.590	53.878	-6.525	-8.527	0.271	-0.097	0.081	-0.285	-1.542	1.908	-0.569	0.467	0.101	-0.487	1.014	0.355	-1.802	-0.727	0.460	-1.978	
0.10982	0.00217	0.00029	465.366	-93.690	-135.144	-0.785	0.000	3.141	20181	0.707	54.012	-6.558	-8.452	0.270	-0.096	0.080	-0.407	-1.675	1.766	-0.637	0.528	0.107	-0.488	1.015	0.355	-1.801	-0.726	0.461	-1.979	
1.68064	0.00217	0.00024	466.577	-94.855	-135.074	-0.785	-0.000	3.141	20367	1.081	54.426	-6.464	-9.006	0.243	-0.081	0.169	-1.014	-1.811	2.119	-0.743	0.954	0.167	-0.488	1.015	0.355	-1.800	-0.725	0.461	-1.981	
7.17120	0.03617	0.00045	471.718	-99.854	-135.098	-0.785	-0.000	-3.141	20652	0.743	54.746	-6.569	-8.835	0.255	-0.117	0.119	-0.408	-1.777	2.548	-0.707	0.664	0.155	-0.494	1.020	0.355	-1.781	-0.710	0.471	-2.005	
1.16810	0.01229	0.00051	472.438	-100.774	-135.122	-0.785	0.000	3.141	20933	0.715	54.763	-6.614	-8.855	0.273	-0.090	0.112	-0.367	-1.911	1.981	-0.740	0.539	0.131	-0.496	1.022	0.355	-1.775	-0.705	0.475	-2.013	
0.54074	0.00009	0.00044	472.873	-101.091	-135.074	-0.785	-0.000	-3.141	21168	1.044	55.282	-6.701	-8.727	0.211	-0.174	0.152	-0.611	-2.031	2.255	-0.820	0.830	0.182	-0.496	1.022	0.355	-1.775	-0.705	0.475	-2.013	
7.00000	0.03095	0.00009	477.850	-106.013	-135.097	-0.785	-0.000	-3.141	21452	4.099	55.292	-2.655	-9.674	0.869	-1.176	-0.046	-4.567	-5.388	1.727	-0.749	1.007	0.054	-0.500	1.027	0.355	-1.759	-0.693	0.484	-2.034	
1.78209	0.01475	0.00017	479.135	-107.247	-135.128	-0.785	-0.000	-3.141	21700	5.415	55.976	-0.802	-9.693	1.214	-1.431	-0.129	-4.776	-9.469	1.387	-1.228	0.611	-0.049	-0.502	1.030	0.355	-1.751	-0.687	0.488	-2.043	
1.41819	0.00475	0.00074	477.878	-106.591	-135.146	-0.786	-0.000	3.141	21968	0.028	54.907	-6.573	-8.735	0.520	0.111	-0.036	1.056	-3.526	1.038	-0.564	-0.994	-0.059	-0.502	1.029	0.354	-1.754	-0.689	0.487	-2.040	
3.55376	0.01728	0.00031	475.524	-103.929	-135.132	-0.786	-0.000	-3.142	22248	0.167	54.762	-6.542	-8.792	0.464	0.061	0.015	1.540	-0.976	1.495	-0.192	-0.916	-0.005	-0.499	1.026	0.355	-1.763	-0.696	0.482	-2.029	
0.14621	0.00252	0.00024	475.624	-103.822	-135.133	-0.785	-0.000	-3.141	22496	0.105	55.124	-6.634	-8.935	0.456	0.053	0.017	1.364	-1.284	1.377	-0.326	-0.761	0.001	-0.499	1.026	0.355	-1.764	-0.697	0.481	-2.027	
0.00914	0.00265	0.00934	475.619	-103.829	-135.136	-0.776	-0.000	-3.141	22700	0.184	55.101	-6.588	-8.990	0.409	0.064	0.165	1.134	-1.375	1.491	-0.388	-0.578	0.104	-0.499	1.026	0.355	-1.764	-0.697	0.481	-2.030	
0.00633	0.10467	0.13127	475.618	-103.823	-135.138	-0.645	-0.000	-3.141	22979	0.083	55.110	-6.636	-9.006	0.541	0.077	0.189	1.445	-1.053	1.432	-0.216	-0.701	0.095	-0.499	1.026	0.355	-1.764	-0.697	0.481	-2.135	
0.01069	0.20212	0.19351	475.622	-103.832	-135.139	-0.451	-0.000	-3.142	23259	0.081	55.110	-6.660	-8.977	0.515	0.069	0.115	1.646	-0.781	1.382	-0.056	-0.768	0.099	-0.499	1.026	0.355	-1.764	-0.697	0.481	-2.337	
0.00679	0.08282	0.05853	475.624	-103.839	-135.139	-0.393	-0.000	-3.142	23542	0.098	55.112	-6.616	-8.973	0.505	0.068	0.081	1.752	-0.679	1.347	0.010	-0.822	0.062	-0.499	1.026	0.355	-1.764	-0.697	0.481	-2.419	
0.00092	0.00025	0.00001	475.625	-103.839	-135.139	-0.393	-0.000	-3.142	23806	0.125	55.188	-6.618	-9.222	0.508	0.049	0.104	1.765	-0.677	1.344	0.012	-0.825	0.055	-0.499	1.026	0.355	-1.764	-0.697	0.481	-2.420	
2.83949	0.00807	0.00015	478.254	-104.911	-135.115	-0.393	-0.000	-3.142	24053	0.055	55.388	-6.588	-9.768	0.252	-0.101	0.110	0.627	-0.470	1.114	-0.015	-0.075	0.020	-0.499	1.027	0.355	-1.759	-0.693	0.484	-2.424	
6.78212	0.03641	0.00030	484.500	-107.556	-135.143	-0.393	-0.000	3.142	24335	0.050	55.677	-6.761	-9.518	0.276	-0.093	0.088	0.686	-0.450	1.016	0.033	-0.142	0.008	-0.498	1.034	0.355	-1.737	-0.678	0.496	-2.444	
0.22093	0.00638	0.00021	484.698	-107.652	-135.127	-0.393	0.000	3.141	24569	-0.022	55.719	-6.750	-9.484	0.285	-0.093	0.084	0.942	-0.513	1.282	0.003	-0.248	0.005	-0.498	1.035	0.355	-1.733	-0.675	0.499	-2.448	
0.45457	0.00006	0.00037	485.124	-107.809	-135.112	-0.393	-0.000	3.142	24803	-0.030	56.188	-6.575	-9.263	0.227	-0.218	0.116	0.801	-0.260	1.157	0.072	-0.106	0.016	-0.498	1.035	0.355	-1.733	-0.675	0.499	-2.448	
6.81387	0.03028	0.00027	491.423	-110.407	-135.153	-0.393	-0.000	3.142	25083	-0.371	56.390	-7.039	-9.127	0.209	-0.150	0.107	0.637	-0.257	1.165	0.148	-0.117	0.003	-0.498	1.041	0.355	-1.714	-0.662	0.509	-2.464	
2.70709	0.01953	0.00023	493.916	-111.464	-135.157	-0.393	0.000	3.141	25361	-0.090	56.473	-6.861	-9.773	0.292	-0.071	0.068	1.123	-0.352	1.154	0.069	-0.345	-0.011	-0.497	1.045	0.355	-1.702	-0.655	0.516	-2.474	
0.01837	0.00006	0.00003	493.918	-111.479	-135.148	-0.393	0.000	3.141	25579	-0.081	56.246	-6.699	-9.600	0.228	-0.209	0.113	0.789	-0.262	1.419	0.088	-0.188	0.007	-0.497	1.045	0.355	-1.702	-0.655	0.516	-2.474	
5.12321	0.01874	0.00042	498.679	-113.372	-135.138	-0.393	-0.000	-3.142	25842	-0.046	57.149	-6.840	-10.365	0.261	-0.105	0.126	0.561	-0.168	1.154	0.135	-0.087	0.008	-0.497	1.049	0.355	-1.690	-0.647	0.523	-2.483	
4.94035	0.03032	0.00033	503.230	-115.293	-135.159	-0.393	0.000	3.141	26126	0.289	57.433	-6.559	-10.449	0.372	-0.080	0.086	0.843	-0.839	1.137	-0.025	-0.289	0.006	-0.496	1.055	0.355	-1.670	-0.636	0.534	-2.498	
0.06761	0.00025	0.00007	503.163	-115.291	-135.151	-0.393	0.000	3.141	26359	0.186	57.765	-6.697	-11.218	0.402	-0.006	0.094	0.931	-0.479	1.089	0.084	-0.328	-0.001	-0.496	1.055	0.355	-1.670	-0.636	0.534	-2.499	
2.83413	0.00768	0.00021	505.820	-116.275	-135.176	-0.393	-0.000	-3.142	26609	4.246	60.618	-2.429	-14.037	1.510	-0.212	-0.126	-5.171	-5.908	0.543	-0.279	0.419	-0.116	-0.496	1.057	0.355	-1.665	-0.633	0.537	-2.502	
2.29858	0.01781	0.00058	508.009	-116.975	-135.228	-0.392	0.000	-3.142	26856	7.204	62.262	0.416	-15.464	2.144	-0.349	-0.225	-6.005	-11.528	3.093	-0.610	-0.015	-0.240	-0.495	1.061	0.355	-1.654	-0.627	0.543	-2.511	
1.12966	0.00464	0.00121	506.912	-117.096	-134.989	-0.393	-0.001	3.141	27126	1.873	57.991	-4.893	-11.155	0.898	-0.120	-0.115	-0.516	-7.355	0.948	-0.429	-0.788	-0.148	-0.496	1.060	0.355	-1.656	-0.628	0.542	-2.509	
3.46842	0.01732	0.00050	503.620	-116.005	-135.042	-0.393	-0.001	3.141	27407	0.458	57.035	-6.649	-10.188	0.476	0.057	-0.019	1.791	-0.869	1.454	-0.124	-0.795	-0.005	-0.497	1.056	0.354	-1.668	-0.635	0.535	-2.500	
0.64289	0.00268	0.00084	503.550	-115.379	-135.170	-0.393	-0.000	-3.142	27620	0.159	58.527	-6.991	-10.487	0.305	-0.016	0.064	1.900	-0.649	1.833	-0.035	-0.753	-0.020	-0.496	1.056	0.355	-1.670	-0.636	0.534	-2.499	
7.20700	0.01734	0.00012	503.604	-115.436	-127.964	-0.393	-0.000	-3.142	27890	0.290	56.199	-6.573	-10.687	0.250	-0.150	0.131	1.823	-0.769	2.607	-0.070	-0.457	0.012	-0.496	1.045	0.355	-1.674	-0.626	0.539	-2.506	
18.83910	0.07140	0.00026	503.498	-115.432	-109.125	-0.393	-0.000	3.141	28173	-0.098	55.344	-6.415	-11.392	0.291	-0.103	0.119	0.989	-0.580	1.949	-0.056	-0.183	0.017	-0.496	1.001	0.355	-1.690	-0.585	0.558	-2.536	
4.00329	0.02382	0.00015	503.438	-115.407	-105.122	-0.393	0.000	3.141	28452	0.132	56.481	-6.487	-11.276	0.292	-0.027	0.089	1.374	-0.388	1.471	0.027	-0.431	-0.010	-0.495	0.987	0.355	-1.695	-0.571	0.566	-2.546	
0.00898	0.00429	0.01714	503.432	-115.400	-105.124	-0.410	0.000	3.141	28641	0.094	56.350	-6.410	-11.292	0.315	-0.053	-0.138	1.763	-0.400	1.787	0.114	-0.670	-0.134	-0.495	0.987	0.355	-1.695	-0.571	0.566	-2.541	
0.00409	0.20782	0.26125	503.429	-115.398	-105.125	-0.671	0.000	3.141	28922	0.090	56.346	-6.571	-11.178	0.166	-0.066	0.259	1.496	-0.894	1.485	-0.120	-0.642	-0.108	-0.495	0.987	0.355	-1.695	-0.571	0.566	-2.333	
0.00662	0.42937	0.43528	503.424	-115.394	-105.127	-1.106	-0.000	3.141	29202	0.093	56.417	-6.552	-11.313	0.319	-0.056	0.131	0.823	-1.543	1.657	-0.450	-0.493	-0.112	-0.495	0.987	0.355	-1.695	-0.571	0.566	-1.904	
0.00582	0.44601	0.44924	503.418	-115.392	-105.129	-1.556	-0.000	3.141	29486	0.097	56.496	-6.493	-11.287	0.569	-0.044	-0.379	0.209	-1.790	1.539	-0.668	-0.318	-0.135	-0.495	0.987	0.355	-1.695	-0.571	0.566	-1.458	
0.00158	0.38209	0.34422	503.420	-115.392	-105.128	-1.900	-0.000	3.142	29768	0.095	56.409	-6.500	-11.269	0.321	-0.032	-0.107	-0.189	-1.785	1.572	-0.757	-0.171	-0.143	-0.495	0.987	0.355	-1.695	-0.571	0.566	-1.076	
0.00028	0.10121	0.06370	503.419	-115.392	-105.128	-1.963	-0.000	3.142	30048	0.118	56.374	-6.497	-11.261	0.314	-0.033	-0.042	-0.303	-1.709	1.574	-0.719	-0.106	-0.105	-0.495	0.987	0.355	-1.695	-0.571	0.566	-0.975	
0.00023	0.00552	0.01985	503.420	-115.392	-105.128	-1.983	-0.000	3.142	30280	0.028	56.429	-6.491	-11.274	0.322	-0.052	0.130	-0.392	-1.703	1.568	-0.764	-0.096	-0.127	-0.495	0.987	0.355	-1.695	-0.571	0.566	-0.969	
0.00032	0.21560	0.26594	503.419	-115.392	-105.128	-2.249	-0.000	3.142	30561	0.052	56.420	-6.487	-11.325	0.489	-0.043	-0.363	-0.993	-1.529	1.531	-0.806	0.175	-0.138	-0.495	0.987	0.355	-1.695	-0.571	0.566	-0.754	
0.00052	0.43605	0.44351	503.420	-115.392	-105.128	-2.693	-0.000	-3.142	30844	0.130	56.401	-6.537	-11.197	0.420	-0.026	0.131	-1.534	-0.951	1.568	-0.675	0.475	-0.136	-0.495	0.987	0.355	-1.695	-0.571	0.566	-0.318	
0.00033	0.43649	0.43816	503.420	-115.392	-105.128	-3.131	-0.000	-3.142	31123	0.079	56.500	-6.575	-11.225	0.262	-0.070	0.315	-1.772	-0.234	1.571	-0.448	0.701	-0.139	-0.495	0.987	0.355	-1.695	-0.571	0.566	0.119	
0.00064	0.38032	0.34375	503.420	-115.391	-105.128	2.808	-0.000	-3.141	31402	0.112	56.359	-6.503	-11.276	0.326	-0.030	-0.130	-1.827	0.124	1.506	-0.332	0.828	-0.184	-0.495	0.987	0.355	-1.695	-0.571	0.566	0.499	
0.00023	0.09664	0.05937	503.420	-115.391	-105.128	2.749	-0.000	-3.141	31684	0.073	56.382	-6.514	-11.268	0.338	-0.027	-0.122	-1.788	0.243	1.534	-0.275	0.802	-0.144	-0.495	0.987	0.355	-1.695	-0.571	0.566	0.596	
1.23316	0.00149	0.00031	503.517	-115.407	-106.357	2.749	0.000	-3.142	31904	0.148	55.669	-6.643	-10.900	0.534	0.151	-0.132	-1.486	0.358	1.065	-0.195	0.931	-0.105	-0.495	0.987	0.355	-1.694	-0.572	0.565	0.597	
16.20460	0.04999	0.00011	503.500	-115.428	-122.562	2.749	0.000	-3.142	32184	0.039	58.613	-7.072	-10.865	0.605	0.201	-0.149	-1.725	0.728	0.012	0.052	0.984	-0.058	-0.496	1.018	0.355	-1.684	-0.601	0.551	0.617	
12.36348	0.05752	0.00009	503.496	-115.439	-134.925	2.749	0.000	-3.141	32464	0.335	57.645	-6.912	-10.621	0.560	0.185	-0.091	-1.633	0.689	0.419	0.012	0.953	-0.033	-0.496	1.053	0.355	-1.670	-0.633	0.535	0.641	
0.23617	0.00365	0.00027	503.583	-115.425	-135.144	2.749	0.000	3.142	32699	0.245	56.836	-6.817	-10.259	0.532	0.139	-0.053	-1.631	0.822	0.820	0.063	0.924	-0.026	-0.496	1.056	0.355	-1.669	-0.636	0.534	0.643	
0.01223	0.00702	0.01662	503.595	-115.422	-135.145	2.766	0.000	3.142	32934	0.388	57.390	-6.826	-10.401	0.519	0.122	0.253	-1.352	0.937	0.956	0.175	0.695	0.123	-0.496	1.056	0.355	-1.669	-0.636	0.534	0.636	
0.00558	0.12272	0.14911	503.595	-115.417	-135.146	2.915	0.000	-3.142	33214	0.292	57.135	-6.855	-10.294	0.589	0.112	0.056	-1.524	0.733	1.065	0.070	0.719	0.130	-0.496	1.056	0.355	-1.669	-0.636	0.534	0.513	
0.00679	0.19838	0.18506	503.597	-115.411	-135.142	3.100	0.000	-3.142	33495	0.286	57.195	-6.849	-10.337	0.544	0.099	0.155	-1.559	0.563	0.948	0.002	0.703	0.150	-0.496	1.056	0.355	-1.670	-0.636	0.534	0.314	
0.00178	0.06439	0.04176	503.596	-115.410	-135.143	3.142	0.000	-3.141	33775	0.333	57.170	-6.816	-10.342	0.541	0.099	0.106	-1.608	0.484	1.020	-0.042	0.731	0.125	-0.496	1.056	0.355	-1.670	-0.636	0.534	0.250	
0.00040	0.00003	0.00002	503.595	-115.410	-135.143	3.142	0.000	-3.141	34038	-0.358	56.874	-7.051	-11.266	0.393	0.085	0.137	-1.598	0.615	0.999	0.013	0.711	0.127	-0.496	1.056	0.355	-1.670	-0.636	0.534	0.250	
4.01763	0.01293	0.00018	507.613	-115.405	-135.108	3.141	0.000	-3.141	34288	-0.206	57.846	-6.840	-10.556	0.281	-0.198	0.123	-0.472	0.291	1.151	-0.122	0.102	0.035	-0.494	1.058	0.355	-1.661	-0.631	0.539	0.245	
5.85383	0.03167	0.00033	513.466	-115.353	-135.181	3.142	-0.000	-3.141	34574	-0.055	58.203	-6.989	-10.819	0.341	-0.070	0.108	-0.941	-0.043	1.323	-0.260	0.305	0.030	-0.488	1.066	0.355	-1.638	-0.619	0.552	0.235	
0.10532	0.00104	0.00013	513.501	-115.423	-135.110	3.142	0.000	-3.141	34853	-0.075	58.059	-6.946	-10.872	0.328	-0.086	0.111	-1.137	-0.030	1.219	-0.271	0.375	0.025	-0.488	1.066	0.355	-1.638	-0.618	0.552	0.234	
2.67393	0.00658	0.00004	516.174	-115.445	-135.092	3.142	0.000	-3.141	35039	0.457	58.047	-6.518	-10.884	0.277	-0.197	0.128	-0.471	-0.246	1.134	-0.355	0.075	0.016	-0.486	1.068	0.355	-1.633	-0.616	0.555	0.232	
6.84578	0.03204	0.00015	523.020	-115.439	-135.144	3.141	-0.000	-3.141	35321	0.065	58.648	-6.965	-11.309	0.321	-0.064	0.091	-0.779	-0.059	1.084	-0.293	0.193	0.005	-0.480	1.076	0.355	-1.610	-0.605	0.568	0.222	
0.37272	0.00670	0.00019	523.389	-115.390	-135.153	-3.142	-0.000	-3.141	35600	0.109	58.628	-6.897	-11.169	0.322	-0.074	0.091	-1.223	-0.132	1.285	-0.306	0.399	0.005	-0.479	1.077	0.355	-1.605	-0.602	0.571	0.219	
0.69739	0.00010	0.00060	524.072	-115.489	-135.048	-3.142	0.000	-3.141	35851	0.280	59.257	-6.729	-11.110	0.263	-0.214	0.138	-0.583	-0.081	1.233	-0.277	0.111	0.023	-0.479	1.077	0.355	-1.605	-0.602	0.571	0.219	
6.76508	0.02816	0.00045	530.836	-115.424	-135.107	-3.142	-0.000	-3.141	36129	1.191	60.744	-6.323	-12.422	0.486	-0.000	0.096	-0.266	-0.047	1.043	-0.274	0.041	0.023	-0.474	1.084	0.355	-1.585	-0.593	0.582	0.210	
2.64706	0.01734	0.00008	533.482	-115.366	-135.154	-3.141	-0.000	-3.141	36411	1.331	60.636	-5.765	-13.064	0.743	0.145	0.038	0.385	3.038	1.587	-0.039	0.255	-0.032	-0.470	1.089	0.355	-1.572	-0.587	0.589	0.205	
0.06968	0.00012	0.00010	533.504	-115.418	-135.114	-3.142	0.000	-3.141	36624	3.069	63.035	-4.539	-16.547	1.281	1.194	-0.064	2.293	2.990	1.109	-0.113	-0.064	-0.053	-0.470	1.089	0.355	-1.572	-0.587	0.589	0.205	
1.83017	0.00912	0.00058	535.307	-115.190	-135.331	-3.141	-0.000	-3.142	36893	4.994	65.862	-2.916	-19.219	1.979	1.577	-0.176	5.896	9.170	2.650	0.214	0.078	-0.199	-0.468	1.091	0.355	-1.566	-0.584	0.593	0.202	
0.29505	0.00068	0.00076	535.226	-115.350	-135.097	3.141	0.000	-3.142	37127	2.789	61.740	-4.330	-13.834	1.283	0.332	-0.119	1.557	8.844	2.177	0.373	0.699	-0.128	-0.469	1.091	0.355	-1.566	-0.584	0.592	0.203	
3.38927	0.01494	0.00147	531.962	-116.235	-134.863	3.141	0.001	-3.141	37407	0.613	59.573	-6.903	-11.316	0.514	0.039	-0.038	-2.596	0.481	1.684	-0.152	1.129	-0.009	-0.472	1.087	0.354	-1.576	-0.589	0.586	0.207	
1.64119	0.00775	0.00146	530.562	-115.426	-135.145	-3.142	0.000	-3.141	37648	0.555	59.381	-6.889	-11.352	0.508	0.014	-0.005	-2.131	0.403	1.696	-0.037	0.828	0.038	-0.473	1.085	0.355	-1.582	-0.592	0.583	0.209	
0.07525	0.00034	0.00249	530.488	-115.424	-135.156	-3.139	-0.000	-3.141	37902	0.503	59.470	-6.956	-11.403	0.519	0.039	0.123	-2.047	0.663	1.706	0.140	0.777	0.149	-0.473	1.085	0.355	-1.582	-0.592	0.583	0.209	
0.01973	0.07934	0.10481	530.470	-115.419	-135.160	-3.034	-0.000	-3.141	38187	0.495	59.459	-6.988	-11.416	0.489	0.052	0.099	-2.145	0.400	1.690	0.063	0.816	0.160	-0.473	1.085	0.355	-1.582	-0.592	0.583	0.130	
0.00802	0.20036	0.20163	530.462	-115.417	-135.162	-2.833	-0.000	-3.141	38464	0.499	59.456	-6.966	-11.437	0.507	0.048	0.105	-2.201	-0.045	1.664	-0.119	0.826	0.138	-0.473	1.085	0.355	-1.582	-0.592	0.583	-0.070	
0.00454	0.10950	0.08363	530.458	-115.416	-135.162	-2.749	-0.000	-3.141	38745	0.500	59.449	-6.955	-11.408	0.483	0.034	0.091	-2.166	-0.208	1.711	-0.177	0.802	0.109	-0.473	1.085	0.355	-1.582	-0.592	0.583	-0.180	
0.00105	0.00343	0.00025	530.457	-115.416	-135.163	-2.749	-0.000	-3.141	39011	0.497	59.460	-6.959	-11.416	0.489	0.029	0.086	-2.149	-0.205	1.705	-0.178	0.789	0.102	-0.473	1.085	0.355	-1.582	-0.592	0.583	-0.183	
2.02577	0.00214	0.00043	532.372	-114.764	-135.061	-2.749	0.000	-3.141	39260	0.247	59.694	-6.991	-11.998	0.311	-0.085	0.122	-0.569	-0.319	0.622	-0.259	0.072	0.030	-0.472	1.086	0.355	-1.581	-0.591	0.584	-0.183	
7.22476	0.02923	0.00027	538.999	-111.888	-135.144	-2.749	-0.000	-3.141	39559	0.031	60.236	-7.090	-11.913	0.352	-0.080	0.102	-0.656	-0.220	0.931	-0.218	0.108	0.027	-0.461	1.093	0.355	-1.559	-0.582	0.596	-0.187	
0.78126	0.00766	0.00007	539.728	-111.608	-135.130	-2.749	-0.000	-3.141	39809	0.101	59.745	-6.915	-11.713	0.350	-0.082	0.096	-1.084	-0.478	1.412	-0.358	0.276	0.020	-0.459	1.095	0.355	-1.554	-0.579	0.599	-0.188	
0.57558	0.00011	0.00047	540.278	-111.443	-135.082	-2.749	0.000	-3.141	39999	0.081	60.101	-6.995	-12.088	0.279	-0.145	0.113	-0.662	-0.237	1.179	-0.251	0.063	0.014	-0.459	1.095	0.355	-1.554	-0.579	0.599	-0.188	
6.97001	0.02438	0.00018	546.698	-108.732	-135.141	-2.749	0.000	-3.141	40278	0.579	60.856	-6.557	-12.089	0.324	-0.153	0.103	-0.355	-0.424	1.203	-0.292	-0.012	0.004	-0.450	1.102	0.355	-1.536	-0.572	0.609	-0.190	
2.39069	0.01484	0.00053	548.885	-107.766	-135.172	-2.749	-0.000	-3.142	40559	0.090	60.585	-7.006	-12.174	0.327	-0.050	0.090	-1.118	-0.676	1.354	-0.433	0.309	0.000	-0.444	1.105	0.355	-1.525	-0.568	0.615	-0.192	
0.07430	0.00007	0.00012	548.946	-107.726	-135.155	-2.749	-0.000	-3.142	40788	0.208	60.813	-6.813	-12.667	0.286	-0.108	0.114	-1.010	-0.173	1.038	-0.153	0.188	0.020	-0.444	1.105	0.355	-1.525	-0.568	0.615	-0.192	
6.37628	0.02060	0.00028	554.862	-105.348	-135.146	-2.749	0.000	-3.141	41076	2.020	63.057	-6.200	-14.502	0.623	0.648	0.025	-0.218	-0.508	0.680	-0.431	0.000	-0.007	-0.437	1.111	0.355	-1.510	-0.562	0.624	-0.194	
3.48532	0.01919	0.00063	557.965	-103.769	-135.304	-2.749	-0.000	3.141	41356	2.112	65.356	-5.754	-17.667	1.180	1.432	-0.097	3.004	5.982	2.559	0.063	0.011	-0.149	-0.430	1.116	0.355	-1.496	-0.557	0.632	-0.196	
0.28779	0.00043	0.00042	558.165	-103.898	-135.143	-2.749	-0.000	-3.142	41607	2.382	65.663	-5.534	-18.012	1.263	1.533	-0.105	3.638	6.832	2.689	0.087	-0.005	-0.167	-0.430	1.116	0.355	-1.496	-0.557	0.632	-0.196	
0.03937	0.00005	0.00006	558.195	-103.915	-135.124	-2.749	-0.000	-3.142	41807	3.086	65.554	-5.241	-17.395	1.277	1.440	-0.115	3.666	6.832	2.629	0.091	-0.004	-0.166	-0.430	1.116	0.355	-1.496	-0.557	0.632	-0.196	
1.40595	0.00436	0.00107	557.118	-104.788	-134.888	-2.749	0.001	-3.141	42073	0.805	61.157	-6.877	-12.367	0.570	0.094	-0.027	-2.289	0.101	1.692	-0.321	0.982	0.035	-0.432	1.115	0.355	-1.499	-0.558	0.630	-0.196	
3.57374	0.01397	0.00066	553.733	-105.919	-135.071	-2.749	0.000	-3.141	42353	0.383	60.835	-7.092	-12.295	0.489	0.053	-0.022	-2.209	-0.355	1.259	-0.222	0.855	0.035	-0.437	1.111	0.355	-1.509	-0.562	0.624	-0.194	
0.13098	0.00181	0.00015	553.690	-105.832	-135.159	-2.749	0.000	-3.141	42589	0.480	61.151	-7.051	-12.417	0.496	0.053	0.010	-2.162	-0.329	1.591	-0.230	0.823	0.023	-0.437	1.111	0.355	-1.510	-0.562	0.623	-0.194	
0.02810	0.00723	0.01711	553.682	-105.859	-135.159	-2.732	0.000	-3.141	42775	0.683	61.033	-6.936	-12.297	0.401	0.061	0.193	-2.261	-0.021	1.514	-0.036	0.867	0.167	-0.437	1.111	0.355	-1.510	-0.562	0.623	-0.201	
0.01283	0.12614	0.15096	553.679	-105.871	-135.158	-2.581	0.000	-3.141	43058	0.532	61.110	-7.013	-12.377	0.467	0.053	0.228	-2.259	-0.441	1.616	-0.197	0.869	0.169	-0.437	1.111	0.355	-1.510	-0.562	0.623	-0.327	
0.01289	0.19537	0.18309	553.684	-105.882	-135.153	-2.398	0.000	-3.141	43336	0.643	61.057	-6.967	-12.349	0.542	0.071	0.135	-2.058	-0.897	1.477	-0.383	0.791	0.154	-0.437	1.111	0.355	-1.510	-0.562	0.623	-0.523	
0.00852	0.06384	0.04142	553.687	-105.875	-135.151	-2.356	0.000	-3.141	43618	0.454	60.989	-7.069	-12.279	0.520	0.068	0.104	-2.177	-0.899	1.531	-0.388	0.833	0.136	-0.437	1.111	0.355	-1.510	-0.562	0.623	-0.587	
0.03383	0.00005	0.00008	553.694	-105.842	-135.151	-2.356	0.000	-3.141	43886	-1.773	61.107	-8.259	-13.219	0.510	0.177	0.054	-2.103	-0.910	1.515	-0.403	0.798	0.128	-0.437	1.111	0.355	-1.510	-0.562	0.623	-0.587	
3.47434	0.00744	0.00038	556.090	-103.325	-135.145	-2.356	-0.000	-3.141	44118	0.231	60.886	-6.818	-12.426	0.326	-0.132	-0.058	-0.188	-1.170	1.245	-0.609	-0.165	-0.128	-0.433	1.112	0.355	-1.506	-0.561	0.626	-0.585	
6.46815	0.02150	0.00024	560.743	-98.833	-135.114	-2.356	-0.000	-3.141	44398	-0.015	61.247	-7.098	-12.498	0.361	-0.055	-0.041	-0.642	-1.214	1.315	-0.633	0.043	-0.103	-0.421	1.118	0.355	-1.492	-0.556	0.634	-0.582	
0.16608	0.00222	0.00029	560.599	-98.779	-135.175	-2.356	-0.000	-3.142	44662	0.091	61.366	-6.975	-12.596	0.377	-0.047	-0.035	-0.785	-1.313	1.161	-0.685	0.097	-0.098	-0.420	1.118	0.355	-1.490	-0.555	0.635	-0.581	
1.54929	0.00113	0.00053	561.850	-97.873	-135.061	-2.356	0.000	-3.141	44912	-0.399	61.427	-7.281	-12.824	0.308	-0.127	-0.061	-0.806	-0.762	1.195	-0.439	-0.004	-0.141	-0.419	1.118	0.355	-1.490	-0.555	0.635	-0.581	
7.14082	0.02227	0.00009	566.862	-92.786	-135.114	-2.356	0.000	-3.141	45195	-0.121	61.852	-7.017	-12.839	0.365	-0.027	-0.053	-0.894	-0.784	1.131	-0.412	0.080	-0.128	-0.407	1.124	0.355	-1.475	-0.550	0.643	-0.578	
1.33034	0.00835	0.00041	567.757	-91.803	-135.132	-2.356	-0.000	-3.141	45436	0.019	61.939	-7.047	-12.890	0.363	-0.038	-0.045	-0.684	-1.230	1.115	-0.662	0.073	-0.112	-0.403	1.126	0.355	-1.469	-0.548	0.646	-0.577	
0.05440	0.00007	0.00008	567.774	-91.751	-135.128	-2.356	-0.000	-3.141	45683	0.450	61.818	-6.737	-13.296	0.317	-0.097	-0.080	-0.309	-1.203	0.713	-0.599	-0.155	-0.143	-0.403	1.126	0.355	-1.469	-0.548	0.646	-0.576	
6.19421	0.01590	0.00032	572.126	-87.344	-135.167	-2.356	-0.000	-3.141	45975	1.441	61.841	-6.471	-13.068	0.294	-0.155	-0.093	0.129	-1.342	0.930	-0.661	-0.322	-0.177	-0.394	1.130	0.355	-1.459	-0.544	0.652	-0.574	
3.76996	0.01619	0.00035	574.813	-84.699	-135.145	-2.356	-0.000	-3.141	46255	-0.130	62.227	-7.099	-13.044	0.346	-0.041	-0.062	-0.644	-1.246	1.180	-0.657	0.059	-0.128	-0.386	1.134	0.355	-1.448	-0.541	0.658	-0.572	
0.03958	0.00007	0.00007	574.823	-84.661	-135.139	-2.356	-0.000	-3.141	46506	-2.484	62.017	-8.114	-13.609	0.308	-0.071	-0.080	-0.705	-1.184	1.060	-0.635	0.083	-0.125	-0.386	1.134	0.355	-1.448	-0.541	0.658	-0.572	
3.52444	0.00832	0.00132	576.856	-81.802	-135.476	-2.356	-0.001	3.141	46757	0.590	68.196	-7.643	-20.803	1.064	2.964	-0.270	6.037	6.345	0.461	-0.478	-0.698	-0.362	-0.381	1.136	0.355	-1.443	-0.539	0.661	-0.571	
1.04393	0.00668	0.00069	577.759	-81.281	-135.414	-2.356	-0.001	3.141	47004	1.374	67.614	-7.096	-19.887	1.071	2.586	-0.237	4.737	8.610	3.207	-0.312	-0.160	-0.351	-0.378	1.138	0.355	-1.438	-0.538	0.664	-0.570	
1.61187	0.00300	0.00175	577.560	-82.747	-134.773	-2.356	0.000	-3.140	47270	0.561	62.208	-6.940	-12.796	0.567	0.101	0.054	-1.341	0.566	1.504	-0.645	0.723	0.020	-0.379	1.136	0.355	-1.439	-0.538	0.662	-0.570	
3.53755	0.01183	0.00047	574.876	-85.037	-135.029	-2.356	0.000	-3.141	47552	0.406	62.414	-7.028	-12.983	0.560	0.090	0.057	-2.325	-1.167	1.468	-0.572	0.853	0.089	-0.385	1.133	0.355	-1.447	-0.541	0.658	-0.572	
0.33440	0.00165	0.00052	574.617	-84.927	-135.209	-2.356	-0.000	-3.141	47803	0.520	62.377	-7.002	-12.970	0.548	0.084	0.070	-2.176	-1.148	1.451	-0.579	0.784	0.079	-0.386	1.133	0.355	-1.449	-0.541	0.657	-0.572	
0.09589	0.00925	0.02080	574.677	-84.982	-135.158	-2.335	-0.000	-3.141	48007	0.647	62.393	-6.944	-13.052	0.629	0.081	0.147	-2.117	-1.096	1.535	-0.494	0.772	0.146	-0.386	1.133	0.355	-1.449	-0.541	0.657	-0.581	
0.01690	0.13276	0.15659	574.692	-84.979	-135.150	-2.179	-0.000	-3.141	48290	0.552	62.475	-6.986	-13.052	0.517	0.044	0.157	-1.843	-1.443	1.557	-0.593	0.658	0.159	-0.386	1.133	0.355	-1.449	-0.541	0.657	-0.714	
0.01123	0.19200	0.17729	574.701	-84.981	-135.144	-2.001	-0.000	-3.141	48566	0.523	62.466	-7.002	-13.044	0.556	0.040	0.138	-1.605	-1.676	1.565	-0.673	0.558	0.152	-0.386	1.133	0.355	-1.449	-0.541	0.657	-0.906	
0.00740	0.05861	0.03789	574.708	-84.982	-135.141	-1.964	-0.000	-3.141	48850	0.500	62.485	-7.003	-13.040	0.556	0.033	0.090	-1.513	-1.758	1.551	-0.711	0.499	0.109	-0.386	1.133	0.355	-1.449	-0.541	0.657	-0.965	
0.00324	0.00001	0.00000	574.711	-84.983	-135.140	-1.964	-0.000	-3.141	49098	-1.750	62.563	-8.015	-13.048	0.491	0.042	0.002	-1.636	-1.710	1.551	-0.686	0.534	0.105	-0.386	1.133	0.355	-1.449	-0.541	0.657	-0.965	
3.67380	0.00631	0.00030	576.022	-81.552	-135.163	-1.964	-0.000	-3.141	49334	0.007	62.696	-6.976	-13.221	0.335	-0.100	-0.082	0.636	-1.410	0.956	-0.656	-0.575	-0.181	-0.382	1.134	0.355	-1.446	-0.540	0.659	-0.961	
6.29202	0.01726	0.00017	578.397	-75.725	-135.161	-1.964	-0.000	-3.141	49616	-0.169	62.569	-7.020	-13.177	0.373	-0.071	-0.035	-0.112	-1.258	0.921	-0.554	-0.212	-0.115	-0.369	1.137	0.355	-1.440	-0.538	0.662	-0.953	
0.01372	0.00139	0.00008	578.407	-75.733	-135.166	-1.964	-0.000	-3.141	49868	-0.078	62.435	-6.976	-13.221	0.377	-0.058	-0.033	-0.142	-1.453	1.195	-0.647	-0.221	-0.116	-0.368	1.137	0.355	-1.439	-0.538	0.663	-0.952	
1.26953	0.00068	0.00043	579.032	-74.629	-135.104	-1.964	-0.000	-3.141	50117	0.296	62.790	-6.750	-13.645	0.365	-0.110	-0.082	-0.130	-1.208	1.237	-0.513	-0.254	-0.167	-0.368	1.137	0.355	-1.439	-0.538	0.663	-0.952	
7.14502	0.01715	0.00022	581.660	-67.986	-135.156	-1.964	-0.000	-3.141	50396	-0.190	62.639	-7.157	-13.269	0.330	-0.034	-0.073	-0.148	-1.124	1.032	-0.465	-0.264	-0.180	-0.355	1.139	0.355	-1.432	-0.536	0.666	-0.943	
1.55018	0.00721	0.00034	582.219	-66.540	-135.173	-1.964	-0.000	-3.142	50652	0.112	62.829	-7.153	-13.391	0.335	-0.065	-0.059	0.023	-1.334	1.043	-0.600	-0.266	-0.142	-0.350	1.141	0.355	-1.429	-0.535	0.668	-0.940	
0.06739	0.00009	0.00010	582.245	-66.478	-135.167	-1.964	-0.000	-3.141	50891	0.058	62.684	-6.936	-13.567	0.313	-0.120	-0.083	0.476	-1.267	0.876	-0.569	-0.518	-0.184	-0.350	1.141	0.355	-1.429	-0.535	0.668	-0.940	
6.04250	0.01210	0.00041	584.625	-60.924	-135.182	-1.963	-0.000	-3.141	51179	0.664	65.882	-7.798	-17.789	0.396	1.943	-0.225	2.100	2.825	0.741	-0.227	-0.410	-0.250	-0.342	1.142	0.355	-1.425	-0.533	0.671	-0.934	
3.55984	0.01218	0.00100	585.543	-57.493	-135.430	-1.964	-0.000	3.141	51458	-1.106	68.742	-9.444	-20.713	0.591	3.244	-0.245	4.741	9.200	2.173	0.026	-0.397	-0.309	-0.333	1.145	0.354	-1.420	-0.532	0.674	-0.928	
0.39405	0.00056	0.00060	585.868	-57.444	-135.213	-1.964	-0.000	-3.142	51691	0.583	67.452	-7.935	-19.465	0.975	2.670	-0.078	3.207	10.667	1.979	0.056	-0.088	-0.208	-0.333	1.144	0.355	-1.420	-0.532	0.674	-0.928	
3.14622	0.00652	0.00127	585.387	-60.520	-134.759	-1.964	0.000	-3.140	51974	-0.138	62.739	-7.400	-13.243	0.545	0.117	0.094	-1.497	-0.620	1.843	-0.754	0.672	0.102	-0.338	1.143	0.355	-1.422	-0.533	0.672	-0.931	
1.93948	0.00612	0.00073	584.277	-62.084	-135.046	-1.963	-0.000	-3.141	52253	0.539	62.856	-6.993	-13.265	0.528	-0.017	0.074	-1.291	-1.737	1.628	-0.668	0.404	0.094	-0.342	1.142	0.355	-1.424	-0.534	0.670	-0.934	
0.21620	0.00039	0.00040	584.092	-62.078	-135.158	-1.963	-0.000	-3.141	52475	0.453	62.965	-7.051	-13.313	0.515	-0.007	0.154	-1.506	-1.582	1.577	-0.573	0.532	0.138	-0.342	1.142	0.355	-1.425	-0.534	0.671	-0.934	
0.01331	0.05591	0.07926	584.081	-62.071	-135.161	-1.884	-0.000	-3.141	52768	0.518	63.006	-7.047	-13.308	0.528	0.006	0.146	-1.156	-1.817	1.610	-0.674	0.414	0.134	-0.342	1.142	0.355	-1.425	-0.534	0.671	-0.990	
0.02494	0.19424	0.20301	584.075	-62.047	-135.162	-1.681	-0.000	-3.141	53049	0.363	62.990	-7.111	-13.346	0.534	0.025	0.077	-0.839	-1.951	1.589	-0.712	0.309	0.147	-0.342	1.142	0.355	-1.425	-0.534	0.671	-1.184	
0.01702	0.13251	0.10726	584.074	-62.030	-135.163	-1.574	-0.000	-3.141	53330	0.430	62.978	-7.072	-13.288	0.530	0.009	0.110	-0.730	-2.068	1.584	-0.746	0.261	0.134	-0.342	1.142	0.355	-1.425	-0.534	0.671	-1.317	
0.02493	0.01003	0.00302	584.071	-62.055	-135.163	-1.571	-0.000	-3.141	53582	0.324	63.031	-7.125	-13.316	0.528	0.011	0.105	-0.667	-2.069	1.559	-0.750	0.223	0.113	-0.342	1.142	0.355	-1.425	-0.534	0.671	-1.327	
0.22625	0.00006	0.00008	584.084	-61.829	-135.152	-1.571	-0.000	-3.141	53817	-0.254	63.118	-7.102	-13.367	0.569	0.112	-0.051	0.432	-2.233	1.052	-0.925	-0.421	-0.064	-0.342	1.142	0.355	-1.425	-0.534	0.671	-1.327	
6.78204	0.01462	0.00029	584.150	-55.047	-135.107	-1.571	-0.000	-3.141	54099	1.907	62.985	-6.059	-13.397	0.607	0.055	-0.073	0.636	-2.541	1.372	-1.094	-0.669	-0.131	-0.332	1.141	0.355	-1.427	-0.534	0.669	-1.316	
2.97176	0.01055	0.00018	584.090	-52.076	-135.126	-1.571	-0.000	-3.141	54379	-0.056	62.958	-6.990	-13.236	0.557	0.072	-0.041	0.565	-2.370	1.392	-1.008	-0.560	-0.085	-0.325	1.141	0.355	-1.428	-0.535	0.669	-1.308	
0.04061	0.00006	0.00006	584.081	-52.037	-135.134	-1.571	-0.000	-3.141	54614	-0.715	63.337	-7.331	-13.170	0.546	0.082	-0.076	0.963	-2.340	1.313	-1.012	-0.781	-0.118	-0.325	1.141	0.355	-1.428	-0.535	0.669	-1.308	
5.06107	0.00943	0.00012	584.078	-46.976	-135.112	-1.571	-0.000	-3.142	54893	-0.333	62.951	-7.083	-13.148	0.581	0.083	-0.106	0.784	-2.509	1.411	-1.110	-0.742	-0.137	-0.319	1.140	0.355	-1.430	-0.535	0.668	-1.301	
5.00974	0.01555	0.00028	584.145	-41.967	-135.123	-1.571	-0.000	-3.141	55174	-0.175	62.651	-7.054	-13.107	0.548	0.075	-0.046	0.512	-2.390	1.394	-1.029	-0.544	-0.089	-0.309	1.140	0.355	-1.431	-0.536	0.667	-1.290	
0.02899	0.00011	0.00006	584.141	-41.992	-135.137	-1.571	-0.000	-3.141	55425	-0.609	62.756	-7.247	-13.125	0.548	0.085	-0.057	0.539	-2.241	1.284	-0.976	-0.558	-0.087	-0.309	1.140	0.355	-1.431	-0.536	0.667	-1.290	
2.60731	0.00341	0.00040	584.070	-39.386	-135.191	-1.571	-0.000	-3.142	55675	-0.112	62.930	-6.958	-13.144	0.585	0.093	-0.078	0.666	-2.508	1.370	-1.114	-0.680	-0.125	-0.307	1.140	0.355	-1.431	-0.536	0.667	-1.287	
6.91935	0.01761	0.00019	584.055	-32.467	-135.136	-1.571	-0.000	-3.142	55958	-0.060	62.795	-6.987	-13.186	0.580	0.094	-0.061	0.934	-2.410	1.317	-1.083	-0.754	-0.119	-0.295	1.139	0.355	-1.433	-0.536	0.666	-1.275	
0.43613	0.00368	0.00009	584.039	-32.032	-135.143	-1.571	-0.000	-3.142	56207	-0.198	62.841	-7.055	-13.167	0.567	0.083	-0.054	0.556	-2.270	1.295	-1.014	-0.587	-0.095	-0.292	1.139	0.355	-1.434	-0.536	0.666	-1.272	
0.31756	0.00010	0.00011	584.051	-31.714	-135.146	-1.571	-0.000	-3.142	56440	-0.355	62.783	-7.172	-13.212	0.562	0.124	-0.091	0.839	-2.415	1.339	-1.098	-0.771	-0.135	-0.292	1.139	0.355	-1.434	-0.536	0.666	-1.272	
6.85110	0.01450	0.00025	584.169	-24.864	-135.119	-1.571	-0.000	-3.141	56720	1.467	62.551	-6.138	-13.272	0.608	0.074	-0.101	0.434	-2.487	1.283	-1.133	-0.615	-0.146	-0.282	1.139	0.355	-1.435	-0.537	0.665	-1.261	
2.83696	0.01003	0.00013	584.099	-22.028	-135.137	-1.571	-0.000	-3.141	57004	-0.229	62.776	-7.065	-13.204	0.571	0.099	-0.074	0.620	-2.289	1.276	-1.041	-0.623	-0.112	-0.275	1.138	0.355	-1.435	-0.537	0.665	-1.254	
0.02874	0.00006	0.00007	584.105	-22.000	-135.134	-1.571	-0.000	-3.141	57235	-0.981	62.733	-7.407	-13.111	0.551	0.117	-0.107	0.709	-2.305	1.220	-1.055	-0.706	-0.137	-0.275	1.138	0.355	-1.435	-0.537	0.665	-1.254	
4.75215	0.00895	0.00013	584.112	-17.248	-135.140	-1.571	-0.000	-3.141	57503	0.180	62.811	-6.773	-13.174	0.584	0.095	-0.099	0.821	-2.410	1.210	-1.124	-0.762	-0.148	-0.269	1.138	0.355	-1.436	-0.537	0.665	-1.248	
5.27510	0.01540	0.00008	584.117	-11.973	-135.120	-1.571	-0.000	-3.141	57783	-0.339	62.673	-7.113	-13.156	0.567	0.107	-0.062	0.518	-2.298	1.198	-1.060	-0.583	-0.107	-0.258	1.138	0.355	-1.436	-0.537	0.664	-1.237	
0.06250	0.00009	0.00012	584.115	-12.035	-135.123	-1.571	-0.000	-3.141	58050	-0.686	62.719	-7.268	-13.136	0.558	0.103	-0.071	0.606	-2.274	1.240	-1.045	-0.616	-0.105	-0.258	1.138	0.355	-1.436	-0.537	0.664	-1.237	
2.50550	0.00307	0.00011	584.118	-9.530	-135.137	-1.571	-0.000	-3.141	58298	-0.245	62.856	-7.042	-13.172	0.560	0.110	-0.092	1.063	-2.385	1.167	-1.127	-0.886	-0.169	-0.256	1.138	0.355	-1.436	-0.537	0.664	-1.234	
6.93775	0.01721	0.00011	584.060	-2.592	-135.159	-1.571	-0.000	-3.142	58579	-0.167	62.681	-6.988	-13.104	0.570	0.094	-0.013	0.854	-2.399	1.290	-1.112	-0.745	-0.116	-0.244	1.138	0.355	-1.437	-0.537	0.664	-1.222	
0.56242	0.00402	0.00008	584.048	-2.030	-135.148	-1.571	-0.000	-3.142	58846	-0.284	62.793	-7.092	-13.192	0.568	0.106	-0.014	0.560	-2.262	1.242	-1.047	-0.600	-0.075	-0.241	1.138	0.355	-1.437	-0.537	0.664	-1.219	
0.37421	0.00009	0.00013	584.050	-1.656	-135.146	-1.571	-0.000	-3.142	59097	-0.352	62.665	-7.074	-13.023	0.557	0.082	-0.112	0.293	-2.411	1.216	-1.119	-0.582	-0.154	-0.241	1.138	0.355	-1.437	-0.537	0.664	-1.219	
6.94889	0.01482	0.00004	584.053	5.293	-135.153	-1.571	-0.000	-3.141	59379	1.062	62.922	-6.414	-13.540	0.597	0.062	-0.058	1.225	-2.020	1.128	-0.999	-0.922	-0.151	-0.231	1.138	0.355	-1.437	-0.537	0.664	-1.209	
2.67328	0.00933	0.00011	584.077	7.966	-135.166	-1.571	-0.000	-3.141	59661	-0.319	62.809	-7.098	-13.229	0.558	0.067	-0.028	0.466	-2.049	1.227	-0.945	-0.559	-0.080	-0.224	1.138	0.355	-1.437	-0.537	0.664	-1.202	
0.04385	0.00007	0.00007	584.078	8.010	-135.169	-1.571	-0.000	-3.141	59882	-0.609	62.764	-7.206	-13.252	0.543	0.074	-0.085	1.044	-2.034	1.130	-0.964	-0.853	-0.123	-0.224	1.138	0.355	-1.437	-0.537	0.664	-1.202	
4.97847	0.00895	0.00016	584.118	12.988	-135.166	-1.571	-0.000	-3.141	60162	-0.108	62.603	-6.806	-13.255	0.498	-0.026	-0.091	1.488	-1.816	1.094	-0.861	-1.035	-0.183	-0.218	1.138	0.355	-1.436	-0.537	0.664	-1.196	
5.02083	0.01507	0.00018	584.082	18.009	-135.183	-1.571	-0.000	-3.141	60446	-0.388	62.729	-7.123	-13.222	0.470	-0.022	-0.045	0.548	-1.742	1.228	-0.750	-0.578	-0.121	-0.207	1.138	0.355	-1.436	-0.537	0.665	-1.185	
0.02700	0.00016	0.00008	584.082	17.985	-135.171	-1.571	-0.000	-3.141	60698	-0.454	62.795	-7.164	-13.234	0.471	-0.015	-0.048	0.636	-1.715	1.234	-0.745	-0.611	-0.118	-0.207	1.138	0.355	-1.436	-0.537	0.665	-1.185	
2.32111	0.00285	0.00014	584.099	20.305	-135.135	-1.571	-0.000	-3.141	60934	-0.558	62.694	-7.137	-13.373	0.423	-0.027	-0.131	1.364	-1.676	1.082	-0.760	-0.957	-0.210	-0.205	1.138	0.355	-1.436	-0.537	0.665	-1.183	
7.02947	0.01693	0.00024	584.130	27.335	-135.153	-1.571	-0.000	-3.141	61216	-0.292	62.588	-7.023	-13.236	0.427	-0.078	-0.067	0.940	-1.536	1.090	-0.651	-0.749	-0.167	-0.193	1.139	0.355	-1.435	-0.537	0.665	-1.172	
0.61078	0.00418	0.00035	584.007	27.932	-135.184	-1.571	-0.000	3.142	61480	-0.367	62.723	-7.101	-13.279	0.420	-0.058	-0.052	0.698	-1.536	1.121	-0.646	-0.627	-0.140	-0.190	1.139	0.355	-1.434	-0.537	0.666	-1.169	
0.22277	0.00010	0.00018	583.999	28.155	-135.191	-1.571	-0.000	3.142	61713	-0.552	62.490	-7.120	-13.260	0.391	-0.076	-0.093	0.935	-1.340	0.942	-0.596	-0.764	-0.184	-0.190	1.139	0.355	-1.434	-0.537	0.666	-1.169	
6.89447	0.01384	0.00033	584.142	35.048	-135.141	-1.571	-0.000	-3.141	61994	1.960	62.904	-5.854	-13.572	0.421	-0.140	-0.099	1.217	-1.425	1.082	-0.600	-0.886	-0.229	-0.180	1.139	0.355	-1.433	-0.536	0.666	-1.160	
2.93209	0.01002	0.00015	584.071	37.978	-135.195	-1.571	-0.000	-3.141	62275	-0.335	62.642	-7.076	-13.249	0.381	-0.089	-0.043	0.538	-1.395	1.088	-0.550	-0.532	-0.138	-0.172	1.140	0.355	-1.432	-0.536	0.666	-1.153	
0.04902	0.00006	0.00010	584.064	38.027	-135.195	-1.571	-0.000	-3.141	62511	-1.500	62.797	-7.575	-13.163	0.357	-0.087	-0.101	0.523	-1.417	1.066	-0.578	-0.579	-0.160	-0.172	1.140	0.355	-1.432	-0.536	0.666	-1.153	
4.66217	0.00812	0.00019	584.147	42.688	-135.182	-1.571	-0.000	-3.141	62776	-0.571	62.694	-7.150	-13.432	0.349	-0.094	-0.116	0.930	-1.281	1.052	-0.532	-0.766	-0.211	-0.166	1.140	0.355	-1.431	-0.536	0.667	-1.147	
5.32649	0.01549	0.00022	584.097	48.015	-135.187	-1.571	-0.000	-3.141	63058	-0.614	62.547	-7.205	-13.237	0.351	-0.094	-0.065	0.711	-1.247	0.892	-0.506	-0.615	-0.167	-0.155	1.141	0.355	-1.430	-0.535	0.668	-1.137	
0.03247	0.00028	0.00006	584.094	47.984	-135.176	-1.571	-0.000	-3.141	63322	-0.805	62.615	-7.236	-13.273	0.357	-0.090	-0.083	0.909	-1.367	0.984	-0.562	-0.710	-0.174	-0.155	1.141	0.355	-1.429	-0.535	0.668	-1.137	
2.64705	0.00330	0.00036	584.231	50.626	-135.096	-1.571	-0.000	-3.141	63572	-0.682	62.821	-7.186	-13.643	0.353	-0.079	-0.089	1.376	-1.167	0.956	-0.512	-0.943	-0.221	-0.152	1.141	0.355	-1.429	-0.535	0.668	-1.134	
6.90567	0.01684	0.00051	584.030	57.529	-135.175	-1.571	-0.000	3.142	63854	-0.298	62.760	-7.035	-13.232	0.351	-0.095	-0.039	1.194	-1.410	1.146	-0.594	-0.837	-0.192	-0.140	1.142	0.355	-1.427	-0.534	0.669	-1.124	
0.40563	0.00364	0.00025	584.068	57.932	-135.177	-1.571	-0.000	-3.142	64106	-0.495	62.782	-7.096	-13.332	0.364	-0.087	-0.042	0.765	-1.372	1.125	-0.575	-0.653	-0.156	-0.137	1.142	0.355	-1.426	-0.534	0.670	-1.121	
0.38065	0.00011	0.00020	584.052	58.313	-135.171	-1.571	-0.000	-3.142	64353	-0.051	62.899	-6.803	-13.393	0.348	-0.137	-0.121	1.361	-1.417	0.897	-0.606	-0.959	-0.241	-0.137	1.142	0.355	-1.426	-0.534	0.670	-1.121	
6.91932	0.01439	0.00010	584.003	65.232	-135.192	-1.571	-0.000	3.142	64634	1.315	63.318	-6.237	-13.684	0.380	-0.152	-0.079	1.459	-1.366	1.038	-0.582	-0.982	-0.230	-0.127	1.143	0.355	-1.424	-0.533	0.671	-1.112	
2.73418	0.00935	0.00027	584.074	67.965	-135.182	-1.571	-0.000	-3.142	64917	-0.582	62.879	-7.126	-13.357	0.351	-0.104	-0.046	0.751	-1.315	1.131	-0.543	-0.642	-0.162	-0.120	1.143	0.355	-1.422	-0.533	0.672	-1.106	
0.03216	0.00005	0.00005	584.074	67.997	-135.178	-1.571	-0.000	-3.142	65139	-1.434	62.910	-7.476	-13.587	0.350	-0.075	-0.095	0.745	-1.326	1.024	-0.565	-0.683	-0.179	-0.120	1.143	0.355	-1.422	-0.533	0.672	-1.106	
4.62546	0.00809	0.00023	584.130	72.622	-135.171	-1.571	-0.000	-3.141	65403	-0.932	62.532	-7.138	-13.272	0.321	-0.146	-0.110	1.097	-1.251	0.985	-0.539	-0.850	-0.246	-0.114	1.144	0.355	-1.421	-0.532	0.673	-1.101	
5.41751	0.01536	0.00032	584.084	78.039	-135.201	-1.571	-0.000	-3.141	65684	-0.645	62.755	-7.145	-13.354	0.332	-0.100	-0.065	0.942	-1.246	0.638	-0.523	-0.721	-0.187	-0.102	1.145	0.355	-1.418	-0.532	0.674	-1.091	
0.04308	0.00027	0.00020	584.049	78.015	-135.198	-1.571	-0.000	-3.142	65949	-0.803	62.938	-7.204	-13.425	0.351	-0.096	-0.069	0.966	-1.339	0.862	-0.574	-0.749	-0.182	-0.102	1.145	0.355	-1.418	-0.531	0.675	-1.091	
2.48762	0.00315	0.00025	584.160	80.498	-135.094	-1.571	-0.000	-3.141	66197	-0.532	62.478	-6.920	-13.244	0.328	-0.173	-0.105	1.648	-1.109	0.737	-0.518	-1.051	-0.240	-0.100	1.145	0.355	-1.417	-0.531	0.675	-1.089	
6.94255	0.01693	0.00008	584.148	87.440	-135.166	-1.571	-0.000	-3.141	66478	-0.421	62.681	-7.014	-13.335	0.334	-0.049	-0.053	1.298	-1.283	0.722	-0.602	-0.867	-0.213	-0.087	1.147	0.355	-1.413	-0.530	0.677	-1.079	
0.50213	0.00380	0.00037	584.060	87.934	-135.177	-1.571	-0.000	3.142	66728	-0.563	63.108	-7.091	-13.510	0.369	-0.038	-0.047	0.938	-1.322	0.693	-0.638	-0.724	-0.172	-0.085	1.147	0.355	-1.412	-0.530	0.678	-1.076	
0.30452	0.00010	0.00020	584.064	88.238	-135.161	-1.571	-0.000	-3.142	66962	-0.561	62.779	-6.863	-13.506	0.346	-0.149	-0.087	1.191	-1.161	0.550	-0.528	-0.881	-0.229	-0.085	1.147	0.355	-1.412	-0.530	0.678	-1.076	
6.87281	0.01419	0.00025	584.142	95.111	-135.181	-1.571	-0.000	-3.141	67244	1.125	62.790	-6.193	-13.444	0.356	-0.177	-0.089	1.569	-1.074	0.809	-0.525	-1.024	-0.234	-0.074	1.148	0.355	-1.409	-0.529	0.679	-1.068	
2.84138	0.00959	0.00039	584.059	97.951	-135.185	-1.571	-0.000	-3.142	67527	-0.604	63.118	-7.074	-13.582	0.382	-0.085	-0.022	0.852	-1.166	0.760	-0.538	-0.699	-0.146	-0.067	1.149	0.355	-1.406	-0.528	0.681	-1.062	
0.03342	0.00006	0.00006	584.053	97.983	-135.178	-1.571	-0.000	-3.142	67757	-1.141	62.728	-7.330	-13.508	0.354	-0.097	-0.118	1.221	-1.260	0.690	-0.608	-0.897	-0.195	-0.067	1.149	0.355	-1.406	-0.528	0.681	-1.062	
4.74215	0.00839	0.00019	583.997	102.725	-135.200	-1.571	-0.000	3.142	68024	-2.937	65.746	-8.987	-18.526	0.481	2.342	-0.145	9.494	3.592	-0.247	-0.500	-2.681	-0.472	-0.061	1.150	0.355	-1.404	-0.527	0.682	-1.057	
2.12043	0.00800	0.00042	583.788	104.827	-135.387	-1.571	-0.000	3.141	68306	-2.210	69.047	-10.160	-21.052	0.404	3.455	-0.284	6.436	9.394	2.173	-0.130	-1.155	-0.420	-0.055	1.151	0.355	-1.402	-0.527	0.683	-1.052	
0.89889	0.00053	0.00080	584.259	104.109	-135.118	-1.571	-0.000	-3.141	68537	-0.430	64.689	-7.816	-15.363	0.563	0.949	0.039	1.907	4.771	1.524	-0.405	-0.169	-0.100	-0.055	1.151	0.355	-1.402	-0.527	0.683	-1.053	
3.48674	0.00848	0.00107	584.735	100.671	-134.792	-1.571	-0.000	-3.140	68820	-0.039	63.496	-7.113	-13.621	0.526	0.053	0.072	-0.211	-1.988	1.317	-0.840	-0.058	0.051	-0.062	1.149	0.355	-1.404	-0.528	0.681	-1.058	
1.09466	0.00322	0.00122	584.127	99.860	-135.206	-1.571	-0.000	-3.141	69085	-0.171	63.302	-7.061	-13.483	0.504	0.042	0.047	-0.215	-1.963	1.236	-0.886	-0.179	-0.016	-0.064	1.150	0.355	-1.405	-0.528	0.681	-1.059	
0.03965	0.00220	0.00842	584.118	99.822	-135.210	-1.562	-0.000	-3.141	69315	-0.160	63.373	-7.014	-13.509	0.489	0.073	0.068	-0.244	-1.920	1.192	-0.845	-0.148	0.041	-0.064	1.150	0.355	-1.405	-0.528	0.681	-1.062	
0.00488	0.10296	0.12906	584.115	99.825	-135.209	-1.433	-0.000	-3.141	69597	-0.191	63.321	-7.086	-13.509	0.454	0.070	0.208	0.086	-1.881	1.151	-0.791	-0.275	0.064	-0.064	1.150	0.355	-1.405	-0.528	0.681	-1.164	
0.00593	0.20304	0.19549	584.112	99.830	-135.209	-1.238	-0.000	-3.142	69878	-0.151	63.334	-7.021	-13.500	0.510	0.061	0.168	0.375	-1.854	1.176	-0.726	-0.391	0.069	-0.064	1.150	0.355	-1.405	-0.528	0.681	-1.368	
0.00203	0.08398	0.05954	584.112	99.832	-135.208	-1.178	-0.000	-3.142	70157	-0.164	63.359	-7.041	-13.530	0.507	0.055	0.117	0.510	-1.850	1.169	-0.715	-0.448	0.039	-0.064	1.150	0.355	-1.405	-0.528	0.681	-1.452	
0.00059	0.00037	0.00002	584.112	99.833	-135.208	-1.178	-0.000	-3.142	70423	-0.550	63.297	-7.216	-13.435	0.502	0.057	0.091	0.531	-1.860	1.164	-0.718	-0.460	0.029	-0.064	1.150	0.355	-1.405	-0.528	0.681	-1.452	
2.51583	0.00368	0.00019	583.146	102.156	-135.205	-1.178	-0.000	3.142	70671	-0.690	63.277	-6.914	-13.448	0.596	0.110	-0.055	1.847	-2.158	1.414	-0.940	-1.336	-0.174	-0.062	1.149	0.355	-1.406	-0.528	0.681	-1.449	
6.96183	0.01914	0.00022	580.445	108.573	-135.197	-1.178	-0.000	3.142	70953	-0.504	63.014	-6.959	-13.376	0.550	0.059	-0.037	1.806	-1.861	1.215	-0.786	-1.292	-0.164	-0.051	1.147	0.355	-1.412	-0.530	0.678	-1.435	
0.48321	0.00417	0.00037	580.410	109.053	-135.156	-1.178	-0.001	-3.141	71203	-0.581	63.118	-6.961	-13.444	0.546	0.055	-0.028	1.741	-1.779	1.114	-0.741	-1.237	-0.149	-0.048	1.147	0.355	-1.413	-0.530	0.677	-1.432	
0.37890	0.00011	0.00026	580.184	109.352	-135.211	-1.178	-0.000	-3.142	71389	-0.969	63.238	-7.238	-13.502	0.569	0.147	-0.069	1.333	-2.053	1.117	-0.909	-1.187	-0.193	-0.048	1.147	0.355	-1.413	-0.530	0.677	-1.432	
6.82156	0.01580	0.00015	577.513	115.629	-135.226	-1.178	-0.000	3.141	71670	1.695	63.582	-5.846	-13.901	0.659	0.050	-0.070	2.342	-2.156	1.113	-0.964	-1.597	-0.210	-0.039	1.145	0.355	-1.418	-0.531	0.674	-1.420	
2.86165	0.01084	0.00025	576.483	118.298	-135.197	-1.178	-0.000	-3.141	71950	-0.710	63.053	-7.062	-13.332	0.548	0.046	-0.024	1.455	-1.863	1.018	-0.769	-1.113	-0.133	-0.033	1.144	0.355	-1.421	-0.532	0.673	-1.412	
0.03976	0.00005	0.00007	576.473	118.337	-135.197	-1.178	-0.000	-3.141	72183	-2.152	63.623	-7.691	-13.228	0.546	0.137	-0.088	1.722	-1.882	1.081	-0.785	-1.288	-0.172	-0.033	1.144	0.355	-1.421	-0.532	0.673	-1.412	
4.71217	0.00929	0.00016	574.631	122.674	-135.230	-1.178	-0.000	-3.142	72450	-1.097	63.506	-7.215	-13.370	0.595	0.133	-0.069	2.217	-2.294	1.259	-1.017	-1.549	-0.202	-0.027	1.143	0.355	-1.423	-0.533	0.672	-1.406	
5.31680	0.01690	0.00016	572.648	127.607	-135.209	-1.178	-0.000	-3.141	72733	-0.750	63.169	-7.077	-13.236	0.533	0.028	-0.048	1.598	-2.154	1.467	-0.876	-1.230	-0.172	-0.017	1.141	0.355	-1.427	-0.534	0.669	-1.393	
0.03680	0.00019	0.00011	572.669	127.577	-135.202	-1.178	-0.000	-3.141	73000	-0.804	63.043	-7.061	-13.231	0.530	0.035	-0.053	1.708	-1.999	1.377	-0.824	-1.273	-0.174	-0.017	1.141	0.355	-1.427	-0.535	0.669	-1.393	
2.28482	0.00324	0.00103	571.446	129.503	-135.334	-1.179	-0.001	3.141	73238	-4.506	66.066	-11.512	-17.100	-0.144	2.664	-0.204	7.348	4.587	0.982	-0.646	-2.096	-0.375	-0.015	1.141	0.355	-1.428	-0.535	0.669	-1.391	
0.63694	0.00456	0.00043	571.310	130.124	-135.297	-1.178	-0.000	3.141	73479	-5.014	67.227	-13.018	-18.549	-0.404	3.357	-0.237	8.235	8.959	2.746	-0.123	-1.596	-0.390	-0.012	1.141	0.354	-1.429	-0.535	0.668	-1.387	
1.26278	0.00240	0.00103	572.201	129.252	-135.094	-1.178	-0.000	-3.141	73748	-0.354	63.153	-7.522	-13.684	0.351	0.192	0.089	2.107	3.567	1.625	-0.217	-0.328	-0.059	-0.014	1.141	0.355	-1.429	-0.535	0.668	-1.389	
3.55852	0.00917	0.00019	573.623	125.991	-135.009	-1.178	-0.000	-3.141	74031	-0.220	62.974	-7.130	-13.326	0.392	-0.069	0.090	0.124	-1.356	1.358	-0.425	-0.229	0.005	-0.019	1.141	0.355	-1.426	-0.534	0.670	-1.396	
0.46063	0.00195	0.00070	573.380	125.659	-135.216	-1.178	-0.000	3.141	74295	-0.173	62.883	-7.043	-13.331	0.394	-0.066	0.099	0.467	-1.357	1.295	-0.436	-0.391	-0.016	-0.020	1.142	0.355	-1.426	-0.534	0.670	-1.397	
0.01760	0.00741	0.01752	573.369	125.652	-135.228	-1.161	-0.000	3.141	74528	-0.188	62.918	-7.035	-13.336	0.288	-0.044	0.147	0.392	-1.337	1.318	-0.421	-0.328	0.043	-0.020	1.142	0.355	-1.426	-0.534	0.670	-1.405	
0.00937	0.12495	0.15193	573.366	125.644	-135.230	-1.009	-0.000	3.141	74809	-0.211	62.928	-7.017	-13.329	0.397	-0.056	0.217	0.645	-1.254	1.273	-0.356	-0.406	0.042	-0.020	1.142	0.355	-1.426	-0.534	0.670	-1.529	
0.00567	0.19770	0.18170	573.364	125.638	-135.231	-0.827	-0.000	3.141	75089	-0.214	62.920	-7.057	-13.342	0.394	-0.037	0.187	0.769	-1.133	1.301	-0.285	-0.421	0.055	-0.020	1.142	0.355	-1.426	-0.534	0.670	-1.727	
0.00335	0.06264	0.04158	573.365	125.635	-135.231	-0.785	-0.000	3.141	75371	-0.172	62.900	-7.035	-13.335	0.399	-0.048	0.132	0.871	-1.141	1.286	-0.270	-0.470	0.023	-0.020	1.142	0.355	-1.426	-0.534	0.670	-1.790	
0.00126	0.00004	0.00001	573.364	125.634	-135.231	-0.785	-0.000	3.141	75637	-2.350	63.053	-8.017	-12.575	0.355	0.040	0.027	0.877	-1.152	1.254	-0.271	-0.476	0.015	-0.020	1.142	0.355	-1.426	-0.534	0.670	-1.790	
3.58159	0.00897	0.00038	570.903	128.235	-135.196	-0.786	-0.000	3.142	75870	-1.113	62.505	-7.213	-12.897	0.588	0.180	-0.037	2.647	-1.213	1.224	-0.358	-1.735	-0.179	-0.018	1.140	0.355	-1.431	-0.536	0.667	-1.784	
6.39342	0.02457	0.00020	566.382	132.756	-135.182	-0.785	-0.000	3.142	76151	-0.702	62.786	-7.125	-13.102	0.535	0.104	0.017	2.210	-1.138	0.797	-0.323	-1.402	-0.116	-0.009	1.135	0.355	-1.444	-0.540	0.660	-1.768	
0.07601	0.00199	0.00015	566.342	132.737	-135.244	-0.785	-0.000	3.142	76403	-0.738	62.631	-7.064	-13.079	0.542	0.103	0.013	2.225	-1.132	0.932	-0.316	-1.419	-0.122	-0.009	1.135	0.355	-1.446	-0.540	0.659	-1.767	
1.22077	0.00062	0.00046	565.409	133.521	-135.306	-0.786	-0.000	3.141	76588	-1.229	62.350	-6.948	-13.112	0.644	0.154	-0.050	2.610	-1.201	0.879	-0.370	-1.703	-0.176	-0.008	1.135	0.355	-1.446	-0.540	0.659	-1.767	
7.16081	0.02431	0.00044	560.431	138.668	-135.246	-0.785	-0.000	3.142	76869	-0.823	62.399	-7.143	-12.796	0.542	0.116	-0.017	2.483	-1.150	0.647	-0.345	-1.671	-0.167	-0.000	1.130	0.355	-1.459	-0.545	0.652	-1.751	
1.57801	0.01012	0.00017	559.310	139.779	-135.222	-0.785	-0.000	3.142	77151	-0.660	62.045	-6.986	-12.797	0.552	0.094	-0.003	2.252	-1.198	0.945	-0.350	-1.464	-0.132	0.003	1.128	0.355	-1.464	-0.547	0.649	-1.744	
0.04925	0.00008	0.00007	559.296	139.826	-135.226	-0.785	-0.000	3.142	77388	-0.382	62.052	-6.783	-12.290	0.574	0.052	-0.055	3.090	-1.169	1.400	-0.352	-1.923	-0.193	0.003	1.128	0.355	-1.464	-0.547	0.649	-1.744	
5.98817	0.01665	0.00036	554.973	143.969	-135.263	-0.785	-0.000	3.141	77666	-0.280	62.216	-6.685	-13.123	0.638	0.154	-0.078	2.819	-1.588	1.108	-0.514	-1.805	-0.183	0.009	1.124	0.355	-1.473	-0.550	0.644	-1.733	
3.98336	0.01813	0.00034	552.220	146.848	-135.225	-0.785	-0.000	3.142	77949	-1.713	61.741	-8.308	-12.853	0.246	0.459	-0.080	2.940	0.104	0.930	-0.312	-1.455	-0.183	0.016	1.121	0.355	-1.483	-0.553	0.639	-1.721	
0.04318	0.00010	0.00003	552.206	146.887	-135.237	-0.785	-0.000	3.142	78199	-4.070	61.315	-9.589	-11.700	0.032	0.603	-0.135	3.627	0.481	0.730	-0.249	-1.614	-0.198	0.016	1.121	0.355	-1.483	-0.553	0.639	-1.721	
1.02514	0.00381	0.00018	551.404	147.525	-135.270	-0.786	-0.000	3.141	78436	-4.701	63.090	-11.490	-14.654	-0.291	1.869	-0.108	4.864	4.876	1.660	-0.046	-1.454	-0.236	0.017	1.120	0.354	-1.485	-0.554	0.637	-1.718	
0.14570	0.00034	0.00017	551.456	147.654	-135.225	-0.785	-0.000	3.142	78669	-1.276	62.033	-8.438	-13.458	0.125	0.555	0.099	3.394	3.860	1.841	0.068	-1.100	-0.128	0.017	1.120	0.355	-1.485	-0.553	0.637	-1.718	
3.05556	0.00959	0.00034	553.781	145.674	-135.120	-0.785	-0.000	-3.142	78949	-1.250	61.916	-7.655	-12.114	0.276	-0.145	0.165	0.359	-1.110	1.277	-0.244	-0.161	0.062	0.014	1.122	0.355	-1.479	-0.552	0.640	-1.725	
1.94913	0.00806	0.00040	554.911	144.091	-135.246	-0.785	-0.000	3.141	79233	-0.130	61.727	-7.035	-12.745	0.370	-0.073	0.113	0.746	-1.148	1.274	-0.257	-0.433	0.003	0.011	1.124	0.355	-1.476	-0.550	0.643	-1.730	
0.02764	0.00007	0.00007	554.884	144.086	-135.253	-0.785	-0.000	3.141	79427	-0.272	61.776	-7.078	-12.746	0.353	-0.064	0.162	0.796	-1.070	1.321	-0.233	-0.418	0.049	0.011	1.124	0.355	-1.476	-0.550	0.643	-1.730	
0.00489	0.05439	0.07654	554.880	144.085	-135.254	-0.709	-0.000	3.141	79717	-0.280	61.767	-7.122	-12.791	0.383	-0.033	0.327	0.905	-1.011	1.245	-0.208	-0.439	0.060	0.011	1.124	0.355	-1.476	-0.550	0.643	-1.785	
0.00282	0.19194	0.20383	554.877	144.086	-135.255	-0.505	-0.000	3.141	79996	-0.140	61.729	-7.025	-12.682	0.381	-0.052	0.151	1.160	-0.816	1.265	-0.104	-0.502	0.045	0.011	1.124	0.355	-1.476	-0.550	0.643	-1.977	
0.02337	0.13514	0.10867	554.882	144.063	-135.255	-0.396	-0.000	3.141	80276	-0.202	61.819	-7.042	-12.737	0.372	-0.053	0.103	1.261	-0.718	1.258	-0.047	-0.540	0.009	0.011	1.124	0.355	-1.476	-0.550	0.643	-2.112	
0.00060	0.01128	0.00365	554.882	144.063	-135.255	-0.393	-0.000	3.141	80542	-0.207	61.759	-7.048	-12.724	0.374	-0.058	0.101	1.290	-0.717	1.268	-0.037	-0.559	-0.010	0.011	1.124	0.355	-1.476	-0.550	0.643	-2.123	
0.58264	0.00008	0.00044	554.370	144.341	-135.247	-0.393	-0.000	3.141	80744	-0.668	61.659	-7.049	-12.967	0.598	0.216	-0.068	2.765	-0.636	1.198	0.085	-1.523	-0.145	0.011	1.123	0.355	-1.476	-0.550	0.643	-2.123	
6.92696	0.02796	0.00028	547.985	147.028	-135.202	-0.393	-0.000	3.141	81026	-0.054	61.814	-6.830	-12.680	0.570	0.146	-0.035	3.296	-0.174	0.805	0.303	-1.875	-0.182	0.015	1.117	0.355	-1.494	-0.557	0.632	-2.108	
2.33315	0.01518	0.00017	545.837	147.939	-135.207	-0.393	-0.000	3.142	81294	-0.671	61.217	-6.986	-12.426	0.524	0.058	-0.022	2.475	-0.124	0.945	0.318	-1.445	-0.153	0.017	1.113	0.355	-1.504	-0.560	0.627	-2.099	
0.08079	0.00008	0.00011	545.771	147.980	-135.228	-0.393	-0.000	3.142	81539	-0.528	61.181	-6.796	-12.581	0.607	0.212	-0.084	2.935	-0.012	1.411	0.364	-1.827	-0.191	0.017	1.113	0.355	-1.504	-0.560	0.627	-2.099	
6.16013	0.02135	0.00009	540.070	150.314	-135.216	-0.393	-0.000	3.141	81818	-0.039	60.854	-6.598	-13.385	0.704	0.316	-0.059	3.124	-0.184	1.253	0.306	-1.954	-0.191	0.021	1.108	0.355	-1.518	-0.565	0.619	-2.087	
3.83724	0.02174	0.00005	536.516	151.761	-135.224	-0.393	-0.000	3.141	82099	-0.665	60.756	-7.014	-12.086	0.556	0.119	-0.020	2.868	-0.289	1.149	0.225	-1.693	-0.147	0.024	1.103	0.355	-1.532	-0.571	0.611	-2.075	
0.05753	0.00016	0.00007	536.486	151.796	-135.258	-0.393	-0.000	3.141	82334	-2.670	60.924	-7.946	-11.107	0.542	0.182	-0.075	2.759	-0.356	0.918	0.210	-1.647	-0.150	0.024	1.103	0.355	-1.532	-0.571	0.611	-2.075	
3.93891	0.01179	0.00014	532.826	153.251	-135.202	-0.393	-0.000	3.141	82569	-0.914	60.275	-7.067	-11.502	0.592	0.130	-0.052	3.223	-0.088	0.800	0.325	-2.024	-0.188	0.026	1.100	0.355	-1.539	-0.574	0.607	-2.068	
6.11865	0.02961	0.00014	527.187	155.626	-135.222	-0.393	-0.000	3.141	82849	-0.903	59.733	-7.076	-11.551	0.533	0.094	-0.021	2.637	-0.353	0.805	0.205	-1.614	-0.151	0.031	1.094	0.355	-1.558	-0.581	0.597	-2.051	
0.15313	0.00149	0.00027	527.340	155.617	-135.206	-0.393	-0.000	3.141	83129	-0.898	59.639	-7.002	-11.249	0.518	0.076	-0.030	2.622	-0.219	0.750	0.258	-1.613	-0.151	0.032	1.094	0.355	-1.559	-0.582	0.596	-2.050	
2.76905	0.00699	0.00009	524.753	156.607	-135.216	-0.393	-0.000	3.142	83365	-3.970	59.019	-10.962	-11.742	-0.470	1.300	-0.102	5.784	4.019	1.192	0.574	-2.238	-0.271	0.033	1.092	0.355	-1.563	-0.584	0.594	-2.046	
0.83169	0.00812	0.00036	523.972	156.891	-135.249	-0.393	-0.000	3.141	83612	-4.741	60.124	-11.778	-12.522	-0.494	1.497	-0.097	5.615	7.474	0.131	0.820	-1.718	-0.284	0.034	1.090	0.354	-1.568	-0.586	0.591	-2.041	
1.47350	0.00459	0.00056	525.438	156.744	-135.195	-0.392	0.000	-3.142	83878	-0.370	59.643	-7.111	-11.646	0.292	-0.101	0.144	1.030	-0.170	1.039	0.070	-0.381	0.013	0.034	1.091	0.355	-1.565	-0.585	0.593	-2.044	
3.57840	0.01505	0.00056	528.633	155.134	-135.242	-0.393	-0.000	3.142	84160	-0.183	59.921	-6.951	-11.781	0.372	-0.103	0.062	1.112	-0.563	1.121	0.084	-0.558	-0.048	0.031	1.095	0.355	-1.556	-0.581	0.598	-2.053	
0.19393	0.00177	0.00045	528.521	154.976	-135.257	-0.393	-0.000	3.141	84394	-0.270	59.833	-6.984	-11.771	0.401	-0.096	0.091	1.252	-0.538	1.020	0.079	-0.616	-0.031	0.031	1.095	0.355	-1.555	-0.580	0.599	-2.054	
0.00418	0.00687	0.01676	528.521	154.976	-135.253	-0.376	-0.000	3.141	84629	-0.229	59.970	-7.005	-11.794	0.449	-0.073	0.106	1.177	-0.535	1.156	0.068	-0.548	0.035	0.031	1.095	0.355	-1.555	-0.580	0.599	-2.061	
0.01812	0.12479	0.14882	528.504	154.974	-135.250	-0.227	0.000	3.141	84911	-0.259	59.900	-6.990	-11.749	0.324	-0.092	0.140	1.286	-0.263	1.116	0.187	-0.533	0.010	0.031	1.095	0.355	-1.555	-0.580	0.599	-2.186	
0.01216	0.19798	0.18427	528.495	154.967	-135.244	-0.043	0.000	3.141	85193	-0.261	59.951	-6.977	-11.789	0.372	-0.063	0.119	1.345	-0.004	1.122	0.300	-0.518	-0.003	0.031	1.095	0.355	-1.555	-0.580	0.599	-2.384	
0.02733	0.06321	0.04282	528.521	154.971	-135.236	0.000	0.000	3.141	85473	-0.258	59.943	-6.966	-11.783	0.361	-0.073	0.052	1.423	0.061	1.090	0.350	-0.558	-0.057	0.031	1.095	0.355	-1.555	-0.580	0.599	-2.447	
0.00523	0.00003	0.00001	528.526	154.972	-135.234	0.000	0.000	3.141	85737	-0.765	60.600	-7.381	-10.925	0.340	-0.044	-0.024	1.432	0.043	1.082	0.344	-0.566	-0.060	0.031	1.095	0.355	-1.555	-0.580	0.599	-2.447	
3.68542	0.01231	0.00034	524.842	155.029	-135.197	-0.000	-0.000	3.141	85972	-0.401	59.670	-7.108	-11.118	0.585	0.178	-0.079	2.682	0.228	0.852	0.577	-1.455	-0.138	0.031	1.092	0.355	-1.563	-0.584	0.594	-2.441	
6.20917	0.03308	0.00010	518.632	155.031	-135.177	0.000	-0.000	3.141	86254	-0.305	59.679	-6.868	-11.352	0.551	0.113	-0.064	2.659	0.305	0.811	0.622	-1.421	-0.151	0.031	1.084	0.355	-1.586	-0.594	0.581	-2.425	
0.09671	0.00218	0.00011	518.587	155.045	-135.261	-0.000	-0.000	3.141	86504	-0.531	59.389	-6.951	-11.318	0.542	0.117	-0.062	2.637	0.353	1.048	0.646	-1.403	-0.150	0.031	1.084	0.355	-1.588	-0.594	0.580	-2.424	
1.51724	0.00173	0.00021	517.071	155.044	-135.216	-0.000	-0.000	3.141	86736	-0.730	59.002	-6.906	-11.269	0.635	0.238	-0.074	2.845	0.508	1.043	0.771	-1.650	-0.166	0.031	1.083	0.355	-1.589	-0.595	0.580	-2.423	
7.02071	0.03333	0.00025	510.050	155.003	-135.189	-0.000	-0.000	3.141	87019	-1.081	58.621	-7.206	-10.827	0.563	0.144	-0.050	2.743	0.583	0.643	0.806	-1.633	-0.163	0.032	1.075	0.355	-1.611	-0.605	0.567	-2.407	
1.35092	0.01240	0.00021	508.700	155.047	-135.203	-0.000	-0.000	3.141	87255	-0.721	58.529	-6.913	-10.976	0.567	0.130	-0.043	2.668	0.832	0.692	0.896	-1.532	-0.153	0.032	1.072	0.355	-1.619	-0.609	0.562	-2.401	
0.07222	0.00007	0.00010	508.632	155.040	-135.225	-0.000	-0.000	3.141	87480	-0.582	58.508	-6.944	-10.741	0.578	0.237	-0.073	3.221	0.800	0.690	0.920	-1.816	-0.176	0.032	1.072	0.355	-1.620	-0.609	0.562	-2.401	
6.27423	0.02418	0.00014	502.358	155.063	-135.262	0.000	-0.000	3.141	87765	-0.582	57.475	-6.695	-11.164	0.635	0.240	-0.076	3.438	0.738	0.792	0.938	-1.955	-0.189	0.033	1.067	0.355	-1.636	-0.617	0.553	-2.389	
3.67688	0.02379	0.00019	498.681	155.059	-135.213	-0.000	-0.000	3.141	88047	-0.687	58.029	-6.837	-10.525	0.545	0.109	-0.034	2.831	0.810	0.800	0.916	-1.622	-0.158	0.033	1.062	0.355	-1.651	-0.626	0.545	-2.376	
0.05757	0.00012	0.00009	498.628	155.057	-135.237	-0.000	-0.000	3.141	88253	-1.188	58.136	-7.037	-9.332	0.557	0.124	-0.074	2.795	0.796	0.748	0.929	-1.623	-0.164	0.033	1.062	0.355	-1.651	-0.626	0.545	-2.376	
2.49782	0.01210	0.00047	496.152	154.733	-135.202	-0.000	-0.000	3.141	88468	-3.931	56.026	-11.070	-9.137	-0.748	0.904	-0.166	5.028	6.546	0.869	1.477	-1.687	-0.283	0.033	1.059	0.354	-1.659	-0.630	0.540	-2.370	
0.28239	0.00031	0.00041	496.149	155.014	-135.179	-0.000	-0.000	3.141	88658	-6.141	57.791	-13.153	-8.582	-1.315	0.609	-0.134	8.566	8.486	1.252	1.339	-1.810	-0.388	0.034	1.059	0.354	-1.659	-0.630	0.540	-2.370	
6.82366	0.01597	0.00021	496.004	155.074	-128.357	-0.000	0.000	3.141	88935	-5.084	56.554	-10.764	-9.755	-0.676	0.228	0.009	5.944	7.898	1.955	1.161	-0.974	-0.284	0.034	1.049	0.355	-1.663	-0.621	0.544	-2.376	
18.89990	0.07100	0.00096	495.591	155.570	-109.468	0.001	0.000	-3.142	89218	-0.532	55.651	-6.477	-11.304	0.234	-0.075	0.104	1.748	0.601	1.348	0.686	-0.681	-0.085	0.035	1.005	0.355	-1.680	-0.581	0.564	-2.405	
4.29091	0.02377	0.00083	495.910	155.030	-105.223	0.000	0.000	3.141	89498	-0.617	56.332	-6.496	-11.244	0.292	-0.058	0.061	2.059	0.583	1.376	0.715	-0.936	-0.128	0.034	0.991	0.355	-1.684	-0.567	0.572	-2.415	
0.00902	0.00028	0.00474	495.911	155.021	-105.224	-0.005	0.000	3.141	89687	-0.543	56.671	-6.498	-11.338	0.337	-0.069	-0.132	2.256	0.715	1.155	0.806	-1.101	-0.238	0.034	0.991	0.355	-1.684	-0.567	0.572	-2.415	
0.00888	0.15554	0.20603	495.913	155.013	-105.224	-0.211	0.000	3.141	89967	-0.676	56.684	-6.540	-11.315	0.481	-0.049	-0.208	2.290	-0.070	1.185	0.387	-1.270	-0.218	0.034	0.991	0.355	-1.684	-0.567	0.572	-2.259	
0.00434	0.41326	0.43381	495.915	155.009	-105.223	-0.645	-0.000	3.141	90248	-0.573	56.571	-6.535	-11.359	0.358	-0.075	-0.054	2.055	-1.046	1.125	-0.221	-1.338	-0.231	0.034	0.991	0.355	-1.684	-0.567	0.572	-1.846	
0.00237	0.44450	0.44290	495.915	155.007	-105.222	-1.087	-0.000	3.141	90531	-0.571	56.617	-6.498	-11.347	0.373	-0.079	-0.236	1.493	-1.888	1.080	-0.855	-1.177	-0.260	0.034	0.991	0.355	-1.684	-0.567	0.572	-1.401	
0.00149	0.41429	0.38315	495.916	155.005	-105.222	-1.471	-0.000	3.141	90813	-0.579	56.601	-6.512	-11.362	0.323	-0.078	-0.069	0.849	-2.214	1.106	-1.151	-0.855	-0.246	0.034	0.991	0.355	-1.684	-0.567	0.572	-0.987	
0.00067	0.14297	0.10031	495.916	155.005	-105.222	-1.571	-0.000	3.141	91095	-0.596	56.575	-6.495	-11.329	0.320	-0.058	-0.025	0.699	-2.118	1.109	-1.124	-0.777	-0.196	0.034	0.991	0.355	-1.684	-0.567	0.572	-0.844	
0.00022	0.00008	0.00429	495.916	155.005	-105.222	-1.575	-0.000	3.141	91330	-0.618	56.593	-6.503	-11.331	0.340	-0.075	-0.137	0.709	-2.245	1.044	-1.239	-0.807	-0.254	0.034	0.991	0.355	-1.684	-0.567	0.572	-0.844	
0.00043	0.15564	0.20762	495.916	155.004	-105.222	-1.783	-0.000	3.141	91610	-0.589	56.760	-6.499	-11.329	0.474	-0.089	-0.181	-0.045	-2.420	1.088	-1.466	-0.391	-0.260	0.034	0.991	0.355	-1.684	-0.567	0.572	-0.688	
0.00149	0.41166	0.42933	495.917	155.004	-105.222	-2.212	-0.000	-3.142	91890	-0.591	56.531	-6.502	-11.342	0.236	-0.027	-0.018	-1.063	-2.148	1.098	-1.502	0.256	-0.250	0.034	0.991	0.355	-1.684	-0.567	0.572	-0.277	
0.00023	0.45083	0.44295	495.917	155.004	-105.222	-2.655	-0.000	-3.141	92178	-0.628	56.609	-6.518	-11.347	0.359	-0.028	-0.434	-1.893	-1.526	1.076	-1.303	0.880	-0.261	0.034	0.991	0.355	-1.684	-0.567	0.572	0.174	
0.00061	0.40424	0.38362	495.918	155.004	-105.221	-3.039	-0.000	-3.141	92455	-0.614	56.605	-6.498	-11.330	0.298	-0.060	-0.111	-2.235	-0.957	1.068	-1.033	1.210	-0.284	0.034	0.991	0.355	-1.684	-0.567	0.572	0.578	
0.00024	0.14830	0.10300	495.917	155.004	-105.221	3.141	-0.000	-3.141	92737	-0.598	56.612	-6.517	-11.346	0.329	-0.054	-0.055	-2.176	-0.721	1.104	-0.911	1.181	-0.218	0.034	0.991	0.355	-1.684	-0.567	0.572	0.727	
0.36071	0.00009	0.00045	495.949	155.027	-105.580	-3.141	-0.000	-3.141	92970	-0.481	54.500	-6.295	-10.838	0.545	0.117	-0.131	-1.974	-0.608	-0.460	-0.833	1.315	-0.183	0.034	0.991	0.355	-1.684	-0.567	0.572	0.727	
13.20330	0.03780	0.00196	496.841	154.376	-118.737	3.140	0.001	-3.141	93253	-8.618	55.507	-16.303	-7.016	-2.007	1.441	-0.435	-8.499	-11.499	-2.738	-1.070	1.757	-0.403	0.034	1.014	0.354	-1.676	-0.589	0.560	0.742	
15.53918	0.06487	0.00116	496.279	154.886	-134.258	3.141	0.000	-3.141	93533	-10.616	52.383	-18.185	-5.174	-2.603	1.396	-0.461	-11.927	-19.124	-3.779	-1.683	2.024	-0.518	0.034	1.054	0.354	-1.661	-0.625	0.542	0.769	
1.04233	0.00822	0.00056	496.052	155.212	-135.221	-3.141	0.000	-3.142	93777	-8.096	55.082	-15.850	-8.513	-1.900	1.577	-0.186	-11.560	-15.913	0.096	-1.527	1.667	-0.454	0.034	1.059	0.355	-1.659	-0.630	0.540	0.772	
2.18228	0.00989	0.00105	498.214	155.486	-135.324	-3.141	-0.001	3.142	94034	-0.133	57.772	-6.873	-10.477	0.274	-0.137	0.059	-2.551	-4.493	0.990	-0.741	0.607	-0.124	0.034	1.061	0.355	-1.653	-0.626	0.544	0.767	
2.76311	0.01449	0.00088	500.956	155.152	-135.248	-3.142	-0.000	-3.141	94315	-0.329	57.792	-6.934	-10.564	0.341	-0.040	0.037	-1.498	-0.165	1.217	-0.466	0.771	-0.063	0.033	1.065	0.355	-1.644	-0.621	0.549	0.759	
0.15109	0.00039	0.00018	500.979	155.007	-135.211	-3.142	-0.000	-3.141	94535	-0.308	57.949	-6.924	-10.627	0.372	-0.033	0.101	-1.576	-0.174	1.211	-0.489	0.833	-0.054	0.033	1.064	0.355	-1.644	-0.622	0.549	0.759	
0.02514	0.03524	0.05488	500.975	154.984	-135.221	-3.087	-0.000	-3.141	94814	-0.371	57.854	-6.954	-10.615	0.216	-0.073	0.051	-1.422	-0.282	1.174	-0.527	0.707	-0.013	0.033	1.064	0.355	-1.644	-0.622	0.549	0.724	
0.00815	0.17459	0.19141	500.976	154.976	-135.224	-2.895	-0.000	-3.141	95093	-0.395	57.904	-6.973	-10.643	0.335	-0.026	0.083	-1.347	-0.558	1.147	-0.658	0.599	-0.009	0.033	1.064	0.355	-1.644	-0.622	0.549	0.549	
0.00326	0.16056	0.13513	500.973	154.977	-135.225	-2.760	-0.000	-3.141	95373	-0.375	57.913	-6.943	-10.641	0.339	-0.046	0.072	-1.321	-0.675	1.166	-0.703	0.556	-0.019	0.033	1.064	0.355	-1.644	-0.622	0.549	0.389	
0.00146	0.02244	0.01137	500.972	154.976	-135.226	-2.749	-0.000	-3.141	95653	-0.368	57.909	-6.937	-10.646	0.343	-0.044	0.039	-1.374	-0.819	1.135	-0.789	0.596	-0.074	0.033	1.064	0.355	-1.644	-0.622	0.549	0.366	
0.03717	0.00000	0.00008	500.937	154.966	-135.234	-2.749	-0.000	-3.141	95891	-0.418	57.582	-7.193	-10.561	0.547	0.216	-0.076	-2.016	-0.966	1.445	-0.962	1.046	-0.105	0.033	1.064	0.355	-1.644	-0.622	0.549	0.366	
6.35580	0.02421	0.00012	495.055	152.559	-135.251	-2.749	-0.000	-3.141	96178	-0.436	57.551	-6.984	-11.064	0.657	0.245	-0.111	-2.649	-0.648	1.030	-0.844	1.359	-0.079	0.030	1.059	0.355	-1.660	-0.630	0.540	0.376	
3.47676	0.02304	0.00040	491.844	151.227	-135.222	-2.749	0.000	-3.141	96459	-0.255	57.342	-6.885	-10.202	0.570	0.114	-0.034	-2.136	-0.760	0.979	-0.883	1.112	-0.059	0.027	1.054	0.355	-1.676	-0.639	0.531	0.385	
0.03825	0.00011	0.00007	491.859	151.193	-135.231	-2.749	0.000	-3.141	96694	0.378	57.752	-6.604	-9.189	0.598	0.133	-0.105	-2.117	-0.812	1.035	-0.888	1.103	-0.062	0.027	1.054	0.355	-1.676	-0.639	0.531	0.385	
3.87435	0.01244	0.00013	488.263	149.750	-135.224	-2.749	-0.000	-3.141	96930	-0.379	56.975	-6.992	-9.574	0.600	0.135	-0.090	-2.573	-0.816	1.494	-0.921	1.368	-0.081	0.025	1.051	0.355	-1.684	-0.644	0.526	0.390	
6.22916	0.03329	0.00007	482.522	147.332	-135.213	-2.749	-0.000	-3.141	97215	-0.317	56.918	-6.913	-9.702	0.549	0.034	-0.078	-2.227	-0.818	1.162	-0.945	1.109	-0.093	0.021	1.044	0.355	-1.707	-0.658	0.513	0.404	
0.13873	0.00176	0.00019	482.644	147.398	-135.220	-2.749	0.000	-3.141	97449	-0.212	56.586	-6.809	-9.809	0.547	0.047	-0.071	-2.109	-0.804	1.246	-0.919	1.053	-0.085	0.020	1.043	0.355	-1.708	-0.659	0.513	0.405	
1.60134	0.00142	0.00050	481.141	146.857	-135.321	-2.749	-0.000	-3.141	97687	-0.293	56.105	-6.916	-9.762	0.638	0.234	-0.094	-2.563	-0.460	1.072	-0.763	1.381	-0.066	0.020	1.043	0.355	-1.709	-0.659	0.512	0.406	
7.03577	0.03390	0.00023	474.678	144.076	-135.232	-2.749	-0.000	-3.141	97970	-2.518	53.960	-8.820	-7.162	-0.169	-0.047	-0.180	-4.273	-3.920	0.912	-1.328	1.450	-0.173	0.016	1.036	0.355	-1.731	-0.674	0.500	0.421	
1.32634	0.01302	0.00043	473.452	143.570	-135.211	-2.749	0.000	-3.141	98209	-2.487	53.769	-9.240	-7.136	-0.284	0.187	-0.171	-3.864	-6.094	0.167	-1.289	1.163	-0.203	0.014	1.033	0.355	-1.739	-0.679	0.495	0.427	
0.24545	0.00038	0.00053	473.656	143.705	-135.234	-2.749	-0.000	-3.141	98454	-0.345	55.711	-6.720	-9.534	0.206	-0.089	0.091	-1.287	-2.268	0.797	-1.072	0.464	-0.110	0.014	1.033	0.355	-1.739	-0.679	0.495	0.427	
3.64222	0.01677	0.00019	476.976	145.203	-135.268	-2.749	-0.000	-3.142	98736	-0.546	55.917	-6.813	-9.739	0.286	-0.001	0.044	-1.074	-1.311	1.043	-1.132	0.498	-0.113	0.017	1.037	0.355	-1.729	-0.672	0.501	0.419	
0.83757	0.00729	0.00024	477.771	145.466	-135.254	-2.749	-0.000	-3.141	98973	-0.649	56.027	-6.838	-9.562	0.316	-0.026	0.034	-1.341	-1.488	0.892	-1.192	0.693	-0.117	0.017	1.038	0.355	-1.724	-0.669	0.504	0.416	
0.06522	0.00010	0.00010	477.834	145.475	-135.240	-2.749	-0.000	-3.141	99203	-0.582	55.985	-6.812	-9.564	0.298	-0.037	0.106	-1.251	-1.335	0.849	-1.099	0.640	-0.069	0.017	1.038	0.355	-1.724	-0.669	0.504	0.416	
0.01220	0.05274	0.07606	477.846	145.473	-135.238	-2.673	-0.000	-3.141	99489	-0.648	55.979	-6.817	-9.542	0.383	-0.036	0.122	-0.997	-1.351	0.912	-1.077	0.447	-0.037	0.017	1.038	0.355	-1.724	-0.669	0.504	0.363	
0.01354	0.19074	0.19968	477.857	145.466	-135.235	-2.473	-0.000	-3.141	99767	-0.639	55.981	-6.820	-9.558	0.284	-0.047	0.092	-0.723	-1.451	0.937	-1.083	0.237	-0.027	0.017	1.038	0.355	-1.724	-0.669	0.504	0.172	
0.00561	0.13713	0.11270	477.862	145.468	-135.233	-2.360	-0.000	-3.142	100046	-0.597	55.971	-6.826	-9.556	0.270	-0.038	0.087	-0.630	-1.558	0.934	-1.127	0.175	-0.055	0.017	1.038	0.355	-1.724	-0.669	0.504	0.035	
0.00652	0.01243	0.00435	477.868	145.469	-135.231	-2.356	-0.000	-3.142	100327	-0.596	55.960	-6.826	-9.571	0.279	-0.036	0.084	-0.622	-1.634	0.903	-1.172	0.177	-0.081	0.017	1.038	0.355	-1.724	-0.668	0.504	0.023	
0.56866	0.00009	0.00058	477.435	145.101	-135.235	-2.357	-0.000	3.141	100579	-0.019	55.870	-6.818	-9.332	0.596	0.137	-0.068	-1.822	-1.352	0.917	-1.107	0.782	-0.047	0.017	1.038	0.355	-1.724	-0.668	0.504	0.023	
7.12609	0.02733	0.00039	472.410	140.048	-135.222	-2.356	-0.000	3.142	100861	-0.550	55.298	-7.008	-9.210	0.532	0.184	-0.086	-2.024	-1.447	0.968	-1.241	0.941	-0.075	0.009	1.033	0.355	-1.742	-0.681	0.494	0.030	
2.15162	0.01460	0.00024	470.905	138.510	-135.213	-2.356	0.000	-3.142	101124	-0.317	55.409	-6.791	-9.137	0.514	0.113	-0.042	-1.595	-1.516	0.874	-1.209	0.712	-0.065	0.004	1.030	0.355	-1.751	-0.687	0.488	0.034	
0.09748	0.00010	0.00014	470.834	138.447	-135.234	-2.356	-0.000	3.142	101363	0.013	54.999	-6.648	-8.778	0.600	0.209	-0.087	-1.987	-1.970	0.991	-1.497	0.944	-0.094	0.004	1.030	0.355	-1.751	-0.687	0.488	0.034	
6.49180	0.02259	0.00011	466.248	133.852	-135.193	-2.356	0.000	3.142	101655	-1.436	54.800	-7.383	-9.952	0.633	0.360	-0.072	-2.527	-1.397	1.324	-1.174	1.120	-0.034	-0.003	1.025	0.355	-1.766	-0.698	0.480	0.041	
3.41332	0.01977	0.00019	463.843	131.430	-135.201	-2.356	0.000	-3.142	101934	-0.253	54.734	-6.715	-8.765	0.532	0.017	-0.041	-1.388	-1.634	1.197	-1.279	0.562	-0.055	-0.010	1.021	0.355	-1.778	-0.708	0.473	0.047	
0.03906	0.00012	0.00010	463.834	131.396	-135.217	-2.356	-0.000	-3.142	102170	-0.148	54.933	-6.769	-8.507	0.615	0.173	-0.078	-2.436	-0.934	1.639	-0.968	1.022	-0.033	-0.010	1.021	0.355	-1.778	-0.708	0.473	0.047	
5.47586	0.01780	0.00021	459.953	127.533	-135.193	-2.356	-0.000	-3.142	102448	-0.230	54.216	-6.669	-8.827	0.660	0.239	-0.075	-2.083	-1.577	0.838	-1.334	1.000	-0.056	-0.016	1.018	0.355	-1.790	-0.717	0.467	0.052	
4.55439	0.02519	0.00018	456.730	124.315	-135.193	-2.356	-0.000	-3.142	102730	-0.257	54.175	-6.693	-8.413	0.532	0.147	-0.033	-1.587	-1.622	0.785	-1.314	0.761	-0.049	-0.024	1.013	0.355	-1.805	-0.729	0.458	0.060	
0.05620	0.00022	0.00008	456.694	124.319	-135.236	-2.356	-0.000	3.142	102993	0.219	54.161	-6.487	-7.918	0.525	0.116	-0.042	-1.669	-1.549	0.923	-1.253	0.780	-0.042	-0.024	1.014	0.355	-1.805	-0.729	0.458	0.060	
2.99786	0.00808	0.00031	454.610	122.164	-135.189	-2.356	0.000	-3.142	103196	-2.201	50.425	-8.248	-4.439	-0.411	-0.492	-0.100	-4.147	-5.975	0.116	-1.791	0.852	-0.142	-0.026	1.012	0.355	-1.810	-0.734	0.455	0.063	
1.13829	0.01064	0.00059	453.951	121.242	-135.086	-2.357	0.000	-3.141	103426	-3.843	49.463	-9.727	-3.107	-0.976	-0.727	-0.099	-6.272	-10.518	-0.871	-1.813	1.003	-0.249	-0.030	1.010	0.355	-1.816	-0.739	0.452	0.066	
1.77374	0.00696	0.00145	454.686	122.823	-135.412	-2.356	-0.001	3.141	103710	-0.613	53.814	-6.640	-8.301	0.201	-0.107	0.123	-0.450	-2.447	0.719	-1.236	0.003	-0.098	-0.027	1.012	0.355	-1.813	-0.735	0.454	0.064	
3.06349	0.01462	0.00052	457.029	124.792	-135.267	-2.356	-0.000	3.141	103993	-0.656	53.981	-6.635	-8.175	0.313	-0.043	0.080	-0.541	-1.718	0.637	-1.238	0.174	-0.068	-0.023	1.014	0.355	-1.804	-0.728	0.459	0.059	
0.16046	0.00045	0.00028	457.153	124.728	-135.187	-2.356	-0.000	-3.142	104227	-0.640	53.954	-6.712	-8.466	0.327	-0.021	0.105	-0.635	-1.726	0.637	-1.283	0.229	-0.060	-0.023	1.014	0.355	-1.803	-0.728	0.459	0.059	
0.00378	0.00880	0.01996	457.155	124.726	-135.187	-2.336	-0.000	-3.142	104476	-0.470	53.904	-6.587	-8.401	0.357	-0.051	0.131	-0.527	-1.476	0.759	-1.113	0.138	0.002	-0.023	1.014	0.355	-1.803	-0.728	0.459	0.050	
0.00130	0.12869	0.15341	457.156	124.727	-135.187	-2.183	-0.000	-3.142	104755	-0.586	53.996	-6.657	-8.361	0.281	-0.045	0.124	-0.230	-1.587	0.792	-1.127	-0.070	-0.006	-0.023	1.014	0.355	-1.803	-0.728	0.459	-0.078	
0.00517	0.19644	0.18089	457.152	124.731	-135.188	-2.002	-0.000	3.142	105038	-0.565	53.968	-6.657	-8.440	0.298	-0.043	0.162	-0.001	-1.539	0.770	-1.068	-0.221	-0.001	-0.023	1.014	0.355	-1.803	-0.728	0.459	-0.275	
0.00312	0.05871	0.03843	457.149	124.731	-135.190	-1.963	-0.000	3.142	105318	-0.547	53.960	-6.653	-8.434	0.303	-0.039	0.098	0.024	-1.634	0.792	-1.115	-0.238	-0.035	-0.023	1.014	0.355	-1.803	-0.728	0.459	-0.334	
0.00060	0.00012	0.00005	457.149	124.731	-135.190	-1.963	-0.000	3.142	105569	1.292	54.109	-5.631	-7.865	0.420	-0.092	0.080	0.179	-1.783	0.786	-1.191	-0.285	-0.053	-0.023	1.014	0.355	-1.803	-0.728	0.459	-0.334	
3.92635	0.00926	0.00026	455.664	121.096	-135.201	-1.963	0.000	3.142	105821	-0.171	53.648	-6.480	-8.127	0.608	0.189	0.045	-1.170	-1.881	1.172	-1.298	0.415	0.046	-0.028	1.013	0.355	-1.808	-0.732	0.456	-0.334	
6.08644	0.02313	0.00012	453.309	115.484	-135.193	-1.963	-0.000	3.142	106104	-0.051	53.724	-6.438	-8.114	0.548	0.138	0.042	-1.041	-1.906	0.974	-1.335	0.319	0.023	-0.042	1.009	0.355	-1.821	-0.744	0.449	-0.333	
0.08877	0.00084	0.00013	453.347	115.564	-135.199	-1.963	-0.000	3.142	106337	-0.273	53.726	-6.665	-8.050	0.536	0.141	0.046	-1.107	-1.888	1.048	-1.318	0.335	0.021	-0.042	1.009	0.355	-1.822	-0.744	0.449	-0.333	
1.55836	0.00117	0.00037	452.613	114.193	-135.295	-1.963	-0.000	3.141	106525	0.082	53.817	-6.509	-8.050	0.647	0.199	0.035	-1.349	-2.302	1.309	-1.464	0.501	0.051	-0.043	1.009	0.355	-1.822	-0.744	0.449	-0.333	
6.97438	0.02302	0.00031	450.057	107.704	-135.233	-1.963	0.000	3.141	106805	0.085	53.564	-6.278	-7.959	0.582	0.135	0.030	-1.120	-2.357	1.231	-1.550	0.379	0.048	-0.057	1.005	0.355	-1.835	-0.756	0.442	-0.333	
1.49710	0.00906	0.00025	449.466	106.329	-135.221	-1.963	-0.000	3.142	107046	-0.151	53.207	-6.558	-7.769	0.548	0.140	0.034	-1.096	-2.068	1.027	-1.420	0.321	0.018	-0.062	1.004	0.355	-1.840	-0.760	0.439	-0.333	
0.02767	0.00006	0.00007	449.461	106.302	-135.229	-1.963	-0.000	3.141	107290	-0.058	52.982	-6.473	-7.385	0.622	0.137	0.026	-1.405	-2.008	1.461	-1.429	0.485	0.047	-0.062	1.004	0.355	-1.840	-0.760	0.439	-0.333	
5.99002	0.01583	0.00018	447.178	100.765	-135.213	-1.963	-0.000	3.141	107569	-0.700	52.535	-6.933	-7.418	0.626	0.223	0.019	-0.751	-2.511	1.010	-1.729	0.230	0.019	-0.072	1.001	0.355	-1.848	-0.768	0.435	-0.333	
3.97624	0.01741	0.00024	445.657	97.091	-135.202	-1.963	-0.000	3.142	107846	0.003	52.852	-6.382	-7.571	0.568	0.135	0.017	-1.082	-2.119	0.994	-1.494	0.301	0.010	-0.082	0.999	0.355	-1.857	-0.777	0.429	-0.333	
0.03765	0.00009	0.00009	445.667	97.054	-135.201	-1.963	-0.000	3.142	108098	1.825	52.985	-5.571	-7.007	0.600	0.131	0.016	-0.981	-2.184	1.085	-1.509	0.269	0.008	-0.082	0.999	0.355	-1.857	-0.777	0.429	-0.333	
3.30096	0.00922	0.00103	444.985	93.832	-134.983	-1.964	0.000	-3.141	108343	-1.316	48.349	-6.947	-1.530	-0.636	-1.424	-0.115	-3.276	-9.626	0.584	-1.802	0.294	-0.168	-0.088	0.997	0.355	-1.861	-0.782	0.427	-0.333	
0.49058	0.00168	0.00080	444.554	93.996	-135.151	-1.963	0.000	-3.141	108579	-1.520	48.421	-6.952	-1.751	-0.809	-1.495	-0.119	-3.455	-13.534	-0.627	-2.259	0.022	-0.255	-0.089	0.997	0.355	-1.862	-0.783	0.426	-0.333	
2.61324	0.00717	0.00120	444.922	96.570	-135.407	-1.963	-0.001	3.141	108863	-0.586	53.117	-6.577	-7.847	0.195	-0.092	0.019	-0.339	-3.732	0.800	-1.258	-0.340	-0.172	-0.084	0.999	0.355	-1.859	-0.779	0.429	-0.333	
2.28172	0.00941	0.00047	446.036	98.557	-135.273	-1.963	-0.000	3.141	109144	-0.457	52.888	-6.542	-7.691	0.254	-0.010	0.021	0.036	-1.857	1.062	-1.257	-0.226	-0.114	-0.079	1.000	0.355	-1.854	-0.774	0.431	-0.333	
0.21020	0.00040	0.00032	446.232	98.558	-135.196	-1.964	-0.000	3.141	109395	-0.394	52.828	-6.471	-7.645	0.252	-0.015	0.136	0.005	-1.858	0.881	-1.254	-0.220	-0.108	-0.079	1.000	0.355	-1.854	-0.774	0.431	-0.333	
0.01962	0.02007	0.03532	446.246	98.544	-135.195	-1.928	-0.000	3.141	109647	-0.444	52.879	-6.475	-7.711	0.125	-0.070	0.098	0.008	-1.453	1.109	-0.951	-0.238	-0.000	-0.079	1.000	0.355	-1.854	-0.774	0.431	-0.353	
0.00479	0.15346	0.17617	446.250	98.543	-135.194	-1.752	-0.000	3.141	109926	-0.460	52.845	-6.527	-7.725	0.195	-0.059	0.056	0.310	-1.450	1.095	-0.909	-0.435	-0.014	-0.079	1.000	0.355	-1.854	-0.774	0.431	-0.506	
0.00803	0.18134	0.15954	446.255	98.537	-135.194	-1.593	-0.000	3.141	110209	-0.434	52.829	-6.502	-7.672	0.256	-0.029	0.154	0.391	-1.345	1.116	-0.807	-0.476	0.009	-0.079	1.000	0.355	-1.854	-0.774	0.431	-0.687	
0.00171	0.03814	0.02192	446.256	98.536	-135.194	-1.571	-0.000	3.141	110490	-0.462	52.834	-6.535	-7.675	0.261	-0.023	0.119	0.480	-1.457	1.065	-0.873	-0.522	-0.028	-0.079	1.000	0.355	-1.854	-0.774	0.431	-0.726	
0.00095	0.00001	0.00000	446.257	98.535	-135.194	-1.571	-0.000	3.141	110722	0.276	53.246	-6.499	-7.837	0.486	0.089	0.165	0.042	-1.319	1.243	-0.753	-0.267	0.004	-0.079	1.000	0.355	-1.854	-0.774	0.431	-0.726	
4.93705	0.01097	0.00040	446.384	93.600	-135.196	-1.571	0.000	-3.142	110991	-0.340	52.642	-6.786	-7.138	0.550	0.149	0.152	-0.608	-2.079	1.425	-1.181	0.029	0.142	-0.087	0.999	0.355	-1.856	-0.777	0.430	-0.731	
5.02521	0.01755	0.00008	446.341	88.575	-135.186	-1.571	0.000	-3.142	111268	-0.203	52.599	-6.512	-7.422	0.533	0.063	0.100	-0.327	-1.926	1.101	-1.131	-0.170	0.081	-0.101	0.998	0.355	-1.860	-0.781	0.428	-0.741	
0.02268	0.00006	0.00005	446.326	88.591	-135.194	-1.571	0.000	3.142	111550	-0.003	52.834	-6.427	-7.502	0.533	0.062	0.108	-0.351	-1.944	1.350	-1.115	-0.145	0.081	-0.101	0.998	0.355	-1.860	-0.781	0.428	-0.741	
2.34864	0.00289	0.00037	446.187	86.247	-135.255	-1.571	-0.000	3.141	111736	-0.207	52.786	-6.697	-7.341	0.600	0.176	0.147	-0.790	-2.046	1.341	-1.195	0.092	0.155	-0.103	0.998	0.355	-1.861	-0.781	0.428	-0.742	
6.95911	0.02036	0.00035	446.364	79.290	-135.193	-1.571	0.000	3.142	112015	-0.180	52.787	-6.443	-7.591	0.587	0.155	0.106	-0.573	-2.083	1.027	-1.228	-0.025	0.121	-0.119	0.997	0.355	-1.864	-0.785	0.425	-0.753	
0.70263	0.00528	0.00004	446.323	78.589	-135.190	-1.571	0.000	3.142	112298	-0.184	52.752	-6.529	-7.476	0.546	0.134	0.100	-0.376	-2.005	1.229	-1.211	-0.123	0.085	-0.123	0.997	0.355	-1.865	-0.786	0.425	-0.756	
