arturo-sol653/Programmierung-und-Regelung-fuer-Mensch-Roboterinteraktion/Robot Programming/iiwa-exercises/logs/log_wireloop_recorded_jointspace_test.log
TRANS_DIST	JS_DIST	ROT_DIST	X	Y	Z	A	B	C	TIME	MT0	MT1	MT2	MT3	MT4	MT5	MT6	FX	FY	FZ	TA	TB	TC	J0	J1	J2	J3	J4	J5	J6	
0.00000	0.00000	0.00000	449.236	69.828	-135.160	-1.571	-0.000	3.141	0	-0.220	52.813	-3.418	-7.795	0.230	-0.048	0.097	0.212	-1.206	1.424	-0.516	-0.329	0.008	-0.016	0.967	0.202	-1.861	-0.486	0.362	-1.012	
0.06098	0.00012	0.00015	449.296	69.826	-135.153	-1.571	-0.000	3.141	237	-0.186	52.762	-3.384	-7.816	0.236	-0.027	0.059	0.143	-1.293	1.374	-0.615	-0.301	-0.013	-0.016	0.967	0.202	-1.861	-0.486	0.362	-1.012	
0.07671	0.00014	0.00015	449.359	69.866	-135.135	-1.571	-0.000	-3.142	517	0.441	52.720	-3.095	-7.845	0.251	-0.031	0.080	0.070	-1.247	1.334	-0.587	-0.245	-0.005	-0.016	0.967	0.202	-1.861	-0.486	0.362	-1.012	
2.67822	0.00432	0.00047	449.555	67.196	-135.115	-1.571	0.000	-3.141	719	-0.152	53.020	-3.548	-8.096	0.449	0.175	0.140	-0.715	-1.510	1.529	-0.757	0.149	0.132	-0.019	0.967	0.202	-1.861	-0.487	0.361	-1.014	
6.90054	0.02103	0.00025	449.383	60.297	-135.138	-1.571	0.000	-3.141	1003	-0.070	52.695	-3.342	-7.805	0.394	0.167	0.095	-0.576	-1.741	1.283	-0.935	0.025	0.102	-0.035	0.966	0.202	-1.865	-0.489	0.359	-1.027	
0.37248	0.00404	0.00031	449.491	59.944	-135.092	-1.570	0.000	-3.141	1208	0.558	52.924	-3.116	-7.873	0.432	0.176	0.136	-0.125	-1.770	1.499	-0.945	-0.121	0.081	-0.038	0.966	0.202	-1.865	-0.490	0.359	-1.030	
4.83422	0.01058	0.00034	449.469	55.109	-135.081	-1.571	-0.000	-3.141	1474	-0.190	52.786	-3.484	-7.719	0.485	0.201	0.132	-0.318	-1.892	1.534	-1.011	-0.039	0.138	-0.046	0.966	0.202	-1.866	-0.491	0.358	-1.037	
5.25296	0.01895	0.00014	449.395	49.857	-135.101	-1.571	0.000	-3.141	1754	0.063	52.684	-3.227	-7.650	0.441	0.147	0.043	0.067	-1.894	1.186	-1.040	-0.299	0.055	-0.060	0.965	0.202	-1.869	-0.493	0.356	-1.049	
0.23740	0.00014	0.00019	449.519	49.655	-135.092	-1.571	0.000	-3.141	1957	-0.007	52.588	-3.349	-7.538	0.475	0.170	0.124	-0.182	-1.904	1.475	-0.991	-0.084	0.130	-0.060	0.965	0.202	-1.869	-0.493	0.356	-1.049	
6.91929	0.01775	0.00036	449.391	42.737	-135.100	-1.571	-0.000	-3.142	2241	-1.512	52.579	-4.155	-7.591	0.475	0.201	0.126	-1.011	-1.823	1.718	-0.931	0.284	0.164	-0.073	0.965	0.202	-1.870	-0.494	0.356	-1.060	
2.78928	0.01217	0.00035	449.421	39.948	-135.103	-1.570	0.000	-3.141	2521	0.242	52.480	-3.225	-7.583	0.422	0.150	0.070	-0.060	-1.969	1.283	-1.051	-0.247	0.056	-0.082	0.964	0.202	-1.872	-0.495	0.355	-1.068	
2.52297	0.00368	0.00035	449.411	37.425	-135.138	-1.571	0.000	-3.142	2726	0.078	52.583	-3.288	-7.594	0.477	0.192	0.124	-0.541	-1.877	1.515	-0.959	0.087	0.146	-0.085	0.964	0.202	-1.872	-0.495	0.354	-1.071	
6.98518	0.02150	0.00010	449.378	30.440	-135.119	-1.571	-0.000	-3.142	3010	-0.157	52.717	-3.318	-7.633	0.446	0.196	0.096	-0.485	-1.978	1.485	-1.037	-0.010	0.127	-0.101	0.964	0.202	-1.874	-0.497	0.354	-1.085	
0.48916	0.00501	0.00049	449.497	29.966	-135.094	-1.570	0.000	-3.141	3225	1.994	52.592	-2.290	-7.610	0.447	0.129	0.126	0.048	-1.957	1.377	-1.023	-0.253	0.088	-0.105	0.964	0.202	-1.874	-0.497	0.353	-1.088	
3.88597	0.00793	0.00060	449.376	26.082	-135.142	-1.571	-0.000	3.142	3450	-0.075	52.467	-3.476	-7.571	0.489	0.197	0.125	-0.580	-1.834	1.579	-0.945	0.093	0.156	-0.111	0.964	0.202	-1.874	-0.497	0.353	-1.094	
6.25209	0.02101	0.00016	449.423	19.831	-135.087	-1.571	-0.000	-3.142	3730	0.089	52.461	-3.241	-7.575	0.463	0.184	0.069	-0.046	-2.057	1.409	-1.078	-0.206	0.091	-0.126	0.963	0.202	-1.875	-0.499	0.352	-1.108	
0.05788	0.00166	0.00028	449.397	19.882	-135.097	-1.570	-0.000	-3.141	3929	-0.134	52.396	-3.523	-7.508	0.453	0.202	0.117	-0.577	-1.778	1.474	-0.889	0.148	0.140	-0.127	0.963	0.202	-1.876	-0.499	0.352	-1.109	
6.18995	0.01539	0.00022	449.358	13.692	-135.131	-1.570	-0.000	3.142	4216	-1.214	52.435	-3.970	-7.488	0.491	0.218	0.122	-0.582	-1.894	1.583	-0.934	0.162	0.161	-0.138	0.963	0.202	-1.876	-0.499	0.352	-1.120	
3.79499	0.01556	0.00008	449.257	9.898	-135.131	-1.570	-0.000	3.141	4498	-0.031	52.407	-3.391	-7.525	0.445	0.186	0.086	-0.246	-1.900	1.390	-0.999	-0.110	0.101	-0.149	0.963	0.202	-1.877	-0.500	0.352	-1.130	
1.34863	0.00104	0.00011	449.323	8.551	-135.126	-1.570	-0.000	3.142	4700	0.070	52.360	-3.448	-7.511	0.427	0.194	0.144	-0.758	-1.760	1.554	-0.858	0.250	0.155	-0.150	0.963	0.202	-1.877	-0.500	0.352	-1.131	
7.06386	0.02160	0.00020	449.267	1.488	-135.150	-1.571	-0.000	3.141	4981	0.311	52.438	-3.243	-7.412	0.467	0.181	0.085	-0.315	-1.913	1.612	-0.936	0.074	0.163	-0.165	0.963	0.202	-1.877	-0.500	0.352	-1.146	
1.54939	0.00862	0.00033	449.249	-0.061	-135.158	-1.570	-0.000	3.141	5263	2.262	52.533	-2.195	-7.819	0.419	0.143	0.128	-0.296	-1.887	1.457	-0.950	-0.016	0.096	-0.171	0.963	0.202	-1.877	-0.500	0.351	-1.152	
4.01386	0.00869	0.00052	449.405	-4.072	-135.125	-1.571	0.000	-3.141	5509	0.054	52.484	-3.439	-7.555	0.275	0.165	0.123	-1.041	-1.481	1.719	-0.669	0.491	0.107	-0.178	0.963	0.202	-1.877	-0.500	0.351	-1.158	
6.02695	0.02176	0.00048	449.543	-10.097	-135.082	-1.571	0.000	-3.141	5791	0.167	52.403	-3.273	-7.607	0.286	0.160	0.074	-0.139	-1.598	1.589	-0.789	-0.036	0.033	-0.193	0.963	0.202	-1.876	-0.499	0.351	-1.174	
0.09221	0.00117	0.00030	449.558	-10.006	-135.081	-1.571	0.000	-3.141	5981	0.405	52.570	-3.311	-7.671	0.312	0.087	0.115	-0.879	-1.486	1.621	-0.693	0.387	0.095	-0.194	0.963	0.202	-1.876	-0.499	0.351	-1.175	
5.13138	0.01250	0.00033	449.458	-15.137	-135.107	-1.571	0.000	-3.141	6226	0.246	52.334	-3.417	-7.540	0.192	-0.005	0.109	-1.240	-1.019	1.899	-0.299	0.645	0.097	-0.202	0.963	0.202	-1.876	-0.499	0.352	-1.184	
4.97898	0.01977	0.00007	449.461	-20.116	-135.106	-1.571	0.000	-3.141	6508	0.206	52.407	-3.267	-7.687	0.207	-0.005	0.040	-0.212	-1.147	1.715	-0.437	0.042	0.003	-0.216	0.963	0.202	-1.875	-0.498	0.352	-1.198	
0.36973	0.00015	0.00007	449.462	-20.485	-135.120	-1.571	0.000	-3.141	6710	0.609	52.303	-3.145	-7.599	0.168	-0.053	0.132	-0.803	-0.887	1.905	-0.235	0.495	0.083	-0.216	0.963	0.202	-1.875	-0.498	0.352	-1.198	
7.02532	0.02015	0.00005	449.452	-27.511	-135.134	-1.571	0.000	-3.141	6991	-1.028	52.438	-4.105	-7.554	0.158	-0.082	0.124	-1.115	-0.644	1.917	-0.068	0.664	0.098	-0.230	0.964	0.202	-1.874	-0.497	0.353	-1.213	
2.60608	0.01228	0.00053	449.245	-30.108	-135.170	-1.571	-0.000	3.141	7272	0.688	52.381	-3.151	-7.657	0.189	-0.092	0.094	-0.465	-0.812	1.739	-0.199	0.206	0.032	-0.238	0.964	0.202	-1.874	-0.497	0.354	-1.222	
2.63699	0.00451	0.00036	449.380	-32.741	-135.118	-1.571	-0.000	3.142	7473	0.347	52.484	-3.415	-7.818	0.161	-0.113	0.148	-1.486	-0.522	1.995	0.033	0.875	0.118	-0.241	0.964	0.202	-1.874	-0.497	0.354	-1.225	
6.88131	0.02351	0.00024	449.237	-39.621	-135.193	-1.571	0.000	3.141	7757	0.151	52.436	-3.321	-7.700	0.194	-0.085	0.111	-1.323	-0.588	1.893	-0.008	0.722	0.099	-0.257	0.964	0.202	-1.872	-0.495	0.355	-1.242	
0.43958	0.00475	0.00017	449.216	-40.059	-135.180	-1.571	-0.000	3.141	7999	0.699	52.723	-3.281	-7.829	0.158	-0.126	0.140	-1.168	-0.714	1.934	-0.092	0.716	0.109	-0.260	0.965	0.202	-1.872	-0.495	0.355	-1.246	
4.95561	0.01236	0.00014	449.268	-45.015	-135.161	-1.571	-0.000	3.141	8271	0.229	52.442	-3.520	-7.733	0.142	-0.134	0.148	-1.429	-0.469	2.155	0.076	0.891	0.120	-0.268	0.965	0.202	-1.870	-0.494	0.356	-1.255	
5.12464	0.02087	0.00018	449.199	-50.139	-135.176	-1.571	-0.000	3.141	8552	0.246	52.438	-3.280	-7.695	0.180	-0.065	0.086	-0.695	-0.827	1.637	-0.196	0.427	0.060	-0.282	0.965	0.202	-1.869	-0.492	0.357	-1.270	
0.30592	0.00027	0.00008	449.142	-50.439	-135.182	-1.571	-0.000	3.141	8755	0.546	52.445	-3.321	-7.650	0.144	-0.149	0.151	-1.025	-0.568	1.902	0.015	0.746	0.110	-0.282	0.965	0.202	-1.869	-0.492	0.357	-1.271	
6.80289	0.01986	0.00028	449.304	-57.240	-135.165	-1.571	-0.000	3.141	9033	-1.589	52.537	-4.491	-7.476	0.123	-0.133	0.129	-1.537	-0.675	2.063	0.010	0.964	0.116	-0.295	0.966	0.202	-1.866	-0.491	0.358	-1.285	
2.82434	0.01359	0.00026	449.197	-60.063	-135.184	-1.571	0.000	3.141	9314	0.616	52.442	-3.162	-7.738	0.181	-0.070	0.110	-0.678	-0.914	1.644	-0.235	0.399	0.063	-0.303	0.966	0.202	-1.865	-0.489	0.359	-1.296	
2.49696	0.00420	0.00046	449.384	-62.552	-135.131	-1.571	0.000	-3.142	9518	0.641	52.649	-3.259	-7.740	0.136	-0.176	0.142	-0.837	-0.463	1.990	0.064	0.716	0.112	-0.306	0.966	0.202	-1.865	-0.489	0.359	-1.299	
6.90782	0.02396	0.00032	449.198	-69.457	-135.200	-1.571	0.000	3.141	9800	0.375	52.556	-3.492	-7.836	0.170	-0.124	0.107	-1.311	-0.596	1.870	0.006	0.834	0.110	-0.321	0.967	0.202	-1.862	-0.487	0.362	-1.317	
0.52283	0.00568	0.00015	449.207	-69.980	-135.204	-1.571	0.000	3.141	10017	0.421	52.787	-3.370	-7.856	0.211	-0.139	0.064	-0.999	-0.715	1.975	-0.069	0.640	0.090	-0.325	0.968	0.202	-1.861	-0.486	0.362	-1.321	
0.11747	0.00020	0.00016	449.245	-70.085	-135.169	-1.571	0.000	3.141	10282	0.359	52.676	-3.446	-7.831	0.247	-0.132	0.046	-0.989	-0.793	2.020	-0.114	0.603	0.081	-0.325	0.968	0.202	-1.861	-0.486	0.362	-1.321	
0.06886	0.00018	0.00011	449.262	-70.146	-135.140	-1.571	0.000	3.141	10533	0.315	52.666	-3.396	-7.821	0.250	-0.129	0.143	-0.940	-0.822	1.884	-0.130	0.570	0.082	-0.325	0.967	0.202	-1.861	-0.486	0.362	-1.321	
0.01063	0.01467	0.02775	449.266	-70.137	-135.136	-1.543	-0.000	3.141	10765	0.469	52.669	-3.363	-7.868	0.325	-0.108	0.180	-1.195	-0.880	1.924	-0.159	0.765	0.158	-0.325	0.967	0.202	-1.861	-0.486	0.362	-1.336	
0.00858	0.14460	0.16854	449.265	-70.145	-135.133	-1.375	0.000	3.141	11047	0.409	52.732	-3.379	-7.851	0.198	-0.125	0.174	-0.917	-1.086	1.929	-0.302	0.673	0.156	-0.325	0.967	0.202	-1.861	-0.486	0.362	-1.480	
0.00876	0.18672	0.16753	449.266	-70.136	-135.132	-1.207	0.000	3.141	11327	0.437	52.724	-3.352	-7.839	0.200	-0.099	0.188	-0.840	-1.184	1.953	-0.377	0.696	0.158	-0.325	0.967	0.202	-1.861	-0.486	0.362	-1.667	
0.00166	0.04685	0.02898	449.268	-70.136	-135.131	-1.178	0.000	3.141	11612	0.426	52.704	-3.375	-7.843	0.207	-0.094	0.158	-0.783	-1.194	1.947	-0.382	0.673	0.140	-0.325	0.967	0.202	-1.861	-0.486	0.362	-1.714	
1.52036	0.00152	0.00031	449.990	-71.472	-135.061	-1.178	-0.000	-3.141	11800	0.755	52.504	-3.194	-7.980	0.156	-0.189	0.185	-1.286	-1.063	2.068	-0.283	1.061	0.163	-0.326	0.967	0.202	-1.860	-0.486	0.362	-1.715	
6.80300	0.03008	0.00066	452.364	-77.846	-135.200	-1.178	0.000	3.141	12082	0.770	52.915	-3.140	-8.080	0.180	-0.172	0.163	-0.572	-0.606	1.709	-0.156	0.766	0.138	-0.338	0.971	0.202	-1.849	-0.477	0.370	-1.737	
1.50842	0.01122	0.00027	452.871	-79.267	-135.213	-1.178	0.000	3.141	12321	2.199	53.395	-2.507	-8.990	0.164	-0.109	0.186	-0.567	-1.014	1.392	-0.333	0.568	0.103	-0.342	0.972	0.202	-1.845	-0.474	0.372	-1.745	
3.88557	0.01047	0.00051	454.541	-82.775	-135.163	-1.178	0.000	3.141	12550	0.491	53.351	-3.374	-8.684	0.151	-0.154	0.185	-1.048	-0.746	1.803	-0.203	1.010	0.156	-0.347	0.973	0.202	-1.841	-0.471	0.375	-1.753	
6.34303	0.02945	0.00006	456.952	-88.642	-135.159	-1.178	0.000	3.141	12832	0.460	52.970	-3.352	-8.234	0.195	-0.085	0.143	-0.706	-1.066	1.767	-0.371	0.653	0.126	-0.358	0.976	0.202	-1.830	-0.462	0.382	-1.774	
0.05383	0.00210	0.00016	456.918	-88.602	-135.169	-1.178	0.000	3.141	13025	0.601	53.359	-3.384	-8.301	0.159	-0.219	0.166	-1.163	-1.024	1.823	-0.332	1.057	0.161	-0.359	0.977	0.202	-1.829	-0.462	0.383	-1.776	
2.87592	0.00948	0.00022	458.036	-91.251	-135.157	-1.178	0.000	3.141	13315	-0.438	53.583	-4.106	-8.410	0.172	-0.148	0.170	-1.663	-1.314	2.050	-0.437	1.300	0.180	-0.363	0.978	0.202	-1.825	-0.459	0.385	-1.783	
1.31210	0.00763	0.00013	458.570	-92.450	-135.152	-1.178	0.000	3.142	13596	0.535	53.410	-3.431	-8.474	0.202	-0.072	0.160	-0.862	-1.192	1.465	-0.436	0.734	0.134	-0.366	0.979	0.202	-1.822	-0.457	0.387	-1.788	
0.03092	0.00707	0.01690	458.546	-92.469	-135.155	-1.161	0.000	3.142	13800	0.487	53.681	-3.414	-8.496	0.207	-0.054	0.215	-0.783	-1.330	1.599	-0.509	0.720	0.165	-0.366	0.979	0.202	-1.822	-0.457	0.387	-1.795	
0.02597	0.12618	0.15181	458.553	-92.444	-135.156	-1.009	0.000	3.142	14084	0.452	53.703	-3.439	-8.518	0.273	-0.076	0.094	-0.507	-1.467	1.727	-0.620	0.605	0.172	-0.366	0.979	0.202	-1.822	-0.457	0.387	-1.922	
0.02608	0.19593	0.18183	458.561	-92.419	-135.156	-0.828	0.000	3.142	14363	0.508	53.625	-3.388	-8.485	0.246	-0.074	0.145	-0.233	-1.491	1.698	-0.661	0.464	0.158	-0.366	0.979	0.202	-1.822	-0.457	0.387	-2.117	
0.00364	0.06315	0.04210	458.563	-92.422	-135.155	-0.785	0.000	3.142	14643	0.497	53.626	-3.410	-8.471	0.261	-0.076	0.109	-0.160	-1.431	1.648	-0.635	0.426	0.135	-0.366	0.979	0.202	-1.822	-0.457	0.387	-2.181	
1.84348	0.00221	0.00039	459.940	-93.645	-135.075	-0.785	-0.000	-3.141	14877	0.597	54.004	-3.545	-8.344	0.158	-0.245	0.175	-0.557	-1.488	2.037	-0.715	0.855	0.160	-0.367	0.979	0.202	-1.820	-0.457	0.388	-2.182	
6.80971	0.03311	0.00064	464.620	-98.590	-135.173	-0.785	0.000	3.141	15158	0.616	54.387	-3.416	-8.901	0.187	-0.146	0.109	-0.267	-1.589	2.151	-0.729	0.678	0.129	-0.373	0.984	0.202	-1.803	-0.445	0.400	-2.203	
1.22579	0.01162	0.00020	465.470	-99.474	-135.182	-0.785	0.000	3.141	15400	0.626	54.361	-3.536	-8.638	0.123	-0.202	0.150	-0.737	-1.479	2.303	-0.715	0.786	0.128	-0.376	0.986	0.202	-1.797	-0.441	0.404	-2.210	
5.11770	0.01733	0.00025	469.127	-103.054	-135.176	-0.785	0.000	3.141	15657	0.798	54.512	-3.411	-9.137	0.152	-0.219	0.146	-0.842	-1.319	1.707	-0.695	0.929	0.143	-0.379	0.989	0.202	-1.787	-0.435	0.410	-2.220	
4.95836	0.02835	0.00017	472.608	-106.585	-135.197	-0.785	0.000	3.141	15939	0.637	54.929	-3.479	-9.229	0.209	-0.105	0.106	-0.301	-1.451	1.422	-0.676	0.538	0.114	-0.385	0.994	0.202	-1.770	-0.426	0.420	-2.237	
0.47929	0.00023	0.00043	472.987	-106.866	-135.111	-0.785	-0.000	3.142	16173	0.823	54.759	-3.422	-9.269	0.151	-0.168	0.138	-0.606	-1.644	1.630	-0.817	0.836	0.145	-0.385	0.994	0.202	-1.771	-0.426	0.420	-2.237	
3.42793	0.01429	0.00009	475.395	-109.305	-135.139	-0.785	-0.000	3.142	16454	0.429	55.238	-3.683	-9.594	0.210	-0.100	0.100	-1.080	-1.596	1.601	-0.835	0.987	0.147	-0.388	0.997	0.202	-1.762	-0.421	0.426	-2.246	
0.99576	0.00714	0.00004	476.112	-109.996	-135.155	-0.785	0.000	3.142	16735	0.636	54.996	-3.540	-9.333	0.217	-0.083	0.126	-0.054	-1.553	1.420	-0.715	0.421	0.095	-0.389	0.998	0.202	-1.758	-0.419	0.428	-2.250	
0.01329	0.01420	0.02700	476.105	-110.007	-135.156	-0.758	0.000	3.142	16967	0.563	55.325	-3.483	-9.486	0.202	-0.057	0.172	-0.056	-1.626	1.624	-0.797	0.444	0.146	-0.389	0.998	0.202	-1.758	-0.419	0.428	-2.264	
0.01969	0.14357	0.16596	476.109	-109.988	-135.155	-0.592	0.000	3.142	17247	0.514	55.159	-3.543	-9.480	0.291	-0.048	0.053	0.310	-1.532	1.650	-0.800	0.240	0.136	-0.389	0.998	0.202	-1.758	-0.419	0.428	-2.408	
0.02611	0.18538	0.16900	476.116	-109.962	-135.155	-0.423	0.000	3.142	17525	0.538	55.137	-3.510	-9.437	0.243	-0.072	0.148	0.465	-1.454	1.590	-0.802	0.159	0.145	-0.389	0.998	0.202	-1.758	-0.419	0.428	-2.593	
0.00067	0.04913	0.03040	476.115	-109.963	-135.155	-0.393	0.000	3.142	17809	0.493	55.156	-3.525	-9.478	0.249	-0.069	0.110	0.549	-1.446	1.580	-0.794	0.123	0.129	-0.389	0.998	0.202	-1.758	-0.419	0.428	-2.642	
1.80197	0.00215	0.00037	477.787	-110.631	-135.080	-0.393	-0.000	3.142	18012	0.741	56.014	-3.544	-9.771	0.150	-0.155	0.145	-0.005	-1.647	1.939	-0.991	0.496	0.140	-0.389	0.998	0.202	-1.756	-0.418	0.429	-2.643	
6.90722	0.03237	0.00051	484.139	-113.344	-135.165	-0.393	0.000	3.141	18294	0.723	56.118	-3.561	-9.973	0.215	-0.115	0.064	0.434	-1.585	2.050	-0.925	0.295	0.127	-0.390	1.006	0.202	-1.735	-0.407	0.443	-2.658	
1.08829	0.01122	0.00034	485.144	-113.760	-135.200	-0.393	0.000	3.141	18533	0.733	55.039	-3.451	-10.866	0.192	-0.108	0.134	0.464	-1.452	1.547	-0.822	0.218	0.099	-0.390	1.008	0.202	-1.727	-0.403	0.448	-2.663	
4.23092	0.01285	0.00031	489.047	-115.393	-135.196	-0.393	0.000	3.141	18765	0.847	56.238	-3.579	-10.753	0.181	-0.107	0.136	0.184	-1.758	1.439	-1.029	0.429	0.147	-0.390	1.011	0.202	-1.718	-0.399	0.453	-2.668	
6.02339	0.03139	0.00013	494.622	-117.674	-135.163	-0.393	0.000	3.141	19051	0.727	56.584	-3.505	-10.273	0.229	-0.112	0.082	0.471	-1.493	1.689	-0.877	0.208	0.118	-0.391	1.018	0.202	-1.696	-0.390	0.467	-2.681	
0.35291	0.00098	0.00018	494.689	-117.702	-134.818	-0.393	-0.000	3.141	19285	0.493	57.421	-3.643	-10.844	0.174	-0.100	0.150	0.720	-1.650	2.211	-0.897	0.207	0.122	-0.391	1.018	0.202	-1.696	-0.389	0.468	-2.682	
18.39007	0.05176	0.00063	498.991	-119.676	-117.047	-0.393	-0.000	3.141	19567	0.452	53.773	-3.350	-10.717	0.204	-0.205	0.139	0.772	-1.827	1.842	-1.025	0.179	0.140	-0.391	0.989	0.202	-1.696	-0.364	0.494	-2.704	
12.24646	0.05435	0.00068	501.594	-120.542	-105.112	-0.393	0.000	3.142	19846	0.577	56.491	-3.499	-11.632	0.253	-0.104	0.095	0.922	-1.506	1.923	-0.838	0.017	0.116	-0.391	0.959	0.202	-1.696	-0.337	0.521	-2.728	
0.01311	0.00022	0.00014	501.586	-120.539	-105.122	-0.393	0.000	3.142	20082	0.571	56.347	-3.477	-11.583	0.261	-0.100	-0.073	1.126	-1.332	1.948	-0.700	-0.093	0.023	-0.391	0.959	0.202	-1.696	-0.337	0.521	-2.728	
0.00389	0.03279	0.05090	501.587	-120.540	-105.118	-0.444	0.000	3.141	20361	0.589	56.367	-3.462	-11.622	0.215	-0.097	-0.098	1.083	-1.285	1.872	-0.631	-0.104	-0.022	-0.391	0.959	0.202	-1.696	-0.337	0.521	-2.695	
0.00314	0.16830	0.18624	501.584	-120.540	-105.118	-0.630	0.000	3.141	20642	0.552	56.390	-3.449	-11.573	0.265	-0.082	-0.101	0.799	-1.546	1.873	-0.675	0.019	-0.019	-0.391	0.959	0.202	-1.696	-0.337	0.521	-2.527	
0.00046	0.22050	0.22122	501.583	-120.540	-105.118	-0.851	0.000	3.141	20923	0.569	56.371	-3.426	-11.627	0.342	-0.085	0.014	0.396	-1.686	1.868	-0.675	0.181	-0.008	-0.391	0.959	0.202	-1.696	-0.337	0.521	-2.306	
0.00025	0.21994	0.21917	501.583	-120.540	-105.118	-1.070	0.000	3.141	21202	0.618	56.367	-3.474	-11.624	0.207	-0.098	-0.060	0.011	-1.733	1.869	-0.639	0.320	-0.005	-0.391	0.959	0.202	-1.696	-0.337	0.521	-2.086	
0.00143	0.22304	0.22459	501.582	-120.539	-105.118	-1.295	0.000	3.141	21487	0.633	56.405	-3.466	-11.568	0.250	-0.075	-0.076	-0.344	-1.705	1.863	-0.576	0.432	-0.003	-0.391	0.959	0.202	-1.696	-0.337	0.521	-1.863	
0.00069	0.21988	0.21909	501.581	-120.539	-105.118	-1.514	-0.000	3.141	21768	0.630	56.374	-3.464	-11.587	0.241	-0.088	-0.147	-0.699	-1.594	1.852	-0.486	0.525	-0.015	-0.391	0.959	0.202	-1.696	-0.337	0.521	-1.643	
0.00093	0.22149	0.21995	501.580	-120.539	-105.118	-1.734	-0.000	3.141	22047	0.565	56.367	-3.451	-11.608	0.167	-0.100	-0.097	-0.985	-1.408	1.853	-0.380	0.586	-0.029	-0.391	0.959	0.202	-1.696	-0.337	0.521	-1.422	
0.00140	0.19717	0.18296	501.579	-120.539	-105.119	-1.917	-0.000	3.141	22329	0.587	56.366	-3.441	-11.596	0.278	-0.087	-0.130	-1.118	-1.280	1.825	-0.317	0.592	-0.052	-0.391	0.959	0.202	-1.696	-0.337	0.521	-1.225	
0.00015	0.06686	0.04621	501.579	-120.539	-105.119	-1.963	-0.000	3.141	22609	0.583	56.366	-3.475	-11.596	0.281	-0.090	-0.097	-1.173	-1.217	1.831	-0.286	0.619	-0.031	-0.391	0.959	0.202	-1.696	-0.337	0.521	-1.158	
0.00017	0.00079	0.00028	501.579	-120.539	-105.119	-1.963	-0.000	3.141	22828	0.585	56.364	-3.462	-11.613	0.277	-0.087	-0.136	-1.174	-1.215	1.842	-0.287	0.616	-0.033	-0.391	0.959	0.202	-1.696	-0.337	0.521	-1.157	
0.00030	0.01106	0.02172	501.579	-120.539	-105.119	-1.985	-0.000	3.141	23074	0.573	56.372	-3.490	-11.567	0.334	-0.041	-0.142	-1.225	-1.175	1.848	-0.276	0.613	-0.038	-0.391	0.959	0.202	-1.696	-0.337	0.521	-1.146	
0.00163	0.12669	0.15054	501.577	-120.539	-105.119	-2.136	-0.000	3.141	23354	0.586	56.370	-3.469	-11.594	0.254	-0.088	-0.057	-1.435	-0.942	1.834	-0.173	0.658	-0.039	-0.391	0.959	0.202	-1.696	-0.337	0.521	-1.019	
0.00085	0.21794	0.22110	501.577	-120.539	-105.119	-2.357	-0.000	3.141	23635	0.547	56.385	-3.463	-11.589	0.296	-0.080	-0.116	-1.621	-0.585	1.847	-0.031	0.682	-0.029	-0.391	0.959	0.202	-1.696	-0.337	0.521	-0.801	
0.00030	0.21986	0.21831	501.576	-120.539	-105.119	-2.575	-0.000	3.142	23915	0.546	56.378	-3.443	-11.639	0.350	-0.079	-0.098	-1.711	-0.216	1.834	0.102	0.662	-0.028	-0.391	0.959	0.202	-1.696	-0.337	0.521	-0.581	
0.00022	0.22152	0.22309	501.576	-120.539	-105.119	-2.798	-0.000	3.142	24195	0.575	56.371	-3.463	-11.633	0.310	-0.084	-0.112	-1.707	0.182	1.835	0.238	0.613	-0.019	-0.391	0.959	0.202	-1.696	-0.337	0.521	-0.360	
0.00015	0.22146	0.22067	501.576	-120.539	-105.119	-3.019	-0.000	3.142	24479	0.579	56.363	-3.494	-11.599	0.138	-0.086	-0.016	-1.624	0.554	1.827	0.354	0.537	-0.020	-0.391	0.959	0.202	-1.696	-0.337	0.521	-0.138	
0.00019	0.22301	0.22224	501.576	-120.539	-105.119	3.042	-0.000	-3.142	24763	0.569	56.398	-3.447	-11.593	0.279	-0.073	-0.006	-1.483	0.903	1.837	0.453	0.446	-0.014	-0.391	0.959	0.202	-1.696	-0.337	0.521	0.085	
0.00007	0.21181	0.20488	501.576	-120.539	-105.119	2.837	-0.000	-3.142	25041	0.587	56.358	-3.485	-11.613	0.288	-0.071	-0.130	-1.299	1.089	1.821	0.472	0.363	-0.042	-0.391	0.959	0.202	-1.696	-0.337	0.521	0.296	
0.00033	0.11148	0.08600	501.576	-120.539	-105.119	2.751	-0.000	-3.141	25324	0.577	56.362	-3.467	-11.612	0.288	-0.078	-0.096	-1.242	1.159	1.826	0.491	0.327	-0.033	-0.391	0.959	0.202	-1.696	-0.337	0.521	0.408	
0.00009	0.00592	0.00220	501.576	-120.539	-105.119	2.749	-0.000	-3.141	25585	0.620	54.115	-3.369	-11.583	0.440	0.087	-0.112	-1.229	1.200	2.021	0.504	0.329	-0.015	-0.391	0.959	0.202	-1.696	-0.337	0.521	0.414	
7.24661	0.01293	0.00032	501.797	-120.706	-112.361	2.749	0.000	-3.141	25823	0.792	55.009	-3.571	-10.586	0.488	0.321	-0.113	-1.407	1.134	2.180	0.466	0.710	0.037	-0.391	0.968	0.202	-1.693	-0.343	0.516	0.418	
20.38378	0.06884	0.00031	501.800	-120.663	-132.744	2.749	0.000	-3.141	26107	0.782	57.123	-3.589	-10.721	0.500	0.165	-0.120	-1.635	1.570	1.326	0.627	0.771	0.041	-0.391	1.015	0.202	-1.676	-0.373	0.489	0.441	
2.38136	0.01647	0.00024	501.798	-120.627	-135.126	2.749	0.000	-3.142	26372	0.453	57.365	-3.786	-10.325	0.516	0.203	-0.134	-1.425	1.574	1.443	0.665	0.622	0.063	-0.391	1.026	0.202	-1.671	-0.380	0.482	0.447	
2.18061	0.00676	0.00010	499.791	-119.775	-135.140	2.749	0.000	-3.142	26603	0.475	57.230	-3.566	-10.594	0.566	0.199	-0.124	-2.106	1.276	1.559	0.385	1.020	0.028	-0.391	1.025	0.202	-1.676	-0.382	0.479	0.449	
2.90286	0.01545	0.00012	497.120	-118.641	-135.107	2.749	0.000	3.142	26883	0.722	57.144	-3.490	-10.346	0.502	0.047	-0.044	-1.412	1.082	1.342	0.354	0.591	0.072	-0.391	1.021	0.202	-1.687	-0.386	0.473	0.455	
0.06137	0.00033	0.00111	497.168	-118.673	-135.125	2.750	0.000	3.142	27086	0.526	57.105	-3.597	-10.437	0.460	0.068	0.146	-1.352	1.348	1.662	0.544	0.508	0.167	-0.391	1.021	0.202	-1.687	-0.386	0.472	0.455	
0.00284	0.06608	0.09191	497.167	-118.673	-135.128	2.842	0.000	-3.142	27367	0.500	57.119	-3.646	-10.467	0.472	0.083	0.012	-1.549	1.303	1.671	0.564	0.611	0.197	-0.391	1.021	0.202	-1.687	-0.386	0.472	0.389	
0.00694	0.19882	0.20314	497.169	-118.667	-135.130	3.045	0.000	-3.141	27648	0.514	57.071	-3.615	-10.435	0.431	0.077	0.144	-1.754	0.979	1.623	0.426	0.704	0.206	-0.391	1.021	0.202	-1.687	-0.386	0.472	0.190	
0.00621	0.12094	0.09514	497.170	-118.661	-135.131	3.140	0.000	-3.141	27929	0.448	57.108	-3.624	-10.465	0.475	0.081	0.068	-1.792	0.788	1.630	0.337	0.731	0.185	-0.391	1.021	0.202	-1.687	-0.386	0.472	0.069	
0.00057	0.00662	0.00147	497.170	-118.661	-135.131	-3.141	0.000	-3.141	28137	-0.249	57.330	-3.784	-10.369	0.231	-0.118	0.128	-0.830	0.601	1.461	0.249	0.313	0.136	-0.391	1.021	0.202	-1.687	-0.386	0.472	0.063	
5.16703	0.01742	0.00040	502.337	-118.713	-135.128	3.142	0.000	-3.141	28414	-0.208	57.398	-3.642	-11.004	0.196	-0.162	0.111	-0.333	-0.304	1.005	-0.334	-0.005	-0.001	-0.388	1.025	0.202	-1.675	-0.381	0.481	0.059	
4.62722	0.02544	0.00038	506.963	-118.630	-135.161	3.141	-0.000	-3.142	28696	-0.202	57.733	-3.692	-10.979	0.354	-0.124	0.063	-0.607	-0.375	0.881	-0.366	0.129	0.021	-0.384	1.032	0.202	-1.656	-0.373	0.493	0.053	
1.65177	0.00132	0.00041	508.610	-118.716	-135.078	-3.142	0.000	-3.141	28928	-0.276	57.882	-3.683	-11.141	0.205	-0.189	0.124	-0.253	-0.314	1.187	-0.329	-0.035	0.000	-0.384	1.032	0.202	-1.655	-0.373	0.493	0.053	
6.93875	0.02977	0.00023	515.549	-118.668	-135.135	-3.142	-0.000	-3.141	29210	-0.047	58.494	-3.564	-11.314	0.268	-0.110	0.071	-0.838	-0.580	1.588	-0.463	0.161	-0.020	-0.379	1.040	0.202	-1.632	-0.365	0.507	0.047	
1.37650	0.01118	0.00021	516.925	-118.637	-135.155	3.142	-0.000	-3.142	29446	-0.997	57.885	-4.152	-12.242	0.232	-0.113	0.117	-0.971	-0.523	1.374	-0.426	0.260	-0.017	-0.377	1.043	0.202	-1.624	-0.362	0.512	0.045	
3.84716	0.01113	0.00017	520.772	-118.657	-135.190	3.141	-0.000	-3.141	29677	-0.345	58.726	-3.794	-11.538	0.183	-0.155	0.131	-0.301	-0.223	1.221	-0.254	-0.012	0.003	-0.376	1.046	0.202	-1.615	-0.359	0.517	0.042	
6.15595	0.02961	0.00020	526.928	-118.614	-135.196	3.142	-0.000	-3.142	29959	-0.239	58.910	-3.749	-11.837	0.283	-0.062	0.088	-0.960	-0.458	1.138	-0.382	0.298	-0.001	-0.371	1.054	0.202	-1.593	-0.352	0.531	0.037	
0.04615	0.00195	0.00007	526.935	-118.640	-135.159	3.142	-0.000	-3.141	30149	-0.019	59.275	-3.564	-12.212	0.216	-0.118	0.102	-0.410	-0.238	1.007	-0.261	0.028	-0.004	-0.371	1.054	0.202	-1.591	-0.352	0.532	0.037	
6.09087	0.02109	0.00009	533.026	-118.658	-135.197	3.142	-0.000	-3.141	30431	0.259	59.834	-3.330	-11.864	0.222	-0.263	0.120	-0.437	-0.631	1.262	-0.421	0.023	-0.015	-0.367	1.060	0.202	-1.575	-0.347	0.542	0.033	
3.98351	0.02193	0.00025	537.009	-118.633	-135.161	3.142	-0.000	-3.142	30712	-0.186	60.341	-3.840	-12.306	0.313	-0.125	0.078	-0.789	-0.488	1.135	-0.393	0.179	0.000	-0.364	1.066	0.202	-1.558	-0.342	0.552	0.029	
1.68310	0.00196	0.00021	538.690	-118.686	-135.093	3.142	0.000	-3.141	30914	-0.129	60.205	-3.789	-12.545	0.201	-0.155	0.120	-0.522	-0.503	0.797	-0.332	0.010	-0.000	-0.364	1.067	0.202	-1.556	-0.342	0.553	0.029	
6.95803	0.03080	0.00043	545.647	-118.618	-135.183	-3.142	-0.000	-3.142	31195	-0.191	60.986	-3.792	-12.754	0.276	-0.056	0.099	-0.853	-0.549	1.322	-0.387	0.143	-0.017	-0.359	1.076	0.202	-1.532	-0.335	0.568	0.024	
1.24306	0.01078	0.00027	546.890	-118.614	-135.179	3.141	-0.000	-3.142	31438	-0.306	60.725	-3.749	-12.807	0.215	-0.174	0.123	-0.395	-0.604	1.244	-0.432	0.048	-0.006	-0.357	1.079	0.202	-1.524	-0.333	0.573	0.022	
5.16205	0.01724	0.00022	552.052	-118.601	-135.222	3.142	-0.000	-3.142	31708	-0.187	61.083	-3.730	-13.082	0.224	-0.202	0.103	-0.445	-0.597	0.897	-0.383	-0.002	-0.016	-0.355	1.084	0.202	-1.511	-0.330	0.581	0.020	
4.85865	0.02694	0.00009	556.911	-118.580	-135.189	-3.142	-0.000	-3.142	31988	-0.161	61.259	-3.673	-13.105	0.307	-0.126	0.054	-0.744	-0.571	1.049	-0.389	0.161	-0.027	-0.351	1.092	0.202	-1.489	-0.325	0.594	0.015	
0.57524	0.00022	0.00051	557.463	-118.707	-135.093	3.142	0.000	-3.141	32175	-0.630	61.532	-3.952	-13.108	0.206	-0.203	0.103	-0.493	-0.476	1.205	-0.331	0.014	-0.020	-0.351	1.092	0.202	-1.490	-0.325	0.594	0.015	
6.76938	0.02717	0.00044	564.232	-118.666	-135.152	3.142	-0.000	-3.141	32454	0.032	63.055	-3.658	-13.163	0.261	-0.212	0.104	-0.415	-0.297	1.291	-0.259	-0.004	-0.009	-0.347	1.100	0.202	-1.468	-0.320	0.606	0.012	
2.61851	0.01762	0.00019	566.849	-118.586	-135.196	-3.142	-0.000	-3.142	32735	-0.227	62.625	-3.786	-14.255	0.320	-0.044	0.095	-1.186	-0.493	1.134	-0.360	0.376	-0.009	-0.344	1.105	0.202	-1.454	-0.317	0.615	0.009	
2.99363	0.00751	0.00026	569.841	-118.686	-135.137	-3.141	-0.000	-3.141	32938	-0.320	62.255	-3.859	-13.510	0.231	-0.251	0.104	-0.200	-0.490	0.804	-0.354	-0.085	-0.013	-0.343	1.107	0.202	-1.448	-0.316	0.618	0.008	
6.86010	0.03241	0.00014	576.700	-118.629	-135.172	-3.142	-0.000	-3.142	33220	-0.216	62.982	-3.770	-13.987	0.313	-0.063	0.095	-0.857	-0.583	1.048	-0.380	0.225	-0.005	-0.339	1.117	0.202	-1.423	-0.310	0.633	0.004	
0.24864	0.00581	0.00009	576.948	-118.622	-135.156	3.142	-0.000	-3.142	33448	-0.047	63.415	-3.764	-13.614	0.253	-0.347	0.125	-0.697	-0.409	1.189	-0.329	0.064	-0.005	-0.338	1.119	0.202	-1.418	-0.309	0.636	0.003	
6.43884	0.02412	0.00033	583.387	-118.632	-135.212	-3.141	-0.000	-3.141	33738	0.218	63.681	-3.591	-13.370	0.243	-0.356	0.100	-0.147	-0.506	1.049	-0.349	-0.112	-0.004	-0.335	1.126	0.202	-1.399	-0.306	0.647	0.000	
3.51161	0.02236	0.00031	586.898	-118.594	-135.196	-3.142	-0.000	-3.142	34022	-0.175	63.848	-3.794	-14.722	0.335	-0.164	0.082	-0.767	-0.504	1.173	-0.349	0.130	-0.004	-0.331	1.133	0.202	-1.381	-0.302	0.658	-0.003	
3.00174	0.00787	0.00019	589.899	-118.648	-135.129	3.142	-0.000	-3.142	34259	-0.120	64.685	-3.607	-14.637	0.278	-0.283	0.089	-0.471	-0.607	0.886	-0.361	-0.037	-0.025	-0.330	1.136	0.202	-1.375	-0.301	0.661	-0.003	
6.76815	0.03326	0.00008	596.667	-118.619	-135.159	-3.142	-0.000	-3.142	34538	-0.300	64.348	-3.820	-14.933	0.339	-0.117	0.061	-0.446	-0.514	0.746	-0.344	0.043	-0.020	-0.326	1.146	0.202	-1.348	-0.297	0.677	-0.007	
0.22870	0.00624	0.00011	596.895	-118.613	-135.176	3.142	-0.000	-3.142	34769	-0.164	64.722	-3.675	-14.934	0.291	-0.223	0.113	-0.113	-0.489	1.044	-0.332	-0.115	-0.007	-0.325	1.148	0.202	-1.343	-0.296	0.680	-0.008	
6.29496	0.02464	0.00017	603.190	-118.643	-135.203	-3.142	-0.000	-3.141	35052	0.344	65.708	-3.372	-14.376	0.281	-0.339	0.108	-0.333	-0.544	1.371	-0.350	-0.074	-0.008	-0.322	1.156	0.202	-1.324	-0.293	0.691	-0.011	
3.79607	0.02403	0.00017	606.985	-118.624	-135.149	-3.142	-0.000	-3.142	35335	-0.187	65.484	-3.753	-15.255	0.335	-0.146	0.069	-0.811	-0.607	1.240	-0.377	0.160	-0.020	-0.319	1.164	0.202	-1.304	-0.290	0.702	-0.014	
1.60682	0.00158	0.00037	608.586	-118.706	-135.036	-3.141	0.000	-3.141	35523	-0.388	65.793	-3.709	-15.318	0.299	-0.257	0.115	-0.194	-0.294	0.922	-0.217	-0.111	0.005	-0.318	1.164	0.202	-1.303	-0.290	0.703	-0.014	
7.03279	0.03478	0.00012	615.618	-118.651	-135.160	-3.141	0.000	-3.141	35802	-0.375	66.288	-3.741	-15.953	0.355	-0.147	0.101	-0.692	-0.488	1.319	-0.307	0.074	0.002	-0.314	1.176	0.202	-1.275	-0.286	0.718	-0.017	
1.30433	0.01335	0.00039	616.921	-118.603	-135.173	3.142	-0.000	-3.142	36040	-1.269	65.172	-4.184	-15.978	0.276	-0.159	0.117	-0.895	-0.521	1.351	-0.352	0.209	0.005	-0.312	1.180	0.202	-1.265	-0.284	0.725	-0.019	
4.12727	0.01453	0.00019	621.048	-118.613	-135.208	3.141	-0.000	-3.142	36271	-0.803	66.769	-3.868	-16.060	0.292	-0.201	0.089	-0.319	-0.429	0.911	-0.324	-0.066	-0.012	-0.310	1.185	0.202	-1.253	-0.283	0.731	-0.020	
5.86920	0.03516	0.00023	626.917	-118.574	-135.232	3.142	-0.000	-3.142	36553	-0.440	67.132	-3.798	-16.253	0.379	-0.129	0.063	-0.989	-0.464	1.242	-0.325	0.228	-0.010	-0.306	1.196	0.202	-1.225	-0.279	0.747	-0.024	
0.61918	0.00135	0.00046	627.502	-118.711	-135.080	-3.142	0.000	-3.141	36773	-0.413	67.031	-3.706	-16.205	0.291	-0.189	0.093	-0.461	-0.695	1.232	-0.399	-0.027	-0.019	-0.306	1.197	0.202	-1.224	-0.279	0.748	-0.024	
6.75914	0.03233	0.00046	634.259	-118.609	-135.211	-3.142	-0.000	-3.142	37052	-0.112	68.477	-3.602	-16.583	0.329	-0.201	0.104	-0.235	-0.576	0.250	-0.314	-0.107	0.003	-0.302	1.208	0.202	-1.198	-0.275	0.763	-0.027	
2.72450	0.02040	0.00016	636.983	-118.620	-135.144	-3.142	-0.000	-3.142	37334	-1.227	67.023	-4.000	-17.245	0.407	-0.158	0.094	-1.068	-0.566	1.161	-0.379	0.294	0.002	-0.299	1.214	0.202	-1.181	-0.273	0.772	-0.029	
3.79488	0.01433	0.00025	640.777	-118.642	-135.223	3.141	-0.000	-3.142	37571	-0.413	67.898	-3.492	-16.516	0.347	-0.297	0.116	-0.018	-0.460	0.880	-0.272	-0.180	0.013	-0.297	1.219	0.202	-1.170	-0.272	0.778	-0.031	
6.21470	0.03748	0.00017	646.991	-118.602	-135.197	3.141	-0.000	-3.142	37851	-0.268	68.740	-3.606	-17.132	0.394	-0.157	0.100	-0.847	-0.498	1.094	-0.294	0.157	0.022	-0.293	1.232	0.202	-1.139	-0.269	0.795	-0.034	
0.10650	0.00233	0.00016	647.049	-118.616	-135.109	-3.142	-0.000	-3.142	38032	-0.341	68.882	-3.627	-17.025	0.332	-0.332	0.117	-0.474	-0.594	0.700	-0.310	-0.031	0.018	-0.292	1.233	0.202	-1.137	-0.268	0.796	-0.034	
6.38917	0.02930	0.00011	653.437	-118.591	-135.238	-3.141	0.000	-3.142	38323	0.415	69.717	-3.153	-16.570	0.327	-0.458	0.118	-0.300	-0.809	0.885	-0.395	-0.104	0.018	-0.289	1.243	0.202	-1.114	-0.266	0.809	-0.037	
3.52616	0.02698	0.00019	656.962	-118.599	-135.181	-3.142	-0.000	-3.142	38602	-0.450	69.310	-3.638	-17.716	0.404	-0.164	0.069	-0.679	-0.614	1.059	-0.356	0.088	-0.005	-0.286	1.252	0.202	-1.092	-0.264	0.821	-0.040	
1.70284	0.00546	0.00025	658.662	-118.672	-135.110	-3.142	0.000	-3.141	38820	-0.571	70.316	-3.588	-17.601	0.372	-0.268	0.100	-0.169	-0.672	0.910	-0.346	-0.145	0.013	-0.285	1.254	0.202	-1.088	-0.263	0.824	-0.040	
3.46427	0.02035	0.00034	662.126	-118.711	-135.113	3.142	0.000	-3.141	39102	-0.106	70.049	-3.468	-17.561	0.392	-0.220	0.078	-0.825	-0.487	1.347	-0.296	0.119	0.004	-0.283	1.261	0.202	-1.071	-0.262	0.833	-0.042	
0.06062	0.00288	0.00017	662.105	-118.719	-135.057	-3.142	0.000	-3.141	39292	-0.337	69.787	-3.549	-17.670	0.409	-0.145	0.138	-0.976	-0.523	1.105	-0.307	0.206	0.036	-0.282	1.262	0.202	-1.069	-0.262	0.834	-0.042	
0.05031	0.05043	0.07392	662.096	-118.676	-135.081	-3.068	0.000	-3.141	39586	-0.327	69.862	-3.527	-17.817	0.443	-0.131	0.125	-0.897	-0.602	1.144	-0.296	0.199	0.066	-0.282	1.262	0.202	-1.069	-0.262	0.834	-0.092	
0.04931	0.19188	0.20283	662.081	-118.640	-135.111	-2.865	0.000	-3.141	39868	-0.321	69.897	-3.507	-17.731	0.419	-0.137	0.071	-0.790	-0.775	1.108	-0.332	0.153	0.086	-0.282	1.262	0.202	-1.069	-0.262	0.834	-0.284	
0.01958	0.13773	0.11142	662.069	-118.639	-135.127	-2.753	0.000	-3.141	40149	-0.324	69.886	-3.543	-17.734	0.441	-0.128	0.115	-0.713	-0.798	1.075	-0.323	0.131	0.071	-0.282	1.262	0.202	-1.069	-0.262	0.834	-0.422	
0.00302	0.01259	0.00452	662.068	-118.639	-135.129	-2.749	0.000	-3.141	40394	-0.902	70.113	-3.693	-17.989	0.351	-0.182	0.004	0.378	-0.925	0.955	-0.396	-0.302	0.023	-0.282	1.262	0.202	-1.069	-0.262	0.834	-0.435	
5.04965	0.02000	0.00019	666.723	-116.685	-135.234	-2.749	-0.000	-3.141	40664	-0.491	70.564	-3.536	-18.337	0.374	-0.143	-0.034	0.067	-0.932	0.751	-0.376	-0.286	-0.108	-0.278	1.269	0.202	-1.053	-0.260	0.843	-0.434	
4.90501	0.03192	0.00019	671.216	-114.717	-135.209	-2.749	-0.000	-3.142	40947	-0.401	70.259	-3.494	-17.976	0.440	-0.163	-0.029	-0.765	-1.043	1.418	-0.449	0.092	-0.075	-0.270	1.280	0.202	-1.027	-0.258	0.857	-0.433	
0.32022	0.00016	0.00031	671.517	-114.735	-135.102	-2.749	0.000	-3.141	41135	-0.181	70.265	-3.278	-18.183	0.353	-0.272	-0.047	0.247	-0.417	1.146	-0.210	-0.304	-0.104	-0.271	1.280	0.202	-1.028	-0.258	0.857	-0.433	
6.85290	0.03190	0.00011	677.840	-112.093	-135.198	-2.749	-0.000	-3.141	41419	0.668	71.881	-2.915	-18.115	0.413	-0.325	-0.053	0.180	-1.057	1.045	-0.415	-0.277	-0.126	-0.264	1.291	0.202	-1.002	-0.256	0.871	-0.433	
2.82760	0.02201	0.00029	680.430	-110.959	-135.169	-2.749	-0.000	-3.142	41698	-0.746	71.342	-3.548	-18.744	0.418	-0.176	-0.035	-0.544	-1.081	1.220	-0.432	0.008	-0.084	-0.259	1.298	0.202	-0.985	-0.254	0.880	-0.432	
2.86906	0.00857	0.00040	683.116	-109.953	-135.101	-2.749	0.000	-3.141	41916	-0.632	71.792	-3.406	-18.844	0.392	-0.256	-0.058	0.381	-0.632	0.979	-0.249	-0.359	-0.112	-0.257	1.301	0.202	-0.978	-0.253	0.884	-0.432	
6.76411	0.03987	0.00033	689.330	-107.282	-135.197	-2.749	-0.000	-3.142	42199	-0.270	71.776	-3.235	-18.766	0.453	-0.159	-0.044	-0.129	-1.087	1.122	-0.460	-0.155	-0.102	-0.249	1.315	0.202	-0.946	-0.251	0.901	-0.432	
0.34885	0.00791	0.00012	689.655	-107.156	-135.185	-2.749	-0.000	3.142	42402	-0.206	71.515	-3.310	-18.565	0.582	0.034	-0.042	-1.272	-1.195	1.360	-0.553	0.366	-0.064	-0.247	1.318	0.202	-0.939	-0.250	0.905	-0.432	
1.47773	0.00782	0.00056	688.315	-107.769	-135.074	-2.749	0.000	-3.141	42682	0.105	72.141	-3.409	-18.881	0.653	0.111	0.013	-2.372	-1.223	1.442	-0.542	0.911	0.039	-0.249	1.315	0.202	-0.946	-0.251	0.901	-0.432	
1.04239	0.00845	0.00039	687.414	-108.294	-135.040	-2.749	0.000	-3.141	42961	0.159	71.882	-3.339	-18.748	0.646	0.026	0.028	-2.326	-0.891	1.195	-0.369	0.848	0.065	-0.250	1.312	0.202	-0.952	-0.251	0.897	-0.432	
0.03598	0.00624	0.01498	687.432	-108.314	-135.064	-2.734	0.000	-3.141	43179	0.153	71.903	-3.301	-18.719	0.630	0.058	0.175	-2.256	-0.787	1.332	-0.289	0.853	0.193	-0.250	1.312	0.202	-0.952	-0.252	0.897	-0.438	
0.00859	0.11851	0.14524	687.436	-108.322	-135.064	-2.589	0.000	-3.141	43461	0.118	71.761	-3.298	-18.748	0.677	0.048	0.076	-2.024	-1.161	1.319	-0.430	0.777	0.181	-0.250	1.312	0.202	-0.952	-0.252	0.897	-0.557	
0.03237	0.20160	0.18828	687.430	-108.300	-135.088	-2.400	0.000	-3.141	43744	0.218	71.865	-3.342	-18.717	0.612	0.046	0.179	-1.807	-1.443	1.316	-0.530	0.703	0.190	-0.250	1.312	0.202	-0.952	-0.252	0.897	-0.758	
0.00915	0.06620	0.04430	687.427	-108.297	-135.096	-2.356	0.000	-3.141	44027	0.235	71.888	-3.298	-18.757	0.638	0.036	0.057	-1.703	-1.585	1.293	-0.599	0.643	0.108	-0.250	1.312	0.202	-0.952	-0.252	0.897	-0.825	
0.28225	0.00018	0.00023	687.538	-108.047	-135.164	-2.356	-0.000	-3.141	44216	-0.671	71.821	-3.339	-18.725	0.435	-0.253	-0.077	-0.060	-1.361	1.508	-0.447	-0.153	-0.067	-0.250	1.312	0.202	-0.952	-0.252	0.897	-0.825	
6.71651	0.02540	0.00036	692.248	-103.259	-135.179	-2.356	-0.000	-3.141	44496	1.449	72.415	-2.579	-18.939	0.479	-0.282	-0.057	0.248	-0.267	0.626	-0.033	-0.299	-0.114	-0.242	1.321	0.202	-0.933	-0.250	0.908	-0.820	
2.92425	0.01723	0.00023	694.242	-101.120	-135.152	-2.356	-0.000	-3.142	44776	-0.643	72.096	-3.370	-19.065	0.516	-0.186	-0.042	0.172	-0.913	0.920	-0.314	-0.237	-0.067	-0.236	1.327	0.202	-0.920	-0.249	0.915	-0.818	
2.54341	0.00544	0.00017	696.114	-99.401	-135.049	-2.356	-0.000	-3.141	44994	-0.694	72.850	-3.226	-19.582	0.449	-0.174	-0.065	0.510	-0.284	1.053	-0.047	-0.393	-0.111	-0.234	1.328	0.202	-0.916	-0.249	0.918	-0.817	
6.91082	0.03115	0.00015	700.995	-94.509	-135.138	-2.356	-0.000	-3.141	45275	-0.289	72.743	-3.095	-19.396	0.504	-0.171	-0.029	0.313	-0.824	0.870	-0.261	-0.282	-0.098	-0.224	1.339	0.202	-0.892	-0.247	0.930	-0.812	
0.52595	0.00755	0.00039	701.337	-94.110	-135.143	-2.357	-0.000	-3.142	45523	-1.546	71.807	-3.490	-18.843	0.384	-0.302	-0.080	0.233	-0.829	1.484	-0.291	-0.273	-0.074	-0.221	1.342	0.202	-0.886	-0.246	0.933	-0.811	
4.83891	0.01642	0.00026	704.727	-90.657	-135.190	-2.356	-0.000	-3.142	45793	-0.301	73.251	-3.025	-19.850	0.436	-0.194	-0.101	0.724	-0.457	0.593	-0.105	-0.467	-0.140	-0.216	1.347	0.202	-0.873	-0.245	0.940	-0.809	
5.20244	0.02967	0.00034	708.266	-86.846	-135.305	-2.356	-0.000	3.141	46075	-0.546	73.364	-3.084	-19.842	0.495	-0.072	-0.069	-0.145	-1.308	1.286	-0.447	-0.109	-0.102	-0.207	1.357	0.202	-0.851	-0.244	0.952	-0.805	
0.26406	0.00020	0.00041	708.276	-87.069	-135.164	-2.356	-0.000	-3.142	46292	-0.176	73.272	-3.127	-19.651	0.626	0.126	0.016	-1.382	-2.153	1.497	-0.853	0.459	0.005	-0.207	1.357	0.202	-0.850	-0.244	0.953	-0.805	
1.63564	0.00747	0.00043	707.206	-88.304	-135.093	-2.356	-0.000	-3.141	46573	0.370	73.044	-2.984	-19.376	0.695	0.054	0.031	-1.970	-2.078	1.294	-0.818	0.736	0.093	-0.209	1.355	0.202	-0.856	-0.244	0.949	-0.806	
0.43391	0.00353	0.00033	706.963	-88.664	-135.100	-2.356	-0.000	-3.141	46819	0.180	73.198	-3.075	-19.458	0.615	0.053	0.149	-1.872	-1.983	1.440	-0.743	0.719	0.095	-0.210	1.354	0.202	-0.859	-0.245	0.948	-0.807	
0.01358	0.02835	0.04564	706.971	-88.653	-135.098	-2.310	-0.000	-3.141	47088	0.276	73.201	-3.061	-19.555	0.630	0.031	0.244	-1.666	-1.884	1.401	-0.667	0.658	0.180	-0.210	1.354	0.202	-0.859	-0.244	0.948	-0.835	
0.02098	0.16869	0.18906	706.967	-88.641	-135.115	-2.121	-0.000	-3.141	47370	0.181	73.236	-3.124	-19.470	0.607	0.027	0.098	-1.308	-2.194	1.413	-0.780	0.524	0.147	-0.210	1.354	0.202	-0.859	-0.244	0.948	-1.004	
0.00872	0.16699	0.14250	706.967	-88.635	-135.121	-1.979	-0.000	-3.141	47651	0.148	73.237	-3.099	-19.492	0.601	0.030	0.124	-1.060	-2.265	1.352	-0.810	0.433	0.146	-0.210	1.354	0.202	-0.859	-0.244	0.948	-1.171	
0.00244	0.02858	0.01541	706.966	-88.633	-135.123	-1.963	-0.000	-3.141	47931	-0.079	73.153	-3.146	-19.506	0.611	0.033	0.053	-0.962	-2.338	1.344	-0.845	0.381	0.083	-0.210	1.354	0.202	-0.859	-0.244	0.948	-1.200	
2.04867	0.00272	0.00048	707.713	-86.726	-135.116	-1.964	-0.000	-3.141	48117	-0.780	73.301	-3.227	-19.886	0.474	-0.164	-0.115	1.065	-0.943	0.743	-0.240	-0.556	-0.152	-0.209	1.354	0.202	-0.857	-0.244	0.949	-1.199	
7.02674	0.01906	0.00017	710.313	-80.198	-135.176	-1.964	-0.000	-3.141	48398	-0.514	73.329	-3.021	-19.733	0.482	-0.103	-0.064	0.686	-0.596	0.955	-0.096	-0.392	-0.138	-0.198	1.359	0.202	-0.846	-0.243	0.955	-1.191	
0.84090	0.00569	0.00031	710.570	-79.397	-135.173	-1.964	-0.000	3.141	48637	-2.065	72.482	-3.516	-19.265	0.414	-0.271	-0.111	0.241	-0.890	1.050	-0.247	-0.216	-0.107	-0.195	1.361	0.202	-0.843	-0.243	0.957	-1.188	
4.64674	0.00937	0.00018	712.389	-75.121	-135.161	-1.964	-0.000	-3.142	48898	-0.176	73.220	-2.844	-19.740	0.456	-0.265	-0.122	0.789	-0.429	0.741	0.004	-0.445	-0.147	-0.190	1.363	0.202	-0.837	-0.243	0.960	-1.185	
5.49461	0.01833	0.00024	714.397	-70.007	-135.198	-1.964	-0.000	3.141	49178	-0.620	73.497	-3.066	-19.809	0.488	-0.179	-0.105	0.597	-0.798	0.899	-0.190	-0.348	-0.135	-0.180	1.368	0.202	-0.826	-0.242	0.966	-1.177	
0.21049	0.00030	0.00024	714.553	-69.887	-135.124	-1.964	-0.000	-3.142	49399	-0.233	73.826	-2.842	-20.086	0.515	-0.237	-0.135	1.093	-0.487	0.795	-0.051	-0.573	-0.171	-0.180	1.368	0.202	-0.825	-0.242	0.966	-1.177	
3.39698	0.00871	0.00033	715.864	-66.754	-135.195	-1.963	-0.000	-3.141	49679	0.297	74.037	-2.691	-20.204	0.505	-0.083	-0.079	1.372	-0.677	0.939	-0.108	-0.656	-0.173	-0.175	1.371	0.202	-0.820	-0.242	0.969	-1.174	
1.21073	0.00519	0.00021	716.324	-65.635	-135.158	-1.963	-0.000	-3.141	49950	-0.561	73.653	-2.983	-19.898	0.471	-0.110	0.017	0.438	-1.211	0.860	-0.385	-0.247	-0.111	-0.173	1.372	0.202	-0.817	-0.242	0.970	-1.172	
0.04593	0.01370	0.02692	716.333	-65.590	-135.156	-1.937	-0.000	-3.141	50180	-0.504	73.588	-2.976	-19.898	0.473	-0.117	0.131	0.201	-0.974	0.909	-0.274	-0.086	0.104	-0.173	1.372	0.202	-0.817	-0.242	0.970	-1.186	
0.04120	0.14189	0.16643	716.366	-65.615	-135.154	-1.770	-0.000	-3.141	50462	-0.430	73.592	-2.892	-19.856	0.554	-0.087	0.147	0.458	-1.049	0.917	-0.318	-0.170	0.105	-0.173	1.372	0.202	-0.817	-0.242	0.970	-1.328	
0.03925	0.18871	0.16954	716.397	-65.638	-135.153	-1.601	-0.000	-3.141	50743	-0.395	73.603	-2.922	-19.888	0.495	-0.055	0.168	0.566	-0.985	0.918	-0.289	-0.179	0.115	-0.173	1.372	0.202	-0.817	-0.241	0.970	-1.516	
0.04150	0.04849	0.02996	716.408	-65.599	-135.153	-1.571	-0.000	-3.141	51024	-0.340	73.573	-2.918	-19.874	0.494	-0.055	0.088	0.739	-1.060	0.944	-0.324	-0.257	0.052	-0.173	1.372	0.202	-0.817	-0.241	0.970	-1.565	
1.17567	0.00065	0.00049	716.463	-64.424	-135.154	-1.571	-0.000	-3.141	51227	-0.582	74.018	-2.999	-19.925	0.583	0.056	-0.046	1.165	-2.267	1.218	-0.798	-0.519	-0.084	-0.172	1.372	0.202	-0.817	-0.241	0.970	-1.564	
7.17309	0.01441	0.00024	716.483	-57.251	-135.137	-1.571	-0.000	-3.141	51508	-0.922	74.153	-3.125	-19.858	0.630	0.074	-0.038	0.383	-2.777	1.232	-1.022	-0.303	-0.069	-0.163	1.371	0.202	-0.820	-0.242	0.968	-1.554	
1.56612	0.00584	0.00022	716.416	-55.687	-135.160	-1.571	-0.000	-3.141	51790	-2.602	73.376	-3.588	-19.502	0.591	0.066	-0.066	0.700	-2.465	1.260	-0.913	-0.389	-0.044	-0.159	1.370	0.202	-0.822	-0.242	0.967	-1.550	
3.66997	0.00499	0.00026	716.360	-52.017	-135.202	-1.571	-0.000	-3.141	52024	-0.397	74.268	-2.938	-20.022	0.681	0.107	-0.065	1.205	-2.603	1.110	-0.983	-0.617	-0.093	-0.156	1.370	0.202	-0.823	-0.242	0.967	-1.547	
6.32168	0.01410	0.00038	716.477	-45.698	-135.102	-1.571	-0.000	-3.141	52304	-0.612	73.779	-2.964	-19.771	0.689	0.067	-0.035	1.195	-2.519	1.141	-0.945	-0.576	-0.052	-0.147	1.368	0.202	-0.826	-0.242	0.965	-1.537	
0.08511	0.00147	0.00019	716.545	-45.736	-135.069	-1.571	-0.001	-3.141	52516	-1.608	74.076	-3.311	-19.800	0.653	0.087	-0.078	1.128	-2.527	1.527	-0.942	-0.578	-0.060	-0.146	1.368	0.202	-0.826	-0.242	0.965	-1.536	
4.89368	0.00728	0.00034	716.446	-40.844	-135.130	-1.571	-0.000	-3.141	52759	-0.706	74.064	-2.992	-19.858	0.687	0.086	-0.108	1.156	-2.633	1.212	-0.993	-0.619	-0.122	-0.141	1.368	0.202	-0.827	-0.242	0.965	-1.530	
5.31506	0.01289	0.00021	716.360	-35.530	-135.121	-1.571	-0.000	-3.141	53036	-0.686	73.708	-3.028	-19.700	0.671	0.071	-0.049	0.968	-2.621	1.391	-0.984	-0.515	-0.062	-0.132	1.367	0.202	-0.830	-0.242	0.963	-1.521	
0.03530	0.00020	0.00002	716.345	-35.543	-135.150	-1.571	-0.000	-3.141	53256	-0.675	73.690	-3.001	-19.723	0.677	0.066	-0.062	1.075	-2.480	1.189	-0.930	-0.575	-0.078	-0.132	1.366	0.202	-0.830	-0.242	0.963	-1.521	
0.54461	0.00107	0.00014	716.393	-35.001	-135.154	-1.571	-0.000	-3.141	53536	-0.699	73.638	-3.019	-19.707	0.676	0.063	-0.035	1.126	-2.475	1.208	-0.929	-0.602	-0.075	-0.131	1.366	0.202	-0.830	-0.243	0.963	-1.521	
0.10885	0.00050	0.00007	716.401	-34.892	-135.159	-1.571	-0.001	-3.141	53747	-0.652	73.588	-2.992	-19.668	0.683	0.052	0.124	0.924	-2.453	1.260	-0.910	-0.483	0.010	-0.131	1.366	0.202	-0.830	-0.243	0.963	-1.520	
0.01708	0.03090	0.04926	716.401	-34.909	-135.160	-1.521	-0.001	-3.141	54020	-0.538	73.672	-3.012	-19.670	0.639	0.010	0.242	0.919	-2.183	1.278	-0.774	-0.420	0.141	-0.131	1.366	0.202	-0.830	-0.243	0.963	-1.551	
0.00802	0.17113	0.18866	716.403	-34.901	-135.160	-1.333	-0.001	-3.142	54301	-0.678	73.638	-3.006	-19.784	0.684	0.024	0.216	1.281	-1.842	1.221	-0.622	-0.544	0.150	-0.131	1.366	0.202	-0.830	-0.243	0.963	-1.722	
0.00232	0.16484	0.14140	716.404	-34.899	-135.160	-1.191	-0.001	3.142	54582	-0.641	73.646	-3.001	-19.717	0.669	0.029	0.129	1.472	-1.738	1.256	-0.572	-0.594	0.157	-0.131	1.366	0.202	-0.830	-0.243	0.963	-1.887	
0.00121	0.02593	0.01350	716.404	-34.898	-135.160	-1.178	-0.001	3.142	54859	-2.973	74.211	-3.770	-19.220	0.590	0.025	0.031	1.541	-1.815	1.307	-0.593	-0.641	0.088	-0.131	1.366	0.202	-0.830	-0.243	0.963	-1.913	
3.76386	0.00934	0.00005	714.991	-31.409	-135.169	-1.178	-0.001	3.142	55099	-0.551	73.698	-2.975	-19.358	0.725	0.069	-0.042	2.399	-2.023	1.158	-0.699	-1.075	-0.055	-0.129	1.364	0.202	-0.836	-0.243	0.960	-1.909	
6.26171	0.02526	0.00030	712.607	-25.619	-135.156	-1.178	-0.001	-3.141	55381	-0.500	73.209	-3.036	-19.498	0.695	0.076	-0.010	1.904	-2.067	1.385	-0.701	-0.860	-0.024	-0.121	1.356	0.202	-0.854	-0.244	0.950	-1.897	
0.11718	0.00187	0.00013	712.538	-25.682	-135.226	-1.178	-0.001	3.142	55576	-0.250	73.389	-2.949	-19.698	0.760	0.186	-0.034	2.403	-2.511	1.951	-0.863	-1.082	-0.063	-0.121	1.355	0.202	-0.855	-0.244	0.950	-1.896	
6.13742	0.01717	0.00016	710.236	-19.993	-135.151	-1.178	-0.000	3.142	55863	0.413	73.061	-2.646	-19.567	0.785	0.126	-0.044	2.299	-1.826	0.791	-0.641	-1.068	-0.063	-0.116	1.350	0.202	-0.867	-0.245	0.944	-1.888	
3.85058	0.01788	0.00016	708.747	-16.442	-135.189	-1.178	-0.001	-3.142	56145	-0.817	73.282	-3.194	-19.454	0.704	0.092	-0.012	1.660	-1.896	1.081	-0.653	-0.792	-0.030	-0.110	1.345	0.202	-0.879	-0.246	0.937	-1.880	
1.32644	0.00085	0.00040	708.178	-15.247	-135.276	-1.178	-0.000	3.141	56348	-0.632	73.314	-3.080	-19.491	0.747	0.135	-0.041	1.996	-2.513	1.342	-0.885	-0.978	-0.063	-0.110	1.344	0.202	-0.880	-0.246	0.937	-1.880	
7.11621	0.02369	0.00041	705.508	-8.651	-135.192	-1.178	-0.001	3.141	56630	-0.936	72.584	-3.269	-19.096	0.680	0.016	-0.026	1.676	-2.199	1.133	-0.768	-0.862	-0.058	-0.102	1.337	0.202	-0.895	-0.247	0.928	-1.868	
1.55315	0.00926	0.00024	704.934	-7.209	-135.202	-1.178	-0.001	-3.142	56911	-0.035	73.013	-2.975	-19.253	0.638	-0.060	0.041	1.647	-1.872	1.265	-0.597	-0.760	-0.013	-0.099	1.335	0.202	-0.902	-0.248	0.925	-1.864	
0.57006	0.00198	0.00024	705.159	-7.732	-135.176	-1.178	-0.000	3.142	57147	-0.241	72.771	-3.146	-19.366	0.578	-0.120	0.115	0.803	-0.977	1.325	-0.228	-0.277	0.078	-0.100	1.335	0.202	-0.900	-0.248	0.926	-1.865	
0.65813	0.00327	0.00038	705.350	-8.361	-135.181	-1.178	-0.000	3.141	57429	-0.374	72.568	-3.205	-19.242	0.551	-0.077	0.107	0.709	-1.141	1.241	-0.308	-0.225	0.082	-0.101	1.336	0.202	-0.898	-0.247	0.927	-1.866	
0.04326	0.00160	0.00674	705.373	-8.354	-135.145	-1.171	-0.000	3.141	57647	-0.251	72.715	-3.191	-19.305	0.607	-0.098	0.212	0.664	-1.098	1.157	-0.291	-0.184	0.150	-0.101	1.336	0.202	-0.898	-0.247	0.927	-1.868	
0.01886	0.09734	0.12221	705.375	-8.372	-135.144	-1.049	-0.000	3.141	57928	-0.255	72.697	-3.166	-19.258	0.676	-0.101	0.282	0.853	-0.947	1.153	-0.214	-0.245	0.138	-0.101	1.336	0.202	-0.898	-0.247	0.927	-1.965	
0.06268	0.20310	0.19835	705.378	-8.435	-135.144	-0.851	-0.000	3.141	58208	-0.288	72.612	-3.154	-19.261	0.592	-0.086	0.142	1.004	-0.753	1.125	-0.148	-0.281	0.131	-0.101	1.336	0.202	-0.898	-0.247	0.927	-2.169	
0.01182	0.08955	0.06532	705.372	-8.440	-135.153	-0.785	-0.000	3.141	58489	-0.302	72.592	-3.174	-19.247	0.633	-0.093	0.084	1.137	-0.758	1.187	-0.137	-0.337	0.087	-0.101	1.336	0.202	-0.898	-0.247	0.927	-2.258	
0.44587	0.00106	0.00016	705.044	-8.178	-135.301	-0.786	-0.000	3.141	58725	-0.315	71.952	-2.998	-18.586	0.695	0.098	-0.075	2.637	-1.487	1.148	-0.387	-1.113	-0.073	-0.101	1.336	0.202	-0.898	-0.247	0.927	-2.259	
6.81606	0.03179	0.00035	700.307	-3.277	-135.215	-0.785	-0.000	3.141	59005	0.778	71.724	-2.728	-19.018	0.735	0.143	-0.058	3.233	-1.261	1.160	-0.304	-1.362	-0.096	-0.097	1.325	0.202	-0.923	-0.249	0.914	-2.249	
2.64756	0.01951	0.00025	698.447	-1.393	-135.185	-0.785	-0.001	3.141	59286	-0.817	72.017	-3.327	-18.681	0.639	0.050	-0.042	2.411	-0.963	1.542	-0.169	-0.993	-0.068	-0.095	1.319	0.202	-0.938	-0.251	0.905	-2.243	
2.71408	0.00690	0.00032	696.502	0.498	-135.243	-0.785	-0.000	3.141	59490	-0.726	71.979	-3.290	-18.679	0.714	0.135	-0.089	2.795	-1.306	1.214	-0.334	-1.256	-0.109	-0.094	1.317	0.202	-0.943	-0.251	0.903	-2.241	
6.84636	0.03445	0.00027	691.685	5.363	-135.175	-0.785	-0.001	3.141	59770	-0.448	71.315	-3.292	-18.401	0.663	0.061	-0.037	2.678	-1.000	1.415	-0.189	-1.170	-0.089	-0.089	1.305	0.202	-0.969	-0.253	0.888	-2.230	
0.43713	0.00754	0.00007	691.354	5.647	-135.197	-0.786	-0.001	3.141	59978	-2.699	72.407	-4.115	-18.157	0.600	0.127	-0.075	2.279	-1.059	1.152	-0.225	-0.987	-0.063	-0.088	1.302	0.202	-0.975	-0.254	0.885	-2.227	
3.86313	0.01222	0.00036	688.675	8.430	-135.196	-0.785	-0.001	3.141	60193	-0.634	71.558	-3.384	-17.968	0.687	0.027	-0.085	2.913	-1.009	1.135	-0.215	-1.324	-0.117	-0.086	1.299	0.202	-0.984	-0.254	0.880	-2.223	
6.17670	0.03289	0.00028	684.275	12.766	-135.168	-0.785	-0.001	3.141	60476	-1.268	71.171	-3.889	-18.276	0.502	0.099	-0.050	2.959	0.053	1.253	0.028	-1.164	-0.100	-0.081	1.287	0.202	-1.009	-0.256	0.866	-2.212	
0.08806	0.00196	0.00013	684.357	12.750	-135.140	-0.785	-0.001	3.142	60664	-0.622	70.626	-3.479	-18.128	0.512	-0.168	0.083	1.462	-0.108	1.114	0.100	-0.562	-0.009	-0.081	1.287	0.202	-1.011	-0.257	0.866	-2.211	
1.97015	0.00855	0.00042	685.731	11.341	-135.223	-0.786	-0.000	3.141	60944	-0.634	71.132	-3.601	-18.077	0.444	-0.235	0.092	0.619	-0.341	0.837	0.031	-0.036	0.063	-0.082	1.290	0.202	-1.004	-0.256	0.869	-2.214	
0.91114	0.00665	0.00040	686.326	10.651	-135.236	-0.785	0.000	3.141	61226	-0.360	71.126	-3.450	-18.421	0.482	-0.080	0.085	1.058	-0.629	0.998	-0.124	-0.277	0.036	-0.083	1.292	0.202	-1.000	-0.255	0.872	-2.216	
0.01366	0.00712	0.01667	686.334	10.656	-135.225	-0.769	0.000	3.141	61414	-0.259	70.995	-3.388	-18.331	0.497	-0.098	0.154	0.860	-0.801	1.087	-0.189	-0.159	0.099	-0.083	1.292	0.202	-1.000	-0.255	0.872	-2.223	
0.03853	0.12540	0.15042	686.336	10.618	-135.225	-0.618	0.000	3.141	61698	-0.065	70.893	-3.290	-18.309	0.547	-0.118	0.077	0.988	-0.477	1.099	-0.074	-0.191	0.084	-0.083	1.292	0.202	-1.000	-0.255	0.872	-2.349	
0.06994	0.19682	0.18331	686.355	10.556	-135.197	-0.435	0.000	3.141	61979	-0.265	71.015	-3.428	-18.336	0.520	-0.120	0.126	1.150	-0.327	1.174	-0.028	-0.235	0.078	-0.083	1.292	0.202	-1.000	-0.255	0.872	-2.546	
0.01200	0.06326	0.04211	686.359	10.566	-135.192	-0.393	0.000	3.141	62260	-0.203	71.053	-3.391	-18.361	0.507	-0.116	0.079	1.205	-0.264	1.150	0.002	-0.257	0.050	-0.083	1.292	0.202	-1.000	-0.255	0.872	-2.609	
1.59213	0.00344	0.00026	684.900	11.203	-135.184	-0.393	-0.000	3.141	62493	-0.511	70.745	-3.407	-17.769	0.666	0.114	-0.071	2.802	-0.415	0.933	0.042	-1.109	-0.067	-0.083	1.291	0.202	-1.002	-0.256	0.871	-2.608	
6.97703	0.04059	0.00056	678.465	13.898	-135.132	-0.393	-0.000	3.141	62776	-0.733	70.408	-3.585	-17.723	0.606	0.024	-0.042	2.671	-0.543	1.245	0.051	-1.129	-0.076	-0.082	1.277	0.202	-1.034	-0.259	0.853	-2.599	
1.20023	0.01376	0.00017	677.350	14.341	-135.184	-0.393	-0.000	3.141	63014	-0.663	70.496	-3.494	-17.821	0.705	0.164	-0.071	2.951	-0.157	1.143	0.166	-1.179	-0.098	-0.081	1.272	0.202	-1.045	-0.260	0.847	-2.596	
5.01315	0.02129	0.00004	672.744	16.319	-135.115	-0.393	-0.000	3.141	63274	-0.843	70.057	-3.684	-17.562	0.672	0.163	-0.077	3.060	0.026	1.289	0.299	-1.321	-0.105	-0.081	1.265	0.202	-1.062	-0.261	0.837	-2.591	
4.92364	0.03413	0.00035	668.190	18.189	-135.063	-0.393	-0.001	3.141	63555	-0.800	69.932	-3.698	-17.495	0.644	0.045	-0.063	2.366	-0.041	1.124	0.272	-0.963	-0.090	-0.079	1.253	0.202	-1.089	-0.264	0.822	-2.583	
1.87205	0.00264	0.00050	666.437	18.814	-135.265	-0.393	-0.000	3.141	63790	-0.792	69.195	-3.743	-17.323	0.682	0.188	-0.062	3.058	-0.066	1.192	0.280	-1.340	-0.106	-0.079	1.252	0.202	-1.092	-0.264	0.821	-2.582	
7.05143	0.03821	0.00029	659.941	21.557	-135.234	-0.393	-0.000	3.141	64075	-1.211	69.151	-3.958	-17.041	0.613	0.054	-0.035	2.581	-0.099	0.844	0.256	-1.177	-0.097	-0.078	1.240	0.202	-1.122	-0.267	0.805	-2.572	
1.17611	0.01255	0.00029	658.845	21.985	-135.219	-0.393	-0.000	3.141	64312	-1.168	72.423	-4.120	-18.119	0.492	0.030	-0.039	2.551	0.044	1.453	0.315	-1.014	-0.086	-0.077	1.235	0.202	-1.131	-0.268	0.799	-2.569	
9.83743	0.01851	0.00027	657.091	22.853	-125.578	-0.393	-0.000	3.141	64587	-0.086	67.288	-3.129	-17.036	0.442	-0.239	-0.057	2.278	0.339	2.610	0.488	-0.718	-0.160	-0.077	1.221	0.202	-1.143	-0.266	0.802	-2.568	
19.71959	0.06060	0.00030	653.041	24.412	-106.342	-0.393	0.000	3.141	64868	-0.558	68.188	-3.426	-17.401	0.437	-0.120	-0.035	2.252	0.044	1.754	0.344	-0.685	-0.149	-0.077	1.174	0.202	-1.179	-0.258	0.813	-2.567	
1.16336	0.01010	0.00032	652.597	24.516	-105.272	-0.393	0.000	3.141	65110	-0.686	67.916	-3.652	-17.313	0.423	-0.131	-0.051	1.883	0.345	1.271	0.426	-0.600	-0.136	-0.077	1.167	0.202	-1.185	-0.257	0.815	-2.566	
0.10587	0.00336	0.00861	652.657	24.512	-105.184	-0.401	0.000	3.141	65337	-0.671	67.877	-3.598	-17.360	0.416	-0.102	-0.139	2.053	0.313	1.360	0.425	-0.681	-0.174	-0.077	1.167	0.202	-1.185	-0.257	0.815	-2.563	
0.00627	0.09350	0.11990	652.658	24.512	-105.178	-0.521	0.000	3.141	65615	-0.671	67.835	-3.670	-17.390	0.423	-0.122	-0.035	2.062	-0.014	1.311	0.293	-0.753	-0.170	-0.077	1.166	0.202	-1.185	-0.257	0.815	-2.470	
0.00079	0.21083	0.21601	652.658	24.511	-105.178	-0.737	0.000	3.141	65897	-0.644	67.835	-3.661	-17.334	0.380	-0.117	-0.075	1.971	-0.504	1.314	0.085	-0.789	-0.151	-0.077	1.166	0.202	-1.185	-0.257	0.815	-2.259	
0.00164	0.21897	0.21906	652.656	24.511	-105.178	-0.956	-0.000	3.141	66176	-0.664	67.859	-3.610	-17.302	0.410	-0.112	-0.115	1.858	-0.981	1.347	-0.123	-0.815	-0.159	-0.077	1.166	0.202	-1.185	-0.257	0.815	-2.040	
0.00138	0.22309	0.22387	652.655	24.511	-105.178	-1.180	-0.000	3.141	66458	-0.694	67.820	-3.619	-17.394	0.487	-0.113	-0.091	1.628	-1.320	1.335	-0.296	-0.794	-0.169	-0.077	1.166	0.202	-1.185	-0.257	0.815	-1.817	
0.00148	0.21907	0.21829	652.653	24.511	-105.178	-1.399	-0.000	3.141	66740	-0.664	67.848	-3.662	-17.387	0.471	-0.134	-0.188	1.330	-1.626	1.330	-0.473	-0.741	-0.194	-0.077	1.166	0.202	-1.185	-0.257	0.815	-1.598	
0.00154	0.22152	0.22153	652.652	24.511	-105.178	-1.620	-0.000	3.141	67022	-0.672	67.864	-3.661	-17.314	0.403	-0.125	-0.158	0.945	-1.926	1.331	-0.660	-0.634	-0.210	-0.077	1.166	0.202	-1.185	-0.257	0.815	-1.376	
0.00288	0.22060	0.21791	652.649	24.510	-105.178	-1.838	-0.000	3.141	67303	-0.651	67.860	-3.624	-17.384	0.453	-0.120	-0.259	0.578	-2.065	1.304	-0.789	-0.508	-0.212	-0.077	1.166	0.202	-1.185	-0.257	0.815	-1.155	
0.00137	0.14390	0.11800	652.648	24.510	-105.178	-1.956	-0.000	3.141	67590	-0.675	67.840	-3.648	-17.358	0.436	-0.122	-0.128	0.443	-2.099	1.338	-0.820	-0.469	-0.226	-0.077	1.166	0.202	-1.185	-0.257	0.815	-1.012	
0.00034	0.01569	0.00739	652.647	24.510	-105.178	-1.963	-0.000	3.141	67870	-0.664	67.835	-3.644	-17.340	0.434	-0.131	-0.105	0.393	-2.024	1.339	-0.778	-0.442	-0.189	-0.077	1.166	0.202	-1.185	-0.257	0.815	-0.996	
0.00021	0.00108	0.00362	652.647	24.510	-105.178	-1.967	-0.000	3.141	68087	-0.686	67.813	-3.639	-17.342	0.431	-0.125	-0.121	0.421	-2.065	1.346	-0.807	-0.470	-0.225	-0.077	1.166	0.202	-1.185	-0.257	0.815	-0.995	
0.00098	0.07157	0.09641	652.646	24.510	-105.178	-2.063	-0.000	3.141	68367	-0.640	67.862	-3.667	-17.287	0.420	-0.115	-0.111	0.026	-2.157	1.332	-0.905	-0.298	-0.198	-0.077	1.166	0.202	-1.185	-0.257	0.815	-0.923	
0.00218	0.20071	0.20945	652.644	24.510	-105.178	-2.273	-0.000	3.141	68650	-0.669	67.855	-3.654	-17.331	0.439	-0.109	-0.111	-0.421	-2.088	1.326	-0.950	-0.112	-0.197	-0.077	1.166	0.202	-1.185	-0.257	0.815	-0.722	
0.00080	0.22209	0.22127	652.643	24.510	-105.178	-2.494	-0.000	3.142	68931	-0.708	67.824	-3.620	-17.361	0.467	-0.111	-0.068	-0.877	-1.944	1.324	-0.973	0.094	-0.198	-0.077	1.166	0.202	-1.185	-0.257	0.815	-0.500	
0.00056	0.21915	0.22073	652.643	24.510	-105.178	-2.715	-0.000	-3.142	69211	-0.691	67.846	-3.669	-17.390	0.461	-0.110	-0.073	-1.262	-1.675	1.315	-0.929	0.290	-0.189	-0.077	1.166	0.202	-1.185	-0.257	0.815	-0.281	
0.00038	0.21988	0.21985	652.642	24.510	-105.178	-2.935	-0.000	-3.141	69491	-0.629	67.820	-3.659	-17.354	0.410	-0.086	-0.097	-1.608	-1.366	1.303	-0.862	0.491	-0.189	-0.077	1.166	0.202	-1.185	-0.257	0.815	-0.061	
0.00074	0.22225	0.22151	652.642	24.510	-105.178	3.127	-0.000	-3.141	69774	-0.655	67.860	-3.626	-17.272	0.421	-0.098	-0.017	-1.928	-0.984	1.316	-0.749	0.674	-0.190	-0.077	1.166	0.202	-1.185	-0.257	0.815	0.161	
0.00025	0.21992	0.21971	652.641	24.510	-105.178	2.907	-0.000	-3.141	70054	-0.659	67.838	-3.620	-17.317	0.423	-0.072	-0.198	-2.082	-0.575	1.310	-0.612	0.810	-0.208	-0.077	1.166	0.202	-1.185	-0.257	0.815	0.381	
0.00055	0.16367	0.14103	652.641	24.510	-105.178	2.766	-0.000	-3.141	70334	-0.663	67.847	-3.651	-17.346	0.439	-0.108	-0.109	-2.101	-0.412	1.325	-0.564	0.852	-0.215	-0.077	1.166	0.202	-1.185	-0.257	0.815	0.544	
0.00017	0.03037	0.01712	652.641	24.510	-105.178	2.749	-0.000	-3.141	70615	-0.669	67.851	-3.641	-17.349	0.443	-0.107	-0.091	-2.070	-0.354	1.316	-0.533	0.829	-0.178	-0.077	1.166	0.202	-1.185	-0.257	0.815	0.575	
1.03293	0.00044	0.00008	652.673	24.481	-106.210	2.749	-0.000	-3.141	70834	-7.045	64.824	-9.561	-15.818	-1.512	1.129	-0.271	-1.622	-0.423	-0.452	-0.525	0.896	-0.146	-0.077	1.167	0.202	-1.185	-0.257	0.815	0.575	
19.19413	0.04029	0.00110	652.899	23.637	-125.384	2.748	0.000	-3.141	71114	-9.855	70.741	-12.208	-17.402	-1.953	1.152	-0.341	-5.410	-12.743	-3.012	-1.204	1.285	-0.367	-0.077	1.199	0.202	-1.170	-0.265	0.798	0.578	
9.85388	0.03169	0.00073	652.875	24.136	-135.225	2.749	0.000	-3.141	71394	-12.074	67.382	-14.346	-16.927	-2.796	1.731	-0.367	-5.419	-17.602	-1.756	-1.607	1.139	-0.401	-0.076	1.224	0.202	-1.158	-0.271	0.785	0.581	
0.11293	0.00027	0.00053	652.981	24.172	-135.234	2.749	-0.000	-3.141	71582	-9.695	69.215	-12.663	-18.068	-2.410	1.472	-0.132	-2.744	-17.031	-0.632	-1.441	0.358	-0.248	-0.075	1.224	0.202	-1.158	-0.271	0.785	0.581	
3.47273	0.01746	0.00089	656.395	23.540	-135.166	2.749	-0.000	-3.142	71861	-5.591	68.612	-8.377	-16.984	-1.058	0.549	-0.059	-2.494	-10.208	0.561	-1.012	0.316	-0.127	-0.076	1.230	0.203	-1.144	-0.269	0.793	0.576	
1.09015	0.00875	0.00020	657.385	23.082	-135.169	2.750	-0.000	-3.141	72106	-4.189	68.245	-7.116	-16.932	-0.667	0.333	0.015	-4.013	-6.181	0.676	-0.635	0.726	-0.121	-0.076	1.233	0.202	-1.137	-0.269	0.796	0.574	
0.09708	0.01687	0.03138	657.322	23.154	-135.184	2.781	-0.000	-3.142	72346	-0.296	68.667	-3.586	-17.042	0.543	-0.020	0.062	-1.305	-1.047	0.953	-0.312	0.453	0.038	-0.076	1.233	0.202	-1.137	-0.269	0.796	0.557	
0.48977	0.14786	0.16995	657.307	22.666	-135.218	2.951	-0.000	-3.141	72625	-0.257	68.691	-3.514	-17.045	0.385	-0.091	0.073	-1.249	-0.388	1.037	-0.421	0.441	0.024	-0.076	1.233	0.202	-1.137	-0.269	0.796	0.409	
0.15250	0.18496	0.16475	657.282	22.516	-135.236	3.116	-0.000	-3.141	72906	-0.402	68.674	-3.572	-17.060	0.447	-0.076	0.136	-1.231	-0.433	1.031	-0.414	0.411	0.041	-0.077	1.233	0.202	-1.137	-0.269	0.796	0.225	
0.00882	0.04301	0.02600	657.275	22.514	-135.239	-3.142	-0.000	-3.141	73188	-0.410	68.386	-3.583	-16.415	0.423	-0.064	0.088	-1.252	-0.463	1.033	-0.428	0.421	0.021	-0.077	1.233	0.202	-1.137	-0.269	0.796	0.182	
2.57269	0.00925	0.00064	654.703	22.518	-135.168	3.141	0.000	-3.141	73423	-0.233	68.838	-3.639	-16.568	0.632	0.128	-0.020	-2.648	0.060	1.638	-0.289	1.123	-0.015	-0.077	1.230	0.202	-1.145	-0.270	0.792	0.183	
6.90390	0.03906	0.00019	647.799	22.509	-135.221	-3.142	0.000	-3.141	73704	-0.081	67.824	-3.608	-16.497	0.567	0.090	0.008	-2.609	0.010	1.344	-0.256	1.074	-0.001	-0.080	1.217	0.202	-1.176	-0.273	0.774	0.189	
0.30702	0.00728	0.00017	647.494	22.476	-135.228	3.141	0.000	-3.141	73935	-0.200	67.317	-3.708	-16.353	0.662	0.184	-0.036	-2.769	0.003	1.238	-0.256	1.184	-0.018	-0.080	1.214	0.202	-1.182	-0.274	0.771	0.190	
6.19061	0.02675	0.00037	641.304	22.446	-135.238	-3.141	0.000	-3.141	74217	0.038	67.184	-3.763	-16.806	0.676	0.321	-0.025	-3.142	0.051	1.574	-0.259	1.309	0.004	-0.082	1.205	0.202	-1.203	-0.277	0.759	0.195	
3.81449	0.02702	0.00031	637.489	22.471	-135.218	-3.142	0.000	-3.141	74497	-0.105	67.633	-3.764	-16.296	0.614	0.129	-0.008	-2.317	0.009	1.022	-0.265	0.986	0.004	-0.083	1.196	0.202	-1.225	-0.279	0.747	0.199	
1.74687	0.00233	0.00032	635.746	22.523	-135.320	3.141	0.000	-3.141	74686	0.289	67.276	-3.529	-15.932	0.657	0.185	-0.033	-2.715	0.045	1.244	-0.266	1.197	-0.003	-0.083	1.196	0.202	-1.227	-0.279	0.746	0.199	
6.94760	0.03629	0.00010	628.799	22.512	-135.260	3.141	0.000	-3.141	74965	-0.030	66.366	-3.635	-15.590	0.563	0.146	0.007	-2.747	0.001	1.062	-0.310	1.183	-0.022	-0.086	1.184	0.202	-1.256	-0.283	0.729	0.205	
1.31393	0.01343	0.00031	627.485	22.514	-135.257	3.142	0.000	-3.141	75213	-0.040	66.590	-3.768	-15.442	0.621	0.161	-0.069	-2.778	-0.008	1.707	-0.299	1.175	-0.027	-0.086	1.179	0.202	-1.267	-0.285	0.723	0.208	
4.99546	0.01991	0.00020	622.491	22.497	-135.152	3.141	0.000	-3.141	75485	0.004	65.707	-3.709	-15.690	0.676	0.239	-0.062	-2.762	0.055	1.406	-0.289	1.216	-0.031	-0.087	1.173	0.202	-1.283	-0.287	0.714	0.211	
4.92634	0.03079	0.00025	617.564	22.462	-135.154	-3.142	0.000	-3.141	75764	-0.026	65.707	-3.705	-15.297	0.592	0.087	-0.033	-2.273	-0.038	1.212	-0.317	0.973	-0.021	-0.089	1.163	0.202	-1.307	-0.291	0.700	0.217	
0.39172	0.00024	0.00052	617.191	22.495	-135.268	-3.142	-0.000	-3.141	75950	0.066	65.918	-3.713	-15.091	0.640	0.128	-0.047	-2.791	-0.052	1.222	-0.329	1.203	-0.025	-0.089	1.163	0.202	-1.307	-0.291	0.700	0.217	
1.57993	0.00681	0.00029	615.613	22.567	-135.312	3.142	-0.000	-3.141	76230	-0.086	65.356	-3.763	-14.957	0.596	0.039	-0.039	-2.620	-0.009	0.932	-0.276	1.111	-0.004	-0.090	1.161	0.202	-1.313	-0.292	0.697	0.218	
0.29197	0.00316	0.00025	615.329	22.596	-135.251	-3.141	-0.000	-3.141	76460	-0.039	65.563	-3.795	-15.151	0.597	0.051	-0.075	-2.198	-0.009	1.501	-0.294	0.885	-0.021	-0.090	1.160	0.202	-1.315	-0.292	0.696	0.219	
0.05189	0.03012	0.04838	615.377	22.604	-135.232	3.093	-0.000	-3.141	76733	-0.113	65.496	-3.774	-15.153	0.558	0.060	-0.064	-2.187	0.060	1.369	-0.282	0.924	-0.063	-0.090	1.160	0.202	-1.315	-0.292	0.696	0.249	
0.11828	0.16870	0.18797	615.487	22.606	-135.189	2.905	0.000	-3.141	77012	-0.063	65.474	-3.838	-15.166	0.627	0.048	-0.165	-2.152	0.428	1.441	-0.141	0.975	-0.108	-0.090	1.160	0.202	-1.315	-0.292	0.696	0.417	
0.02571	0.16606	0.14227	615.510	22.611	-135.179	2.763	0.000	-3.141	77293	-0.069	65.497	-3.808	-15.172	0.588	0.053	-0.120	-2.033	0.569	1.378	-0.078	0.955	-0.108	-0.090	1.160	0.202	-1.315	-0.292	0.696	0.583	
0.02950	0.02779	0.01408	615.538	22.610	-135.168	2.749	0.000	-3.141	77574	-0.200	65.351	-3.844	-14.919	0.584	0.066	-0.108	-1.980	0.615	1.371	-0.052	0.923	-0.069	-0.090	1.160	0.202	-1.315	-0.292	0.696	0.611	
2.66192	0.00633	0.00027	613.070	23.607	-135.221	2.749	0.000	-3.141	77759	-0.661	64.988	-3.867	-15.034	0.690	0.217	-0.175	-2.783	0.250	1.022	-0.335	1.430	-0.150	-0.089	1.158	0.202	-1.320	-0.293	0.693	0.613	
6.84603	0.03295	0.00037	606.758	26.257	-135.162	2.749	0.000	-3.142	78041	-0.508	64.650	-3.715	-14.774	0.579	0.095	-0.047	-2.670	-0.361	1.290	-0.573	1.363	-0.118	-0.087	1.148	0.202	-1.345	-0.297	0.678	0.624	
0.39600	0.00745	0.00014	606.388	26.397	-135.149	2.749	0.000	-3.141	78285	-0.590	64.789	-3.915	-15.016	0.660	0.272	-0.129	-2.701	0.029	1.285	-0.459	1.398	-0.141	-0.086	1.145	0.202	-1.351	-0.298	0.675	0.626	
5.36959	0.01840	0.00034	601.433	28.467	-135.155	2.749	0.000	-3.141	78559	-0.876	64.088	-3.866	-14.350	0.637	0.119	-0.172	-2.837	-0.262	0.767	-0.588	1.531	-0.179	-0.084	1.140	0.202	-1.365	-0.300	0.667	0.632	
4.70744	0.02757	0.00026	597.085	30.270	-135.149	2.749	0.000	-3.141	78845	-0.643	63.980	-3.893	-14.406	0.556	0.108	-0.083	-2.319	-0.221	1.002	-0.531	1.249	-0.128	-0.082	1.132	0.202	-1.386	-0.304	0.655	0.642	
0.31381	0.00132	0.00057	597.336	30.098	-135.227	2.749	-0.000	-3.141	79081	-0.581	63.933	-3.874	-14.544	0.416	-0.096	0.043	-1.264	-0.334	1.072	-0.504	0.601	-0.052	-0.082	1.132	0.202	-1.385	-0.304	0.655	0.641	
1.18701	0.00597	0.00019	598.408	29.589	-135.213	2.749	-0.000	-3.141	79364	-0.430	64.140	-3.755	-14.531	0.399	-0.034	0.042	-1.353	0.016	1.284	-0.333	0.623	-0.040	-0.082	1.134	0.202	-1.380	-0.303	0.658	0.639	
0.10265	0.00125	0.00026	598.346	29.532	-135.270	2.749	-0.000	-3.141	79551	-0.395	64.019	-3.779	-14.468	0.392	-0.061	-0.150	-1.617	-0.213	1.089	-0.487	0.782	-0.165	-0.082	1.134	0.202	-1.380	-0.302	0.659	0.639	
0.01019	0.04874	0.07188	598.341	29.524	-135.275	2.677	-0.000	-3.141	79841	-0.398	63.888	-3.789	-14.504	0.363	-0.060	-0.224	-1.704	-0.067	1.030	-0.432	0.877	-0.212	-0.082	1.134	0.202	-1.380	-0.302	0.659	0.687	
0.04941	0.19341	0.20495	598.389	29.515	-135.266	2.472	-0.000	-3.141	80127	-0.305	63.954	-3.719	-14.446	0.414	-0.057	-0.201	-1.641	0.260	1.016	-0.260	0.936	-0.204	-0.082	1.134	0.202	-1.380	-0.302	0.659	0.881	
0.06476	0.13879	0.11169	598.443	29.544	-135.248	2.360	-0.000	-3.141	80411	-0.321	63.951	-3.753	-14.463	0.460	-0.017	-0.143	-1.740	0.341	1.024	-0.197	1.011	-0.198	-0.082	1.134	0.202	-1.379	-0.303	0.659	1.020	
0.00761	0.01195	0.00425	598.450	29.547	-135.245	2.356	0.000	-3.141	80655	-0.547	63.410	-3.785	-14.190	0.557	0.092	-0.163	-2.197	0.529	1.353	-0.147	1.220	-0.200	-0.082	1.134	0.202	-1.379	-0.303	0.659	1.032	
4.91112	0.01485	0.00051	595.101	33.138	-135.172	2.356	0.000	-3.141	80916	-0.829	63.736	-3.905	-13.853	0.579	0.112	-0.181	-2.954	0.617	1.156	-0.114	1.770	-0.207	-0.078	1.130	0.202	-1.389	-0.304	0.653	1.039	
4.89248	0.02356	0.00037	591.665	36.621	-135.161	2.356	0.001	3.142	81218	-0.768	63.759	-3.874	-14.183	0.502	0.121	-0.100	-2.258	0.756	1.133	-0.017	1.371	-0.160	-0.072	1.124	0.202	-1.405	-0.308	0.643	1.050	
1.71074	0.00132	0.00043	590.409	37.772	-135.311	2.356	0.000	-3.142	81440	-0.976	63.373	-3.741	-13.398	0.617	0.071	-0.155	-3.145	0.983	1.285	0.005	1.844	-0.201	-0.072	1.124	0.202	-1.406	-0.307	0.643	1.051	
7.20937	0.02689	0.00041	585.255	42.813	-135.241	2.356	0.000	-3.141	81727	-0.651	62.806	-3.808	-13.700	0.586	0.074	-0.097	-2.421	1.165	1.156	0.062	1.556	-0.186	-0.064	1.117	0.202	-1.423	-0.311	0.633	1.065	
1.14955	0.00913	0.00031	584.480	43.663	-135.241	2.356	0.000	-3.141	81975	-0.645	63.459	-3.782	-13.916	0.596	0.137	-0.157	-2.721	0.696	0.996	-0.087	1.614	-0.173	-0.061	1.115	0.202	-1.429	-0.312	0.629	1.070	
1.45534	0.00409	0.00011	583.527	44.760	-135.171	2.356	0.000	-3.142	82234	-0.762	63.079	-3.833	-13.664	0.600	0.136	-0.149	-2.774	0.829	1.282	-0.047	1.722	-0.193	-0.060	1.114	0.202	-1.432	-0.313	0.627	1.071	
1.15348	0.00507	0.00030	582.651	45.509	-135.211	2.356	0.000	-3.141	82520	-0.629	63.216	-3.832	-13.951	0.564	0.074	-0.114	-2.157	0.708	1.351	-0.063	1.347	-0.125	-0.058	1.112	0.202	-1.435	-0.313	0.626	1.074	
0.03616	0.00627	0.01566	582.685	45.504	-135.202	2.341	0.000	-3.141	82745	-0.518	62.811	-3.778	-13.715	0.595	0.087	-0.154	-2.365	0.685	1.083	-0.075	1.485	-0.194	-0.059	1.112	0.202	-1.435	-0.313	0.626	1.080	
0.02254	0.12051	0.14451	582.695	45.484	-135.200	2.196	0.000	-3.141	83026	-0.710	62.940	-3.821	-13.744	0.563	0.074	-0.125	-2.133	1.137	1.183	0.200	1.429	-0.186	-0.059	1.112	0.202	-1.435	-0.313	0.626	1.201	
0.01828	0.20005	0.18878	582.708	45.496	-135.195	2.007	0.000	-3.142	83309	-0.671	62.907	-3.800	-13.757	0.537	0.074	-0.162	-1.957	1.383	1.132	0.379	1.390	-0.197	-0.059	1.112	0.202	-1.435	-0.313	0.626	1.401	
0.00730	0.06605	0.04396	582.715	45.496	-135.192	1.963	0.000	-3.142	83597	-0.694	62.907	-3.824	-13.765	0.550	0.067	-0.105	-1.883	1.405	1.134	0.391	1.347	-0.158	-0.059	1.112	0.202	-1.435	-0.313	0.626	1.467	
1.49755	0.00100	0.00040	582.008	46.813	-135.283	1.963	0.000	-3.141	83833	-1.096	62.862	-3.938	-13.328	0.599	0.145	-0.176	-2.605	1.960	1.188	0.648	1.770	-0.207	-0.058	1.112	0.202	-1.436	-0.313	0.626	1.468	
7.14509	0.02016	0.00037	579.375	53.456	-135.273	1.963	0.000	-3.142	84118	-0.917	63.216	-3.997	-13.884	0.593	0.162	-0.120	-1.953	1.873	0.953	0.631	1.481	-0.187	-0.047	1.109	0.202	-1.443	-0.315	0.621	1.481	
1.30549	0.00731	0.00016	578.896	54.669	-135.223	1.963	0.001	3.142	84359	-2.960	62.332	-4.869	-12.736	0.492	0.085	-0.158	-1.612	1.781	0.960	0.589	1.229	-0.149	-0.043	1.108	0.202	-1.446	-0.316	0.619	1.486	
3.82589	0.00705	0.00029	577.417	58.197	-135.206	1.964	0.001	-3.141	84594	-0.776	62.565	-3.861	-13.559	0.599	0.202	-0.181	-2.599	2.122	1.588	0.739	1.802	-0.234	-0.039	1.107	0.202	-1.449	-0.316	0.618	1.491	
6.24089	0.01984	0.00009	575.022	63.960	-135.192	1.964	0.001	-3.141	84881	-0.816	62.848	-3.929	-13.709	0.549	0.181	-0.105	-1.887	1.881	1.141	0.664	1.378	-0.157	-0.028	1.104	0.202	-1.456	-0.318	0.613	1.505	
0.08639	0.00116	0.00020	575.054	63.897	-135.242	1.963	0.001	-3.142	85071	-0.141	62.310	-3.385	-13.176	0.620	0.128	-0.160	-2.546	2.004	1.376	0.706	1.730	-0.221	-0.028	1.104	0.202	-1.457	-0.318	0.613	1.506	
5.93635	0.01306	0.00010	572.857	69.412	-135.208	1.964	0.001	3.142	85352	0.249	62.552	-3.227	-13.589	0.646	0.162	-0.160	-2.405	2.066	1.511	0.725	1.741	-0.218	-0.020	1.102	0.202	-1.461	-0.319	0.610	1.515	
4.04894	0.01496	0.00019	571.319	73.158	-135.213	1.963	0.001	3.141	85637	-0.755	62.151	-3.839	-13.244	0.556	0.064	-0.093	-1.846	1.700	1.292	0.531	1.344	-0.142	-0.011	1.100	0.202	-1.467	-0.320	0.607	1.525	
0.19740	0.00044	0.00034	571.279	72.966	-135.237	1.964	0.000	-3.141	85841	-0.341	62.129	-3.766	-13.359	0.437	-0.056	0.040	-1.237	1.324	1.390	0.304	0.911	-0.059	-0.012	1.100	0.202	-1.466	-0.320	0.607	1.525	
0.67815	0.00239	0.00042	571.411	72.303	-135.288	1.964	0.000	-3.141	86127	-0.339	62.251	-3.818	-13.413	0.413	-0.068	0.032	-0.718	1.229	1.330	0.252	0.590	-0.022	-0.013	1.101	0.202	-1.466	-0.320	0.608	1.523	
0.05632	0.00052	0.00013	571.422	72.254	-135.261	1.963	0.000	-3.141	86319	-0.238	62.220	-3.752	-13.432	0.447	-0.056	-0.171	-1.185	1.269	1.415	0.271	0.865	-0.155	-0.013	1.101	0.202	-1.466	-0.320	0.608	1.523	
0.01112	0.05421	0.07569	571.429	72.252	-135.252	1.888	0.000	-3.141	86621	-0.200	62.258	-3.824	-13.406	0.465	-0.030	-0.227	-1.127	1.502	1.329	0.441	0.902	-0.186	-0.013	1.101	0.202	-1.466	-0.320	0.608	1.577	
0.01622	0.19198	0.20438	571.444	72.250	-135.245	1.683	0.000	-3.141	86901	-0.359	62.266	-3.751	-13.440	0.480	-0.017	-0.195	-0.841	1.666	1.328	0.598	0.832	-0.205	-0.013	1.101	0.202	-1.466	-0.320	0.608	1.769	
0.01754	0.13652	0.10953	571.460	72.249	-135.238	1.574	0.001	-3.141	87188	-0.364	62.263	-3.809	-13.437	0.489	-0.038	-0.126	-0.731	1.727	1.345	0.645	0.789	-0.179	-0.013	1.101	0.202	-1.466	-0.320	0.608	1.906	
0.00569	0.01043	0.00331	571.464	72.246	-135.236	1.571	0.001	-3.141	87432	-1.096	61.374	-3.787	-13.075	0.468	-0.123	-0.186	-1.132	1.600	1.210	0.599	1.006	-0.181	-0.013	1.101	0.202	-1.466	-0.320	0.608	1.916	
5.03174	0.00933	0.00012	571.541	77.277	-135.241	1.571	0.001	-3.141	87706	-0.960	61.930	-3.867	-13.380	0.343	-0.131	-0.195	-1.515	1.328	1.145	0.487	1.266	-0.301	-0.006	1.101	0.202	-1.464	-0.320	0.609	1.922	
5.00095	0.01521	0.00014	571.494	82.278	-135.277	1.571	0.001	-3.141	87989	-0.812	62.418	-3.938	-13.529	0.354	-0.063	-0.135	-1.266	1.493	1.065	0.559	1.063	-0.235	0.005	1.103	0.202	-1.460	-0.319	0.611	1.932	
0.14598	0.00017	0.00006	571.487	82.424	-135.271	1.571	0.001	-3.141	88175	-0.738	62.497	-3.662	-13.724	0.361	-0.105	-0.184	-1.733	1.445	0.961	0.536	1.342	-0.294	0.004	1.103	0.202	-1.461	-0.319	0.611	1.932	
6.90320	0.01425	0.00002	571.489	89.327	-135.283	1.571	0.001	-3.141	88458	1.174	62.579	-2.759	-13.748	0.375	-0.128	-0.186	-2.059	1.483	0.803	0.550	1.433	-0.316	0.015	1.104	0.202	-1.457	-0.318	0.613	1.941	
2.95841	0.01020	0.00047	571.654	92.281	-135.254	1.570	0.000	3.142	88745	-1.024	62.047	-3.895	-13.449	0.337	-0.101	-0.164	-1.336	1.527	1.170	0.549	1.100	-0.261	0.022	1.105	0.202	-1.455	-0.318	0.614	1.947	
2.49288	0.00298	0.00026	571.640	94.773	-135.198	1.571	0.001	-3.142	88951	-0.907	62.486	-3.819	-13.700	0.319	-0.116	-0.173	-1.748	1.317	0.909	0.496	1.322	-0.302	0.024	1.105	0.202	-1.454	-0.317	0.614	1.949	
7.04824	0.01777	0.00029	571.678	101.821	-135.248	1.571	0.000	3.141	89235	-0.586	62.673	-3.757	-13.665	0.348	-0.118	-0.145	-1.828	1.488	0.737	0.528	1.315	-0.278	0.037	1.107	0.202	-1.450	-0.316	0.617	1.960	
0.44597	0.00373	0.00017	571.634	102.264	-135.263	1.570	0.000	3.142	89448	-0.620	62.108	-3.649	-13.575	0.340	-0.157	-0.193	-1.911	1.456	0.814	0.548	1.361	-0.278	0.039	1.107	0.202	-1.449	-0.316	0.618	1.963	
2.39352	0.00441	0.00063	571.667	104.658	-135.244	1.571	0.001	3.141	89709	-1.144	62.360	-3.941	-13.677	0.320	-0.124	-0.194	-1.739	1.233	0.914	0.474	1.332	-0.317	0.043	1.108	0.202	-1.448	-0.316	0.618	1.965	
2.14382	0.00659	0.00015	571.636	106.801	-135.271	1.571	0.000	3.141	89994	-0.839	62.408	-3.880	-13.645	0.327	-0.116	-0.135	-1.353	1.211	0.915	0.432	1.089	-0.244	0.048	1.108	0.202	-1.446	-0.316	0.619	1.969	
0.00504	0.00175	0.00757	571.636	106.805	-135.267	1.578	0.000	3.141	90217	-0.862	62.422	-3.892	-13.682	0.386	-0.086	0.043	-1.223	1.097	0.882	0.361	0.970	-0.097	0.047	1.108	0.202	-1.446	-0.316	0.619	1.968	
0.02240	0.10044	0.12722	571.640	106.783	-135.262	1.706	0.000	3.141	90502	-0.786	62.466	-3.786	-13.672	0.366	-0.075	0.175	-1.390	0.920	0.850	0.230	1.029	-0.099	0.047	1.108	0.202	-1.446	-0.316	0.619	1.867	
0.01282	0.20703	0.19902	571.642	106.793	-135.254	1.905	0.000	3.142	90788	-0.807	62.440	-3.816	-13.660	0.357	-0.079	0.083	-1.471	0.729	0.883	0.082	1.032	-0.071	0.047	1.108	0.202	-1.446	-0.316	0.619	1.660	
0.00230	0.08310	0.05883	571.643	106.794	-135.252	1.963	0.000	-3.142	91074	-0.780	62.442	-3.816	-13.668	0.341	-0.103	0.017	-1.542	0.638	0.912	0.027	1.078	-0.109	0.047	1.108	0.202	-1.446	-0.316	0.619	1.577	
0.38982	0.00041	0.00011	571.482	107.149	-135.235	1.964	0.000	-3.141	91296	-0.965	62.168	-3.875	-13.330	0.469	0.037	-0.084	-1.931	1.374	1.088	0.412	1.407	-0.182	0.047	1.108	0.202	-1.446	-0.316	0.619	1.577	
6.97147	0.01639	0.00022	568.740	113.558	-135.266	1.964	0.001	-3.141	91580	0.505	62.676	-3.107	-13.841	0.564	0.143	-0.101	-3.016	1.701	0.944	0.627	1.919	-0.223	0.058	1.107	0.202	-1.451	-0.317	0.617	1.588	
2.55873	0.01022	0.00029	567.678	115.886	-135.236	1.963	0.001	-3.141	91866	-0.996	62.544	-3.910	-13.438	0.492	0.106	-0.089	-1.887	1.934	1.088	0.686	1.352	-0.161	0.064	1.105	0.202	-1.453	-0.318	0.615	1.596	
2.57448	0.00317	0.00021	566.744	118.284	-135.292	1.963	0.001	-3.141	92055	-1.079	62.407	-3.956	-13.627	0.533	0.178	-0.111	-2.476	1.846	1.262	0.705	1.712	-0.203	0.066	1.105	0.202	-1.454	-0.318	0.615	1.598	
6.96296	0.01892	0.00021	564.075	124.715	-135.269	1.964	0.001	-3.141	92342	-0.629	62.321	-3.715	-13.286	0.527	0.109	-0.105	-2.468	2.040	1.166	0.760	1.701	-0.206	0.078	1.103	0.202	-1.459	-0.319	0.612	1.612	
0.45022	0.00415	0.00007	563.900	125.129	-135.241	1.963	0.001	-3.141	92588	-0.750	62.514	-3.931	-13.586	0.505	0.099	-0.001	-1.696	1.773	1.086	0.649	1.285	-0.131	0.080	1.103	0.202	-1.460	-0.319	0.611	1.615	
0.75604	0.00179	0.00035	564.290	124.482	-135.263	1.964	0.001	-3.142	92864	-0.456	62.416	-3.862	-13.545	0.450	0.015	0.041	-0.891	1.437	1.302	0.436	0.735	-0.031	0.079	1.103	0.202	-1.460	-0.319	0.611	1.613	
0.55499	0.00194	0.00008	564.496	123.966	-135.267	1.964	0.001	-3.141	93151	-0.368	62.409	-3.820	-13.506	0.448	0.007	0.026	-0.939	1.420	1.298	0.420	0.746	-0.050	0.078	1.103	0.202	-1.459	-0.319	0.612	1.612	
0.01177	0.00659	0.01637	564.507	123.969	-135.269	1.980	0.001	-3.141	93356	-0.446	62.401	-3.840	-13.524	0.354	0.011	0.088	-0.822	1.361	1.273	0.394	0.661	0.019	0.078	1.103	0.202	-1.459	-0.319	0.612	1.605	
0.00955	0.12520	0.15071	564.498	123.966	-135.272	2.131	0.001	-3.141	93641	-0.398	62.373	-3.830	-13.524	0.548	0.042	0.031	-1.058	1.251	1.272	0.303	0.723	0.038	0.078	1.103	0.202	-1.459	-0.319	0.612	1.480	
0.00793	0.19604	0.18210	564.491	123.967	-135.274	2.313	0.000	-3.141	93919	-0.383	62.377	-3.805	-13.494	0.459	0.024	0.123	-1.233	1.096	1.286	0.206	0.766	0.051	0.078	1.103	0.202	-1.459	-0.319	0.612	1.284	
0.00285	0.06489	0.04347	564.488	123.967	-135.276	2.356	0.000	-3.141	94203	-0.382	62.380	-3.821	-13.512	0.447	0.007	0.047	-1.328	0.982	1.278	0.143	0.826	-0.015	0.078	1.103	0.202	-1.459	-0.319	0.612	1.219	
1.73206	0.00165	0.00064	563.172	125.085	-135.405	2.356	0.000	-3.141	94440	-0.922	61.784	-3.882	-12.896	0.556	0.112	-0.099	-3.011	1.082	1.291	0.126	1.926	-0.197	0.079	1.103	0.202	-1.460	-0.319	0.612	1.220	
7.00814	0.02415	0.00056	558.347	130.166	-135.269	2.356	0.000	-3.141	94724	-0.971	61.900	-3.750	-13.109	0.526	0.120	-0.067	-2.169	1.503	1.115	0.309	1.590	-0.149	0.088	1.098	0.202	-1.473	-0.322	0.603	1.234	
1.20683	0.00847	0.00015	557.480	131.006	-135.255	2.356	0.001	-3.141	94971	-1.554	62.330	-4.137	-13.093	0.586	0.198	-0.111	-2.567	1.081	0.943	0.144	1.698	-0.170	0.091	1.096	0.202	-1.478	-0.323	0.600	1.239	
4.94286	0.01215	0.00042	553.949	134.464	-135.246	2.356	0.000	-3.141	95226	-1.352	61.448	-3.890	-12.931	0.609	0.189	-0.103	-2.981	1.312	1.232	0.259	1.963	-0.173	0.096	1.094	0.202	-1.485	-0.325	0.596	1.247	
5.14629	0.02145	0.00047	550.398	138.189	-135.245	2.356	0.001	-3.141	95507	-0.921	61.463	-3.886	-12.912	0.561	0.070	-0.072	-2.353	0.884	1.058	0.060	1.581	-0.134	0.105	1.089	0.202	-1.497	-0.327	0.589	1.260	
0.07866	0.00022	0.00011	550.329	138.216	-135.271	2.356	0.001	-3.141	95725	-0.975	61.532	-3.840	-12.927	0.563	0.164	-0.102	-2.765	0.971	1.171	0.103	1.837	-0.180	0.105	1.089	0.202	-1.497	-0.327	0.589	1.260	
0.97093	0.00264	0.00029	549.607	138.865	-135.277	2.356	0.000	-3.141	96006	-1.000	61.533	-3.872	-12.946	0.571	0.154	-0.066	-2.855	1.028	1.102	0.145	1.894	-0.187	0.106	1.088	0.202	-1.498	-0.328	0.588	1.261	
0.24053	0.00130	0.00012	549.410	139.004	-135.272	2.356	0.000	-3.141	96230	-0.859	61.552	-3.802	-12.974	0.534	0.138	0.099	-2.443	1.081	1.166	0.186	1.626	-0.104	0.106	1.088	0.202	-1.499	-0.328	0.588	1.262	
0.02070	0.02851	0.04627	549.424	139.019	-135.272	2.403	0.000	-3.141	96492	-0.909	61.486	-3.791	-12.888	0.525	0.091	0.148	-2.176	0.757	1.071	-0.001	1.406	0.005	0.106	1.088	0.202	-1.499	-0.328	0.588	1.234	
0.00605	0.17033	0.19002	549.423	139.013	-135.272	2.593	0.000	-3.141	96776	-0.831	61.503	-3.838	-12.991	0.439	0.069	0.112	-2.306	0.331	1.134	-0.268	1.377	-0.002	0.106	1.088	0.202	-1.499	-0.328	0.588	1.063	
0.00677	0.16776	0.14325	549.423	139.007	-135.272	2.736	0.000	-3.141	97061	-0.794	61.501	-3.792	-12.934	0.493	0.091	0.063	-2.301	0.164	1.156	-0.353	1.328	0.004	0.106	1.088	0.202	-1.499	-0.328	0.588	0.896	
0.00156	0.02635	0.01329	549.423	139.005	-135.272	2.749	0.000	-3.141	97338	-2.488	62.020	-4.729	-12.364	0.492	0.196	-0.086	-2.374	0.212	1.196	-0.353	1.405	-0.069	0.106	1.088	0.202	-1.499	-0.328	0.588	0.869	
4.13949	0.01211	0.00006	545.613	140.622	-135.275	2.749	0.000	-3.141	97581	-1.260	61.206	-3.910	-12.444	0.577	0.188	-0.152	-3.209	0.203	1.106	-0.483	1.984	-0.215	0.109	1.085	0.202	-1.507	-0.330	0.583	0.875	
5.80973	0.02834	0.00032	540.282	142.931	-135.215	2.749	0.000	-3.141	97865	-0.804	60.829	-3.816	-12.625	0.507	0.106	-0.110	-2.733	0.026	1.132	-0.480	1.652	-0.186	0.115	1.078	0.202	-1.527	-0.335	0.571	0.888	
0.69675	0.00069	0.00076	539.607	143.046	-135.344	2.748	-0.000	-3.141	98086	-1.241	60.561	-3.918	-12.543	0.600	0.270	-0.163	-3.283	-0.189	0.584	-0.586	2.044	-0.232	0.115	1.078	0.202	-1.527	-0.335	0.571	0.889	
6.95388	0.02618	0.00065	533.227	145.811	-135.264	2.749	0.000	-3.141	98369	-0.519	60.214	-3.536	-12.340	0.534	0.162	-0.122	-3.152	-0.426	0.967	-0.677	2.018	-0.214	0.120	1.071	0.202	-1.545	-0.339	0.560	0.901	
2.28556	0.01444	0.00015	531.116	146.686	-135.237	2.749	0.000	-3.141	98636	-1.574	60.825	-4.167	-12.429	0.542	0.252	-0.149	-2.525	0.008	1.040	-0.451	1.612	-0.175	0.123	1.068	0.202	-1.554	-0.342	0.554	0.909	
2.27886	0.00609	0.00064	528.967	147.443	-135.303	2.749	-0.000	-3.141	98872	-0.977	60.355	-3.823	-12.113	0.578	0.220	-0.151	-3.472	0.154	1.575	-0.496	2.121	-0.226	0.125	1.066	0.202	-1.559	-0.343	0.552	0.912	
2.54984	0.01219	0.00006	526.612	148.420	-135.305	2.749	-0.000	-3.141	99154	-0.591	60.042	-3.518	-11.851	0.519	0.080	-0.107	-2.852	-0.214	0.819	-0.582	1.734	-0.185	0.128	1.063	0.202	-1.567	-0.345	0.547	0.918	
0.14869	0.00023	0.00131	526.756	148.386	-135.284	2.750	0.000	-3.141	99341	-0.909	59.954	-3.766	-12.034	0.515	0.086	0.129	-2.443	-0.001	1.127	-0.487	1.505	-0.034	0.128	1.063	0.202	-1.567	-0.345	0.547	0.918	
0.00972	0.06825	0.09326	526.749	148.381	-135.289	2.844	0.000	-3.141	99622	-0.866	60.092	-3.766	-12.120	0.477	0.103	0.108	-2.413	-0.260	1.244	-0.612	1.402	-0.029	0.128	1.063	0.202	-1.567	-0.345	0.547	0.849	
0.01945	0.20313	0.20567	526.741	148.399	-135.289	3.049	-0.000	-3.141	99904	-0.726	59.839	-3.724	-12.225	0.434	0.114	0.108	-2.308	-0.701	1.230	-0.842	1.254	-0.017	0.128	1.063	0.202	-1.567	-0.345	0.547	0.646	
0.01071	0.11592	0.09126	526.742	148.388	-135.290	3.141	-0.000	-3.141	100186	-0.707	60.025	-3.654	-12.045	0.457	0.089	0.084	-2.362	-0.893	1.239	-0.919	1.242	-0.041	0.128	1.063	0.202	-1.567	-0.345	0.547	0.530	
0.02359	0.00559	0.00119	526.719	148.384	-135.296	-3.141	-0.000	-3.141	100419	-0.742	59.502	-3.782	-11.971	0.566	0.199	-0.126	-3.398	-1.328	1.074	-1.262	1.833	-0.176	0.128	1.063	0.202	-1.567	-0.345	0.547	0.525	
6.26917	0.02304	0.00030	520.451	148.436	-135.261	3.142	0.000	-3.141	100708	-0.550	59.248	-3.523	-12.627	0.631	0.197	-0.163	-3.177	-1.245	0.907	-1.255	1.798	-0.199	0.129	1.057	0.202	-1.584	-0.350	0.537	0.533	
3.56790	0.02156	0.00017	516.883	148.433	-135.246	3.142	0.000	-3.141	100993	-0.977	58.953	-3.685	-11.396	0.546	0.158	-0.131	-2.575	-1.264	0.927	-1.191	1.524	-0.183	0.130	1.052	0.202	-1.599	-0.355	0.527	0.541	
3.00214	0.00699	0.00042	513.882	148.396	-135.324	3.142	-0.000	-3.141	101216	-0.919	58.554	-3.501	-11.247	0.593	0.219	-0.154	-2.871	-1.226	1.064	-1.307	1.755	-0.204	0.130	1.050	0.202	-1.605	-0.357	0.524	0.544	
6.82602	0.03176	0.00036	507.056	148.440	-135.272	-3.142	0.000	-3.141	101501	-0.558	58.732	-3.625	-11.286	0.527	0.105	-0.101	-2.889	-1.562	0.999	-1.349	1.699	-0.195	0.132	1.042	0.202	-1.628	-0.364	0.510	0.557	
0.33714	0.00563	0.00019	506.725	148.406	-135.327	3.142	-0.000	-3.141	101714	-1.058	58.225	-3.878	-10.833	0.573	0.153	-0.160	-2.979	-1.287	1.073	-1.291	1.784	-0.213	0.133	1.040	0.202	-1.632	-0.366	0.507	0.559	
6.33917	0.02315	0.00013	500.386	148.444	-135.267	3.142	0.000	-3.141	102009	-0.577	58.141	-3.400	-12.100	0.623	0.281	-0.147	-2.789	-1.395	0.759	-1.347	1.773	-0.205	0.134	1.035	0.202	-1.648	-0.372	0.497	0.569	
3.54179	0.02114	0.00008	496.845	148.443	-135.255	-3.142	0.000	-3.141	102295	-0.714	57.808	-3.670	-11.212	0.445	0.066	-0.054	-2.574	-1.195	0.869	-1.166	1.560	-0.169	0.136	1.029	0.202	-1.663	-0.377	0.488	0.577	
0.94325	0.00349	0.00042	497.785	148.440	-135.325	3.141	-0.000	-3.141	102516	-0.585	57.764	-3.661	-10.850	0.230	-0.155	0.083	-1.291	-0.988	0.884	-0.901	0.626	-0.091	0.135	1.030	0.202	-1.661	-0.376	0.490	0.576	
1.89924	0.00945	0.00018	499.684	148.404	-135.289	3.141	-0.000	-3.141	102796	-0.629	57.746	-3.713	-10.953	0.263	-0.051	0.028	-1.399	-0.707	1.020	-0.739	0.709	-0.089	0.135	1.033	0.202	-1.654	-0.373	0.494	0.572	
0.04244	0.00083	0.00130	499.652	148.385	-135.269	-3.141	-0.000	-3.141	103012	-0.562	57.703	-3.671	-10.955	0.242	-0.084	0.109	-1.311	-0.643	0.971	-0.691	0.656	-0.046	0.135	1.033	0.202	-1.654	-0.373	0.494	0.572	
0.00173	0.06867	0.09463	499.651	148.384	-135.268	-3.046	-0.000	-3.141	103294	-0.515	57.632	-3.662	-10.962	0.296	-0.075	0.000	-1.147	-0.863	0.968	-0.777	0.520	-0.028	0.135	1.033	0.202	-1.654	-0.373	0.494	0.503	
0.00380	0.19981	0.20141	499.648	148.384	-135.267	-2.844	-0.001	-3.141	103573	-0.542	57.697	-3.680	-10.896	0.298	-0.066	0.129	-1.028	-0.995	0.984	-0.822	0.395	-0.012	0.135	1.033	0.202	-1.654	-0.373	0.494	0.303	
0.01472	0.11784	0.09409	499.652	148.369	-135.267	-2.750	-0.001	-3.141	103852	-0.594	57.719	-3.689	-10.968	0.274	-0.070	0.092	-0.954	-1.062	0.988	-0.845	0.354	-0.013	0.135	1.033	0.202	-1.654	-0.373	0.494	0.185	
0.00111	0.00658	0.00160	499.651	148.370	-135.266	-2.749	-0.001	-3.141	104056	-0.372	57.464	-3.661	-11.017	0.504	0.197	-0.061	-1.405	-1.110	1.300	-0.933	0.604	-0.069	0.135	1.033	0.202	-1.654	-0.373	0.494	0.179	
4.93556	0.01753	0.00042	495.095	146.472	-135.260	-2.749	-0.000	-3.141	104330	-0.108	57.469	-3.479	-10.481	0.557	0.256	-0.082	-2.505	-0.982	1.347	-0.910	1.191	-0.046	0.133	1.028	0.202	-1.666	-0.378	0.486	0.184	
4.82480	0.02660	0.00037	490.638	144.625	-135.207	-2.749	0.000	-3.141	104613	-0.327	57.273	-3.705	-10.511	0.459	0.071	-0.056	-1.846	-0.902	1.167	-0.849	0.851	-0.062	0.130	1.022	0.202	-1.686	-0.386	0.474	0.191	
1.72617	0.00137	0.00053	489.031	144.011	-135.343	-2.749	-0.000	-3.141	104837	-0.003	56.608	-3.468	-10.358	0.582	0.286	-0.073	-2.247	-0.910	1.423	-0.913	1.159	-0.039	0.130	1.021	0.202	-1.687	-0.386	0.473	0.192	
7.08754	0.03152	0.00038	482.493	141.277	-135.248	-2.749	-0.000	-3.141	105125	-0.210	56.221	-3.446	-9.832	0.504	0.052	-0.047	-2.290	-0.942	1.163	-0.890	1.114	-0.031	0.127	1.014	0.202	-1.710	-0.396	0.458	0.201	
1.22874	0.01073	0.00012	481.355	140.812	-135.234	-2.749	0.000	-3.141	105362	-0.285	56.211	-3.644	-9.617	0.571	0.139	-0.089	-2.337	-0.743	0.791	-0.789	1.076	-0.032	0.126	1.011	0.202	-1.718	-0.400	0.454	0.204	
5.15637	0.01671	0.00046	476.606	138.805	-135.281	-2.749	-0.000	-3.141	105624	-0.278	55.688	-3.477	-9.331	0.559	0.154	-0.092	-2.591	-0.871	1.412	-0.891	1.260	-0.048	0.124	1.007	0.202	-1.730	-0.406	0.446	0.210	
4.81036	0.02729	0.00053	472.161	136.967	-135.213	-2.749	0.000	-3.141	105906	-0.313	55.880	-3.566	-9.735	0.486	0.119	-0.061	-1.973	-0.806	1.251	-0.841	0.959	-0.044	0.121	1.001	0.202	-1.749	-0.415	0.434	0.219	
0.16439	0.00034	0.00042	472.301	137.051	-135.235	-2.749	-0.000	-3.141	106097	-0.527	55.758	-3.514	-9.580	0.193	-0.138	0.090	-1.177	-1.063	1.284	-0.883	0.411	-0.066	0.121	1.001	0.202	-1.749	-0.415	0.434	0.219	
2.22046	0.01008	0.00023	474.344	137.918	-135.300	-2.749	-0.000	-3.141	106379	-0.686	56.116	-3.681	-9.714	0.229	-0.093	0.041	-0.952	-1.311	1.210	-1.041	0.313	-0.084	0.122	1.004	0.202	-1.742	-0.411	0.439	0.215	
0.47280	0.00460	0.00043	474.776	138.108	-135.328	-2.749	-0.001	-3.141	106618	-0.581	55.777	-3.538	-9.733	0.230	-0.109	0.147	-1.079	-1.434	1.309	-1.130	0.402	-0.074	0.123	1.005	0.202	-1.739	-0.410	0.441	0.214	
0.02121	0.02833	0.04604	474.758	138.098	-135.322	-2.703	-0.001	-3.141	106884	-0.608	55.832	-3.587	-9.706	0.254	-0.069	0.236	-1.008	-1.396	1.243	-1.064	0.342	-0.027	0.123	1.005	0.202	-1.739	-0.410	0.441	0.186	
0.04278	0.17188	0.19162	474.799	138.102	-135.309	-2.511	-0.001	-3.141	107169	-0.629	55.789	-3.595	-9.687	0.210	-0.072	0.277	-0.690	-1.560	1.254	-1.114	0.124	-0.028	0.123	1.005	0.202	-1.739	-0.410	0.441	0.014	
0.04771	0.16793	0.14262	474.845	138.100	-135.296	-2.369	-0.001	3.142	107458	-0.622	55.797	-3.521	-9.734	0.240	-0.082	0.089	-0.551	-1.552	1.297	-1.075	0.031	-0.022	0.122	1.004	0.202	-1.739	-0.410	0.441	-0.154	
0.00996	0.02488	0.01269	474.854	138.099	-135.293	-2.356	-0.001	3.142	107730	0.559	55.147	-2.997	-8.626	0.378	-0.037	-0.014	-0.445	-1.941	0.988	-1.256	-0.011	-0.082	0.122	1.004	0.202	-1.739	-0.410	0.441	-0.179	
4.00011	0.01105	0.00029	472.079	135.219	-135.259	-2.356	-0.001	-3.141	107968	-0.035	55.335	-3.306	-9.807	0.589	0.262	-0.076	-1.973	-1.330	1.249	-1.074	0.810	-0.025	0.119	1.002	0.202	-1.747	-0.414	0.436	-0.177	
5.80980	0.02662	0.00055	467.998	131.084	-135.236	-2.356	-0.000	-3.141	108248	-0.266	55.262	-3.560	-9.252	0.381	0.092	-0.028	-1.325	-1.515	1.158	-1.140	0.491	-0.052	0.111	0.996	0.202	-1.765	-0.424	0.424	-0.174	
0.47868	0.00128	0.00035	467.617	130.797	-135.281	-2.356	-0.000	-3.142	108472	-0.156	54.914	-3.492	-8.863	0.526	0.195	-0.078	-1.680	-1.354	1.120	-1.103	0.744	-0.024	0.111	0.996	0.202	-1.766	-0.424	0.423	-0.173	
6.94709	0.02450	0.00037	462.773	125.817	-135.234	-2.356	-0.000	-3.141	108755	-0.657	54.948	-3.908	-8.917	0.474	0.220	-0.037	-2.052	-1.718	1.317	-1.318	0.843	-0.031	0.103	0.991	0.202	-1.783	-0.434	0.412	-0.170	
2.42973	0.01423	0.00018	461.066	124.089	-135.202	-2.356	-0.000	-3.141	109028	1.237	55.125	-2.657	-8.027	0.536	0.155	-0.073	-1.358	-1.717	1.276	-1.296	0.555	-0.044	0.098	0.988	0.202	-1.793	-0.439	0.406	-0.167	
3.96680	0.01044	0.00028	458.238	121.308	-135.262	-2.356	-0.000	-3.141	109256	-0.665	54.257	-3.497	-9.104	0.592	0.277	-0.111	-1.790	-1.715	1.165	-1.303	0.781	-0.033	0.095	0.986	0.202	-1.800	-0.444	0.401	-0.165	
6.24147	0.02691	0.00027	453.779	116.940	-135.250	-2.356	-0.000	-3.141	109534	-0.276	54.015	-3.416	-8.384	0.438	0.135	-0.092	-1.455	-1.841	0.974	-1.377	0.590	-0.081	0.086	0.980	0.202	-1.818	-0.455	0.390	-0.160	
0.17368	0.00194	0.00024	453.910	117.054	-135.236	-2.356	-0.000	-3.141	109718	-0.682	53.999	-3.436	-8.587	0.206	-0.109	0.016	-0.611	-1.723	1.403	-1.252	0.119	-0.106	0.086	0.980	0.202	-1.819	-0.456	0.389	-0.160	
1.79353	0.00703	0.00063	455.157	118.342	-135.265	-2.356	-0.001	-3.142	110004	-0.376	53.481	-3.219	-7.856	0.162	-0.243	0.072	-0.076	-2.000	0.979	-1.404	-0.214	-0.121	0.088	0.981	0.202	-1.814	-0.453	0.392	-0.161	
0.84646	0.00497	0.00027	455.701	118.989	-135.306	-2.356	-0.001	3.141	110272	-0.686	53.853	-3.402	-8.516	0.266	-0.050	0.076	-0.469	-2.072	0.998	-1.481	0.013	-0.095	0.089	0.982	0.202	-1.811	-0.451	0.394	-0.162	
0.03970	0.00750	0.01759	455.722	118.984	-135.272	-2.339	-0.001	3.142	110459	-0.721	53.943	-3.450	-8.615	0.372	-0.063	0.133	-0.377	-1.901	1.065	-1.340	-0.050	-0.018	0.089	0.982	0.202	-1.811	-0.451	0.394	-0.170	
0.01452	0.12437	0.15035	455.730	118.972	-135.270	-2.188	-0.001	3.141	110740	-0.751	53.960	-3.473	-8.603	0.435	-0.024	0.116	-0.106	-1.905	1.044	-1.286	-0.236	-0.006	0.089	0.982	0.202	-1.811	-0.451	0.394	-0.294	
0.04774	0.19800	0.18344	455.775	118.989	-135.268	-2.005	-0.001	3.141	111022	-0.721	53.939	-3.469	-8.618	0.288	-0.013	0.184	0.148	-1.889	1.023	-1.233	-0.401	-0.003	0.089	0.982	0.202	-1.811	-0.451	0.394	-0.492	
0.03270	0.06269	0.04122	455.803	118.991	-135.253	-1.964	-0.001	3.141	111310	-0.703	53.962	-3.463	-8.596	0.278	-0.012	0.131	0.178	-2.009	1.045	-1.299	-0.417	-0.032	0.089	0.982	0.202	-1.811	-0.451	0.394	-0.555	
1.36563	0.00126	0.00013	455.312	117.717	-135.238	-1.964	-0.001	3.141	111532	-0.655	53.636	-3.730	-8.248	0.469	0.196	0.150	-1.002	-1.496	1.375	-1.071	0.259	0.118	0.088	0.982	0.202	-1.812	-0.451	0.394	-0.555	
7.04761	0.02212	0.00044	452.696	111.173	-135.200	-1.963	-0.000	-3.141	111813	-0.137	53.509	-3.419	-8.357	0.396	0.107	0.120	-0.543	-1.883	1.046	-1.227	0.136	0.120	0.076	0.978	0.202	-1.825	-0.460	0.385	-0.558	
1.37182	0.00853	0.00031	452.175	109.904	-135.219	-1.963	-0.000	-3.141	112052	1.579	53.462	-2.415	-7.716	0.473	0.079	0.138	-0.485	-1.814	1.290	-1.148	0.025	0.039	0.071	0.977	0.202	-1.829	-0.463	0.382	-0.559	
3.91417	0.00828	0.00032	450.706	106.276	-135.216	-1.964	-0.000	-3.141	112282	0.027	53.063	-3.434	-7.969	0.534	0.213	0.140	-0.982	-2.085	1.010	-1.259	0.288	0.139	0.066	0.975	0.202	-1.834	-0.467	0.379	-0.560	
6.23470	0.02207	0.00004	448.270	100.537	-135.212	-1.964	-0.000	-3.141	112568	-0.301	52.950	-3.300	-8.138	0.506	0.152	0.111	-0.750	-1.732	0.819	-1.178	0.128	0.095	0.053	0.972	0.202	-1.846	-0.476	0.371	-0.563	
0.10915	0.00128	0.00022	448.192	100.578	-135.277	-1.963	-0.000	-3.142	112754	0.112	52.918	-3.199	-7.728	0.553	0.189	0.129	-0.988	-1.746	1.093	-1.170	0.296	0.137	0.052	0.972	0.202	-1.847	-0.476	0.371	-0.563	
3.40235	0.00845	0.00053	446.859	97.447	-135.254	-1.964	-0.001	3.141	113040	-0.843	52.676	-3.758	-8.008	0.545	0.215	0.135	-1.206	-1.709	1.343	-1.145	0.384	0.150	0.047	0.970	0.202	-1.852	-0.480	0.368	-0.564	
1.65388	0.00723	0.00025	446.271	95.902	-135.247	-1.964	-0.000	3.142	113321	-0.313	52.875	-3.390	-7.915	0.433	0.182	0.129	-0.793	-1.766	0.879	-1.190	0.170	0.073	0.042	0.969	0.202	-1.856	-0.483	0.366	-0.565	
0.06928	0.00558	0.01421	446.338	95.917	-135.241	-1.949	-0.000	-3.142	113519	-0.265	53.043	-3.386	-7.898	0.477	0.167	0.161	-0.711	-1.777	1.169	-1.142	0.126	0.109	0.042	0.969	0.202	-1.855	-0.483	0.365	-0.571	
0.03775	0.11428	0.13903	446.351	95.952	-135.241	-1.810	-0.000	-3.142	113796	-0.202	53.000	-3.411	-7.921	0.467	0.147	0.208	-0.437	-1.758	1.294	-1.050	-0.067	0.115	0.042	0.969	0.202	-1.855	-0.483	0.365	-0.685	
0.00154	0.19870	0.18802	446.352	95.952	-135.241	-1.622	-0.000	3.142	114072	-0.266	53.017	-3.404	-7.937	0.454	0.136	0.165	-0.136	-1.799	1.282	-1.028	-0.235	0.113	0.042	0.969	0.202	-1.855	-0.483	0.365	-0.884	
0.00089	0.07408	0.05179	446.353	95.952	-135.241	-1.571	-0.000	3.142	114348	-0.285	53.017	-3.374	-7.905	0.435	0.146	0.064	0.014	-1.952	1.177	-1.115	-0.316	0.049	0.042	0.969	0.202	-1.855	-0.483	0.365	-0.958	
0.41632	0.00037	0.00044	446.326	95.537	-135.262	-1.571	-0.000	3.141	114562	-0.173	52.837	-3.514	-8.011	0.519	0.250	0.169	-0.612	-2.002	1.391	-1.105	0.027	0.159	0.042	0.969	0.202	-1.855	-0.483	0.365	-0.958	
6.80812	0.01743	0.00037	446.351	88.729	-135.238	-1.571	-0.000	-3.142	114839	-1.487	53.408	-4.184	-8.198	0.514	0.256	0.122	-0.668	-2.015	1.495	-1.105	0.034	0.151	0.029	0.968	0.202	-1.859	-0.485	0.363	-0.968	
2.72231	0.01138	0.00028	446.384	86.007	-135.216	-1.570	-0.000	-3.141	115116	-0.030	52.625	-3.247	-7.639	0.446	0.093	0.082	0.045	-2.028	1.292	-1.118	-0.380	0.053	0.020	0.967	0.202	-1.861	-0.488	0.361	-0.975	
2.39403	0.00321	0.00039	446.362	83.614	-135.247	-1.571	-0.000	3.142	115315	-0.009	52.824	-3.404	-7.642	0.494	0.200	0.159	-0.601	-1.840	1.590	-1.055	0.015	0.157	0.018	0.967	0.202	-1.862	-0.488	0.361	-0.977	
6.90111	0.02041	0.00013	446.306	76.713	-135.243	-1.571	-0.000	3.141	115592	-0.386	52.853	-3.483	-7.963	0.436	0.199	0.098	-0.252	-2.002	1.228	-1.109	-0.141	0.115	0.002	0.966	0.202	-1.866	-0.491	0.359	-0.989	
