arturo-sol653/Programmierung-und-Regelung-fuer-Mensch-Roboterinteraktion/Robot Programming/iiwa-exercises/logs/log_wireloop_record_small_2.log
TRANS_DIST	JS_DIST	ROT_DIST	X	Y	Z	A	B	C	TIME	MT0	MT1	MT2	MT3	MT4	MT5	MT6	FX	FY	FZ	TA	TB	TC	J0	J1	J2	J3	J4	J5	J6	
0.00000	0.00000	0.00000	449.413	69.923	-135.124	-1.571	0.000	-3.141	1	0.214	52.638	-6.291	-7.604	0.531	0.129	-0.038	-0.304	-1.900	0.675	-1.213	-0.174	-0.018	-0.143	0.998	0.355	-1.861	-0.781	0.427	-0.781	
0.00286	0.00001	0.00001	449.415	69.925	-135.124	-1.571	0.000	-3.141	217	-0.063	52.638	-6.483	-7.633	0.529	0.131	-0.034	-0.157	-1.810	0.652	-1.184	-0.232	-0.018	-0.143	0.998	0.355	-1.861	-0.781	0.427	-0.781	
0.00190	0.00001	0.00000	449.417	69.926	-135.124	-1.571	0.000	-3.141	498	-0.030	52.462	-6.407	-7.534	0.526	0.128	-0.033	-0.187	-1.835	0.503	-1.184	-0.219	-0.016	-0.143	0.998	0.355	-1.861	-0.781	0.427	-0.781	
0.00098	0.00000	0.00000	449.417	69.927	-135.124	-1.571	0.000	-3.141	737	0.936	52.691	-6.050	-7.632	0.615	0.163	0.120	-0.836	-1.623	0.862	-0.981	0.143	0.054	-0.143	0.998	0.355	-1.861	-0.781	0.427	-0.781	
4.92367	0.01086	0.00011	449.445	65.004	-135.048	-1.571	0.000	-3.141	1001	0.437	52.591	-6.138	-7.105	0.595	0.110	0.131	-0.962	-1.912	1.096	-1.102	0.187	0.158	-0.151	0.997	0.355	-1.863	-0.783	0.426	-0.788	
5.17598	0.01823	0.00032	449.326	59.830	-135.113	-1.571	-0.000	3.142	1283	-0.121	52.637	-6.453	-7.491	0.529	0.137	0.104	-0.409	-1.974	0.996	-1.192	-0.132	0.081	-0.165	0.996	0.355	-1.865	-0.785	0.425	-0.798	
0.05573	0.00017	0.00011	449.372	59.861	-135.106	-1.571	-0.000	-3.142	1563	0.117	52.605	-6.335	-7.443	0.540	0.126	0.105	-0.511	-1.962	1.153	-1.148	-0.066	0.085	-0.165	0.996	0.355	-1.865	-0.785	0.425	-0.799	
2.29942	0.00316	0.00018	449.339	57.563	-135.152	-1.571	0.000	3.142	1752	0.386	52.816	-6.350	-7.903	0.652	0.198	0.131	-0.657	-2.077	1.202	-1.207	0.019	0.144	-0.167	0.996	0.355	-1.866	-0.786	0.425	-0.801	
7.04927	0.02082	0.00010	449.371	50.514	-135.117	-1.571	-0.000	-3.142	2035	-0.191	52.345	-6.449	-7.304	0.552	0.143	0.104	-0.767	-1.855	1.149	-1.094	0.070	0.127	-0.184	0.996	0.355	-1.868	-0.789	0.423	-0.813	
0.60793	0.00517	0.00022	449.454	49.912	-135.097	-1.571	0.000	-3.141	2316	0.008	52.518	-6.405	-7.451	0.543	0.130	0.099	-0.553	-1.945	1.127	-1.124	-0.045	0.094	-0.187	0.995	0.355	-1.869	-0.789	0.423	-0.816	
0.30107	0.00008	0.00010	449.408	49.614	-135.110	-1.571	0.000	-3.141	2553	-0.027	52.537	-6.572	-7.353	0.627	0.171	0.133	-0.502	-2.022	1.327	-1.151	-0.012	0.153	-0.187	0.995	0.355	-1.869	-0.789	0.423	-0.816	
6.94654	0.01801	0.00007	449.358	42.668	-135.140	-1.571	0.000	-3.141	2835	-1.550	52.426	-7.321	-6.992	0.573	0.187	0.127	-0.991	-2.074	1.479	-1.107	0.212	0.172	-0.201	0.995	0.355	-1.871	-0.791	0.422	-0.828	
2.72536	0.01160	0.00017	449.385	39.943	-135.112	-1.571	0.000	-3.141	3118	-0.112	52.383	-6.479	-7.266	0.560	0.133	0.092	-0.461	-1.996	0.994	-1.136	-0.073	0.104	-0.210	0.995	0.355	-1.872	-0.792	0.421	-0.835	
0.03178	0.00008	0.00006	449.381	39.912	-135.114	-1.571	0.000	-3.141	3342	0.481	52.396	-6.248	-7.171	0.598	0.120	0.138	-1.016	-1.848	1.358	-0.983	0.231	0.139	-0.210	0.995	0.355	-1.872	-0.792	0.421	-0.835	
4.87412	0.01068	0.00040	449.289	35.038	-135.123	-1.571	-0.000	3.141	3601	0.544	52.412	-6.301	-7.347	0.617	0.162	0.146	-1.256	-1.956	1.438	-1.038	0.316	0.180	-0.218	0.994	0.355	-1.873	-0.793	0.421	-0.842	
5.16953	0.01921	0.00039	449.447	29.871	-135.108	-1.571	0.000	-3.141	3885	0.065	52.470	-6.425	-7.351	0.552	0.073	0.092	-0.696	-1.805	1.281	-0.985	0.021	0.113	-0.232	0.994	0.355	-1.874	-0.795	0.420	-0.855	
0.04373	0.00029	0.00009	449.444	29.915	-135.105	-1.571	0.000	-3.141	4166	0.427	52.381	-6.237	-7.319	0.554	0.075	0.112	-0.675	-1.824	1.327	-0.973	0.029	0.109	-0.232	0.994	0.355	-1.874	-0.795	0.420	-0.855	
2.68780	0.00421	0.00043	449.323	27.230	-135.150	-1.571	-0.000	3.142	4415	0.323	52.090	-6.375	-7.084	0.591	0.153	0.150	-1.070	-1.949	1.550	-0.990	0.299	0.185	-0.235	0.994	0.355	-1.874	-0.795	0.420	-0.858	
6.88657	0.02139	0.00023	449.371	20.344	-135.135	-1.571	-0.000	3.142	4696	0.112	52.262	-6.386	-7.199	0.555	0.136	0.112	-1.240	-1.866	1.381	-0.960	0.343	0.166	-0.251	0.994	0.355	-1.875	-0.796	0.419	-0.872	
0.46449	0.00468	0.00009	449.329	19.881	-135.137	-1.571	-0.000	3.142	4976	0.160	52.360	-6.399	-7.247	0.542	0.132	0.107	-0.875	-1.887	1.339	-0.994	0.171	0.132	-0.255	0.994	0.355	-1.876	-0.796	0.419	-0.875	
0.20890	0.00007	0.00013	449.334	19.672	-135.134	-1.571	-0.000	3.142	5210	0.316	52.381	-6.472	-7.231	0.597	0.166	0.142	-1.303	-1.664	1.573	-0.831	0.447	0.193	-0.255	0.994	0.355	-1.876	-0.796	0.419	-0.875	
6.97436	0.01806	0.00016	449.327	12.698	-135.123	-1.571	-0.000	3.141	5493	-1.339	52.271	-7.358	-7.053	0.584	0.212	0.142	-1.581	-1.829	1.672	-0.882	0.554	0.209	-0.268	0.994	0.355	-1.876	-0.797	0.419	-0.887	
2.77833	0.01271	0.00031	449.337	9.920	-135.117	-1.571	0.000	-3.142	5774	0.327	52.348	-6.362	-7.232	0.557	0.132	0.097	-0.916	-1.893	1.323	-0.996	0.190	0.137	-0.277	0.993	0.355	-1.877	-0.797	0.419	-0.896	
0.02908	0.00007	0.00004	449.352	9.895	-135.116	-1.571	0.000	-3.142	6018	0.393	52.317	-6.459	-7.184	0.548	0.145	0.148	-1.641	-1.604	1.655	-0.763	0.608	0.190	-0.277	0.993	0.355	-1.877	-0.798	0.419	-0.896	
5.14346	0.01235	0.00026	449.381	4.752	-135.131	-1.571	0.000	-3.142	6291	0.333	52.255	-6.388	-7.245	0.556	0.140	0.153	-0.855	-1.795	1.448	-0.874	0.298	0.193	-0.286	0.993	0.355	-1.877	-0.798	0.418	-0.905	
4.85516	0.01894	0.00022	449.308	-0.103	-135.147	-1.571	0.000	3.142	6574	0.348	52.012	-6.338	-7.104	0.535	0.123	0.098	-0.891	-1.860	1.114	-0.958	0.190	0.131	-0.299	0.993	0.355	-1.877	-0.798	0.418	-0.918	
0.01002	0.00011	0.00003	449.317	-0.101	-135.144	-1.571	0.000	3.142	6856	0.481	52.338	-6.287	-7.205	0.538	0.126	0.103	-0.909	-1.911	1.474	-0.963	0.214	0.130	-0.299	0.993	0.355	-1.877	-0.798	0.418	-0.918	
2.42243	0.00366	0.00000	449.313	-2.523	-135.144	-1.571	0.000	3.142	7046	0.149	52.221	-6.517	-7.273	0.443	0.097	0.154	-1.339	-1.488	1.565	-0.649	0.546	0.193	-0.302	0.993	0.355	-1.877	-0.798	0.418	-0.921	
6.91554	0.02233	0.00029	449.419	-9.438	-135.110	-1.571	0.000	-3.141	7325	0.453	52.357	-6.300	-7.284	0.405	0.042	0.076	-1.353	-1.196	1.763	-0.451	0.566	0.119	-0.318	0.993	0.355	-1.877	-0.798	0.418	-0.937	
0.62676	0.00568	0.00028	449.389	-10.064	-135.124	-1.571	0.000	-3.141	7609	0.255	52.294	-6.406	-7.305	0.453	0.050	0.072	-0.948	-1.456	1.558	-0.665	0.272	0.101	-0.321	0.993	0.355	-1.877	-0.797	0.418	-0.941	
0.32713	0.00007	0.00002	449.385	-10.391	-135.124	-1.571	0.000	-3.141	7846	0.491	52.348	-6.371	-7.283	0.292	0.004	0.138	-1.158	-1.065	1.756	-0.397	0.508	0.154	-0.322	0.993	0.355	-1.877	-0.797	0.418	-0.941	
6.98458	0.01945	0.00023	449.332	-17.375	-135.122	-1.571	0.000	3.142	8128	-1.014	52.330	-7.208	-7.081	0.231	0.026	0.139	-2.238	-0.734	2.231	-0.074	1.064	0.145	-0.335	0.994	0.355	-1.876	-0.797	0.419	-0.955	
2.68887	0.01270	0.00014	449.427	-20.062	-135.114	-1.571	0.000	-3.141	8410	0.329	52.236	-6.433	-7.344	0.269	-0.000	0.089	-1.119	-0.909	1.653	-0.299	0.468	0.066	-0.344	0.994	0.355	-1.875	-0.796	0.419	-0.964	
0.04271	0.00009	0.00009	449.415	-20.103	-135.120	-1.571	0.000	-3.142	8634	0.949	52.328	-6.121	-7.349	0.258	-0.036	0.149	-1.705	-0.814	1.944	-0.180	0.809	0.120	-0.344	0.994	0.355	-1.876	-0.796	0.419	-0.964	
4.94792	0.01220	0.00006	449.346	-25.050	-135.150	-1.571	0.000	-3.142	8897	1.016	52.156	-6.083	-7.486	0.223	-0.080	0.147	-1.585	-0.408	1.901	0.054	0.861	0.129	-0.352	0.994	0.355	-1.875	-0.796	0.419	-0.973	
5.12159	0.02045	0.00027	449.298	-30.171	-135.134	-1.571	-0.000	3.141	9178	0.461	52.211	-6.385	-7.362	0.248	-0.002	0.109	-1.109	-0.775	1.534	-0.232	0.504	0.080	-0.366	0.994	0.355	-1.874	-0.795	0.420	-0.988	
0.03303	0.00012	0.00011	449.313	-30.142	-135.138	-1.571	-0.000	3.141	9460	0.774	52.240	-6.220	-7.444	0.256	-0.009	0.109	-1.136	-0.836	1.677	-0.246	0.519	0.082	-0.366	0.994	0.355	-1.874	-0.795	0.420	-0.988	
2.35623	0.00386	0.00024	449.348	-32.498	-135.120	-1.571	0.000	-3.142	9662	0.655	52.200	-6.506	-7.397	0.204	-0.059	0.126	-1.976	-0.519	2.123	0.072	1.022	0.127	-0.368	0.994	0.355	-1.874	-0.794	0.420	-0.991	
6.87994	0.02358	0.00006	449.361	-39.378	-135.151	-1.571	0.000	-3.142	9944	0.410	52.367	-6.458	-7.471	0.243	-0.060	0.081	-1.557	-0.398	1.839	0.076	0.834	0.104	-0.384	0.995	0.355	-1.872	-0.793	0.421	-1.009	
0.69296	0.00562	0.00006	449.394	-40.070	-135.145	-1.571	0.000	-3.142	10214	0.423	52.242	-6.412	-7.415	0.246	-0.067	0.072	-1.300	-0.615	1.749	-0.070	0.643	0.080	-0.387	0.995	0.355	-1.872	-0.792	0.421	-1.013	
0.19265	0.00009	0.00006	449.394	-40.263	-135.142	-1.571	0.000	-3.142	10442	0.669	52.403	-6.370	-7.434	0.197	-0.104	0.135	-1.087	-0.308	1.874	0.115	0.708	0.116	-0.387	0.995	0.355	-1.872	-0.792	0.421	-1.013	
6.83277	0.01928	0.00032	449.252	-47.094	-135.136	-1.571	-0.000	3.141	10720	-1.342	51.879	-7.425	-6.827	0.147	-0.066	0.106	-1.664	-0.248	1.929	0.194	0.987	0.134	-0.400	0.995	0.355	-1.870	-0.790	0.422	-1.027	
2.93688	0.01431	0.00028	449.331	-50.030	-135.156	-1.571	0.000	3.142	11001	0.485	52.278	-6.434	-7.417	0.239	-0.072	0.077	-1.273	-0.705	1.750	-0.095	0.635	0.081	-0.409	0.996	0.355	-1.869	-0.789	0.423	-1.038	
0.05172	0.00009	0.00008	449.288	-50.058	-135.162	-1.571	0.000	3.142	11239	1.108	52.236	-6.157	-7.279	0.172	-0.116	0.126	-2.093	-0.566	2.140	0.048	1.093	0.130	-0.409	0.996	0.355	-1.869	-0.789	0.423	-1.038	
4.91267	0.01280	0.00012	449.354	-54.970	-135.160	-1.571	0.000	-3.142	11501	0.678	52.302	-6.445	-7.586	0.173	-0.083	0.121	-1.851	-0.427	2.164	0.164	1.084	0.133	-0.417	0.996	0.355	-1.867	-0.788	0.424	-1.048	
5.17523	0.02122	0.00022	449.316	-60.145	-135.149	-1.571	-0.000	3.141	11784	0.483	52.453	-6.462	-7.523	0.210	-0.074	0.057	-1.193	-0.657	1.756	-0.074	0.616	0.056	-0.431	0.997	0.355	-1.865	-0.785	0.425	-1.064	
0.05827	0.00025	0.00010	449.263	-60.121	-135.157	-1.571	-0.000	3.141	12066	0.749	52.408	-6.326	-7.536	0.219	-0.074	0.072	-1.391	-0.716	1.886	-0.078	0.740	0.068	-0.431	0.997	0.355	-1.865	-0.785	0.425	-1.064	
2.41656	0.00406	0.00048	449.454	-62.529	-135.101	-1.571	0.000	-3.141	12254	0.714	52.436	-6.354	-7.488	0.161	-0.099	0.116	-2.397	-0.419	2.274	0.198	1.351	0.139	-0.433	0.997	0.355	-1.865	-0.785	0.425	-1.067	
6.97552	0.02462	0.00042	449.258	-69.502	-135.153	-1.571	0.000	3.141	12538	0.419	52.697	-6.532	-7.494	0.206	-0.066	0.088	-1.779	-0.661	2.186	0.004	0.976	0.109	-0.448	0.997	0.355	-1.862	-0.782	0.427	-1.086	
0.57765	0.00583	0.00005	449.244	-70.079	-135.165	-1.571	0.000	3.141	12845	0.565	52.540	-6.393	-7.570	0.223	-0.067	0.067	-1.368	-0.754	1.898	-0.092	0.754	0.079	-0.452	0.998	0.355	-1.861	-0.781	0.427	-1.091	
0.35329	0.00006	0.00015	449.299	-70.428	-135.147	-1.571	0.000	3.141	13103	1.355	52.520	-5.612	-7.554	0.235	-0.420	0.116	-1.948	-0.479	2.011	0.127	1.156	0.134	-0.452	0.998	0.355	-1.861	-0.781	0.427	-1.091	
5.00222	0.01969	0.00097	449.771	-75.407	-135.043	-1.570	0.000	-3.141	13383	3.988	50.731	-1.944	-4.703	0.327	-2.304	-0.121	-6.291	-5.887	1.056	-0.318	1.059	-0.068	-0.463	0.998	0.355	-1.858	-0.778	0.428	-1.106	
0.41664	0.00056	0.00072	449.426	-75.621	-135.139	-1.571	0.000	-3.141	13587	0.827	51.602	-4.747	-6.137	0.458	-0.987	-0.147	-4.673	-7.274	0.417	-0.837	0.094	-0.180	-0.463	0.998	0.355	-1.858	-0.778	0.429	-1.106	
3.06836	0.00963	0.00073	449.068	-72.574	-135.199	-1.571	-0.000	3.141	13869	0.929	52.693	-5.953	-7.687	0.534	0.057	-0.073	0.822	-2.109	0.801	-1.130	-0.827	-0.069	-0.458	0.998	0.354	-1.860	-0.780	0.428	-1.098	
1.92990	0.00800	0.00072	449.376	-70.670	-135.133	-1.571	0.000	-3.141	14148	-0.090	52.657	-6.478	-7.517	0.449	0.055	-0.049	0.358	-1.884	1.060	-0.952	-0.494	-0.041	-0.453	0.998	0.355	-1.861	-0.781	0.427	-1.092	
0.01807	0.00009	0.00006	449.380	-70.654	-135.126	-1.571	0.000	-3.141	14365	0.032	52.619	-6.443	-7.513	0.444	0.056	0.078	0.340	-1.828	1.018	-0.930	-0.490	-0.034	-0.453	0.998	0.355	-1.861	-0.781	0.427	-1.092	
0.00766	0.01959	0.03430	449.383	-70.660	-135.122	-1.536	0.000	-3.141	14588	0.067	52.606	-6.445	-7.517	0.482	0.025	0.142	0.070	-1.599	1.239	-0.727	-0.276	0.096	-0.453	0.998	0.355	-1.861	-0.781	0.427	-1.112	
0.00447	0.15334	0.17573	449.386	-70.660	-135.119	-1.361	0.000	-3.141	14869	-0.017	52.642	-6.436	-7.490	0.432	0.010	0.141	0.308	-1.520	1.220	-0.634	-0.374	0.126	-0.453	0.998	0.355	-1.861	-0.781	0.427	-1.265	
0.01363	0.18099	0.15946	449.395	-70.670	-135.116	-1.201	0.000	-3.141	15149	0.040	52.645	-6.439	-7.544	0.508	0.046	0.156	0.491	-1.530	1.215	-0.609	-0.465	0.142	-0.453	0.998	0.355	-1.861	-0.781	0.427	-1.446	
0.00509	0.03864	0.02319	449.398	-70.674	-135.114	-1.178	-0.000	-3.141	15429	0.043	52.704	-6.436	-7.545	0.508	0.049	0.090	0.683	-1.575	1.191	-0.640	-0.593	0.081	-0.453	0.998	0.355	-1.861	-0.781	0.427	-1.485	
0.00253	0.00001	0.00000	449.400	-70.675	-135.113	-1.178	-0.000	-3.141	15668	2.112	52.299	-5.289	-7.921	0.340	-0.097	0.161	0.813	-1.464	1.129	-0.604	-0.627	0.087	-0.453	0.998	0.355	-1.861	-0.781	0.427	-1.485	
4.09856	0.01344	0.00021	450.945	-74.471	-135.105	-1.178	-0.000	-3.142	15902	0.487	53.076	-6.651	-7.959	0.182	-0.098	0.180	-1.750	-1.119	2.237	-0.257	1.201	0.165	-0.458	0.999	0.355	-1.856	-0.776	0.430	-1.495	
5.97673	0.03140	0.00017	453.160	-80.022	-135.160	-1.178	-0.000	3.142	16184	0.704	52.891	-6.407	-7.777	0.221	-0.041	0.102	-0.878	-1.337	2.165	-0.418	0.654	0.101	-0.469	1.002	0.355	-1.845	-0.765	0.436	-1.519	
0.09234	0.00108	0.00012	453.098	-79.963	-135.125	-1.178	0.000	3.141	16465	0.930	53.019	-6.370	-8.111	0.238	-0.042	0.138	-0.992	-1.437	2.102	-0.461	0.729	0.110	-0.469	1.002	0.355	-1.845	-0.765	0.436	-1.520	
2.83238	0.00718	0.00023	454.265	-82.544	-135.139	-1.178	0.000	-3.142	16715	1.211	53.407	-6.355	-7.940	0.159	-0.165	0.170	-1.924	-1.159	2.343	-0.273	1.307	0.180	-0.472	1.003	0.355	-1.842	-0.763	0.437	-1.525	
6.97329	0.03246	0.00012	456.949	-88.980	-135.112	-1.178	-0.000	-3.142	16999	0.514	53.462	-6.664	-8.074	0.244	-0.037	0.131	-1.359	-1.371	1.776	-0.432	0.964	0.153	-0.483	1.006	0.355	-1.831	-0.752	0.444	-1.550	
0.20816	0.00574	0.00015	456.974	-89.186	-135.123	-1.178	-0.000	3.142	17283	0.679	53.360	-6.468	-8.117	0.254	-0.038	0.123	-1.125	-1.499	2.092	-0.493	0.810	0.138	-0.485	1.007	0.355	-1.829	-0.750	0.445	-1.554	
1.70313	0.00231	0.00024	457.690	-90.731	-135.076	-1.178	-0.000	-3.142	17486	5.091	53.609	-1.961	-6.812	0.591	-1.743	-0.070	-7.708	-5.826	2.513	-0.804	2.508	0.154	-0.486	1.007	0.355	-1.828	-0.749	0.445	-1.556	
2.36600	0.01622	0.00017	458.708	-92.867	-135.078	-1.178	-0.000	-3.141	17746	5.439	52.485	0.136	-5.989	0.822	-2.654	-0.164	-7.058	-10.841	1.790	-1.141	1.079	-0.050	-0.492	1.009	0.355	-1.821	-0.744	0.449	-1.568	
1.36009	0.00416	0.00088	457.740	-91.921	-135.212	-1.178	-0.000	3.141	18003	-0.226	53.720	-6.603	-7.922	0.524	0.127	-0.041	0.264	-4.415	0.684	-0.903	-1.108	-0.105	-0.490	1.008	0.354	-1.823	-0.745	0.448	-1.565	
3.56001	0.01606	0.00034	456.551	-88.566	-135.159	-1.178	-0.000	3.141	18284	0.022	53.402	-6.470	-7.937	0.451	0.101	-0.014	1.218	-1.725	1.523	-0.729	-0.903	-0.027	-0.485	1.006	0.354	-1.829	-0.750	0.445	-1.553	
0.28918	0.00231	0.00041	456.783	-88.404	-135.098	-1.178	-0.000	-3.141	18533	0.069	53.492	-6.501	-8.009	0.452	0.096	-0.014	1.074	-1.637	1.530	-0.687	-0.799	-0.025	-0.484	1.006	0.355	-1.830	-0.751	0.444	-1.551	
0.01272	0.00150	0.00706	456.771	-88.407	-135.100	-1.171	-0.000	-3.141	18721	-0.036	53.422	-6.564	-8.017	0.401	0.084	0.229	0.574	-1.583	1.402	-0.628	-0.447	0.114	-0.484	1.006	0.355	-1.830	-0.751	0.444	-1.553	
0.01375	0.09813	0.12266	456.778	-88.396	-135.101	-1.048	-0.000	-3.141	19000	0.105	53.529	-6.509	-7.970	0.431	0.070	0.080	0.840	-1.452	1.511	-0.504	-0.535	0.130	-0.484	1.006	0.355	-1.830	-0.751	0.444	-1.651	
0.01302	0.20343	0.19942	456.785	-88.384	-135.101	-0.849	-0.000	-3.141	19283	0.055	53.571	-6.514	-8.009	0.503	0.089	0.180	1.070	-1.294	1.531	-0.407	-0.625	0.134	-0.484	1.006	0.355	-1.830	-0.751	0.444	-1.855	
0.00842	0.08880	0.06358	456.790	-88.378	-135.102	-0.785	-0.000	-3.141	19564	0.039	53.516	-6.533	-8.017	0.479	0.096	0.101	1.304	-1.239	1.394	-0.372	-0.780	0.075	-0.484	1.006	0.355	-1.830	-0.751	0.444	-1.943	
0.00356	0.00075	0.00004	456.792	-88.375	-135.102	-0.785	-0.000	-3.141	19845	0.354	53.583	-6.397	-8.209	0.482	0.079	0.136	1.313	-1.242	1.382	-0.376	-0.778	0.073	-0.484	1.006	0.355	-1.830	-0.751	0.444	-1.944	
2.75077	0.00820	0.00027	458.681	-90.375	-135.087	-0.786	-0.000	3.142	20048	0.520	53.511	-6.657	-8.121	0.178	-0.148	0.150	-0.877	-1.514	1.690	-0.614	0.842	0.172	-0.485	1.007	0.355	-1.826	-0.748	0.447	-1.950	
6.83618	0.03683	0.00022	463.560	-95.163	-135.128	-0.785	-0.000	-3.141	20328	0.518	53.625	-6.636	-8.428	0.247	-0.052	0.115	-0.990	-1.949	1.619	-0.839	0.880	0.159	-0.491	1.012	0.355	-1.808	-0.732	0.456	-1.975	
0.33615	0.00728	0.00023	463.730	-95.453	-135.125	-0.785	-0.000	3.142	20614	0.667	53.802	-6.598	-8.441	0.256	-0.052	0.113	-0.548	-1.716	1.769	-0.726	0.640	0.139	-0.492	1.013	0.355	-1.805	-0.729	0.458	-1.980	
1.38865	0.00126	0.00025	464.736	-96.408	-135.067	-0.785	-0.000	3.142	20844	1.089	53.993	-6.484	-8.455	0.159	-0.178	0.167	-1.008	-1.684	1.943	-0.734	1.007	0.172	-0.493	1.014	0.355	-1.804	-0.728	0.458	-1.981	
7.12805	0.03590	0.00024	469.770	-101.454	-135.140	-0.785	-0.000	-3.142	21126	0.937	54.492	-6.311	-8.842	0.253	-0.061	0.119	-0.518	-1.855	2.150	-0.796	0.820	0.164	-0.498	1.019	0.355	-1.786	-0.714	0.469	-2.005	
1.42696	0.01373	0.00021	470.749	-102.492	-135.150	-0.785	0.000	3.141	21366	0.708	54.496	-6.678	-8.807	0.249	-0.061	0.108	-0.301	-1.785	2.075	-0.739	0.531	0.125	-0.500	1.021	0.355	-1.779	-0.708	0.473	-2.014	
0.04392	0.00002	0.00006	470.759	-102.535	-135.147	-0.785	0.000	3.141	21594	0.764	54.466	-6.833	-9.139	0.211	-0.059	0.161	-0.837	-2.196	2.373	-0.930	0.980	0.178	-0.500	1.021	0.355	-1.779	-0.708	0.473	-2.014	
6.26158	0.02522	0.00035	475.311	-106.834	-135.122	-0.785	-0.000	-3.141	21879	5.205	55.527	-1.201	-9.246	1.136	-1.446	-0.115	-4.315	-7.845	1.926	-1.392	0.990	0.050	-0.504	1.025	0.355	-1.766	-0.698	0.480	-2.031	
1.14493	0.01144	0.00028	476.057	-107.702	-135.116	-0.785	-0.000	3.142	22109	4.468	55.367	-1.553	-8.282	1.117	-1.624	-0.153	-5.485	-10.965	1.277	-1.418	0.814	-0.027	-0.506	1.027	0.355	-1.760	-0.694	0.484	-2.038	
2.00627	0.00778	0.00104	474.324	-106.694	-135.171	-0.786	-0.000	3.141	22393	0.004	55.203	-6.637	-8.892	0.553	0.115	-0.026	1.406	-2.199	1.421	-0.391	-1.037	-0.032	-0.505	1.025	0.354	-1.764	-0.697	0.481	-2.033	
2.95834	0.01691	0.00080	472.580	-104.306	-135.105	-0.785	-0.000	-3.141	22676	0.169	54.961	-6.636	-8.875	0.431	0.036	0.004	1.435	-1.177	1.541	-0.293	-0.783	0.004	-0.502	1.023	0.354	-1.773	-0.703	0.476	-2.022	
0.12663	0.00034	0.00021	472.675	-104.223	-135.114	-0.786	-0.000	-3.141	22924	0.169	54.864	-6.661	-8.798	0.415	0.034	0.021	1.237	-1.233	1.589	-0.346	-0.618	0.005	-0.502	1.023	0.355	-1.773	-0.703	0.476	-2.022	
0.00439	0.00696	0.01664	472.671	-104.222	-135.117	-0.769	-0.000	-3.141	23159	0.133	54.931	-6.646	-8.902	0.418	0.055	0.146	0.970	-1.356	1.646	-0.430	-0.419	0.117	-0.502	1.023	0.355	-1.773	-0.703	0.476	-2.029	
0.02534	0.12489	0.14780	472.647	-104.225	-135.125	-0.621	-0.000	-3.141	23439	0.122	54.894	-6.649	-8.858	0.524	0.050	0.138	1.376	-1.049	1.542	-0.250	-0.622	0.114	-0.502	1.023	0.355	-1.773	-0.703	0.476	-2.154	
0.01517	0.19526	0.18505	472.634	-104.226	-135.131	-0.436	-0.000	-3.142	23718	0.137	54.952	-6.648	-8.848	0.498	0.050	0.128	1.558	-0.801	1.497	-0.123	-0.680	0.116	-0.502	1.023	0.355	-1.773	-0.704	0.476	-2.349	
0.01064	0.06520	0.04328	472.623	-104.226	-135.134	-0.393	-0.000	-3.142	24001	0.148	54.833	-6.671	-8.819	0.503	0.057	0.072	1.669	-0.810	1.480	-0.124	-0.717	0.081	-0.502	1.023	0.355	-1.773	-0.704	0.476	-2.414	
0.00686	0.00003	0.00003	472.617	-104.226	-135.136	-0.393	-0.000	-3.142	24268	0.558	54.278	-6.399	-9.689	0.318	-0.008	0.105	1.623	-0.860	1.450	-0.135	-0.690	0.079	-0.502	1.023	0.355	-1.773	-0.704	0.476	-2.414	
4.02728	0.01506	0.00018	476.336	-105.769	-135.155	-0.393	-0.000	3.142	24517	0.095	55.286	-6.726	-9.264	0.194	-0.137	0.102	0.468	-0.417	1.237	-0.077	0.009	0.023	-0.502	1.026	0.355	-1.764	-0.697	0.481	-2.423	
5.96810	0.03496	0.00021	481.834	-108.093	-135.127	-0.393	-0.000	3.141	24798	0.085	55.600	-6.797	-9.400	0.281	-0.054	0.055	0.769	-0.166	1.100	0.040	-0.185	0.001	-0.501	1.032	0.355	-1.743	-0.682	0.493	-2.442	
0.18275	0.00138	0.00028	481.666	-108.025	-135.154	-0.393	0.000	3.141	25078	0.220	55.668	-6.700	-9.835	0.298	-0.052	0.074	0.909	-0.397	1.043	-0.053	-0.232	0.002	-0.501	1.032	0.355	-1.742	-0.681	0.493	-2.443	
2.85444	0.00751	0.00022	484.301	-109.123	-135.103	-0.393	-0.000	3.141	25312	-0.005	55.882	-6.914	-9.730	0.190	-0.095	0.104	0.790	-0.345	1.151	-0.001	-0.084	0.003	-0.501	1.033	0.355	-1.738	-0.678	0.496	-2.447	
6.93794	0.03491	0.00024	490.732	-111.725	-135.115	-0.393	-0.000	-3.142	25593	-0.157	56.262	-6.958	-9.955	0.254	-0.029	0.091	0.729	-0.490	1.020	-0.104	-0.143	0.008	-0.501	1.040	0.355	-1.716	-0.663	0.508	-2.465	
0.24103	0.00762	0.00035	490.931	-111.858	-135.138	-0.393	0.000	3.141	25875	0.034	56.207	-6.830	-9.711	0.251	-0.038	0.085	1.096	-0.478	1.396	-0.065	-0.307	0.004	-0.501	1.042	0.355	-1.711	-0.660	0.511	-2.469	
0.61145	0.00006	0.00056	491.501	-112.067	-135.058	-0.393	-0.001	-3.142	26110	-0.066	56.476	-6.890	-10.102	0.224	-0.084	0.106	0.191	-0.223	1.262	0.029	0.066	-0.006	-0.501	1.042	0.355	-1.711	-0.660	0.511	-2.469	
6.86155	0.03065	0.00044	497.823	-114.732	-135.105	-0.393	-0.000	3.141	26391	4.035	59.396	-2.917	-12.988	1.219	-0.036	-0.099	-3.534	-4.675	0.696	-0.256	0.302	-0.094	-0.500	1.048	0.355	-1.692	-0.648	0.522	-2.485	
2.28267	0.01777	0.00057	499.998	-115.414	-135.234	-0.392	0.000	3.141	26672	6.408	61.153	-0.997	-14.881	1.858	-0.282	-0.171	-5.400	-10.260	2.966	-0.654	0.094	-0.179	-0.499	1.052	0.355	-1.680	-0.642	0.528	-2.494	
0.55489	0.00191	0.00107	499.498	-115.494	-135.007	-0.393	-0.001	3.141	26908	2.346	57.313	-4.331	-10.314	0.960	-0.296	-0.099	-0.265	-7.605	1.359	-0.491	-0.737	-0.111	-0.500	1.052	0.355	-1.681	-0.642	0.527	-2.493	
3.63778	0.01718	0.00079	495.977	-114.579	-135.070	-0.393	-0.001	3.141	27189	0.297	56.305	-6.569	-9.517	0.468	0.036	-0.018	2.026	-0.955	1.172	-0.160	-0.874	-0.006	-0.500	1.048	0.354	-1.692	-0.649	0.521	-2.484	
0.87580	0.00553	0.00098	495.658	-113.765	-135.120	-0.393	-0.000	-3.142	27437	0.245	58.771	-7.042	-10.139	0.348	-0.063	0.007	1.766	-0.762	1.509	-0.129	-0.717	-0.001	-0.500	1.047	0.355	-1.696	-0.651	0.519	-2.482	
4.14541	0.00888	0.00033	495.525	-113.759	-130.977	-0.393	-0.000	3.142	27672	-0.048	56.999	-7.054	-10.997	0.179	-0.023	0.114	1.302	-0.749	2.350	-0.170	-0.289	0.009	-0.500	1.042	0.355	-1.698	-0.646	0.521	-2.486	
18.84097	0.06862	0.00026	495.457	-113.750	-112.136	-0.393	-0.000	3.141	27952	0.082	54.687	-6.180	-10.572	0.213	-0.160	0.104	1.543	-0.433	2.283	-0.013	-0.360	-0.010	-0.499	1.001	0.355	-1.713	-0.606	0.539	-2.515	
7.00803	0.03935	0.00007	495.454	-113.742	-105.128	-0.393	-0.000	3.141	28233	-0.210	55.253	-6.600	-10.870	0.279	-0.075	0.076	1.243	-0.397	1.384	-0.007	-0.304	-0.002	-0.499	0.977	0.355	-1.721	-0.583	0.550	-2.532	
0.01077	0.00015	0.00014	495.458	-113.752	-105.124	-0.393	-0.000	3.141	28433	-0.175	55.398	-6.602	-10.801	0.336	-0.044	-0.067	1.561	-0.142	1.424	0.152	-0.509	-0.112	-0.499	0.977	0.355	-1.721	-0.583	0.551	-2.532	
0.00719	0.11201	0.16010	495.451	-113.751	-105.125	-0.553	-0.000	3.141	28718	0.245	55.893	-6.436	-10.980	0.176	-0.090	0.185	1.516	-0.741	1.683	-0.070	-0.595	-0.121	-0.499	0.977	0.355	-1.721	-0.583	0.551	-2.420	
0.00339	0.39112	0.41829	495.447	-113.753	-105.125	-0.971	-0.000	3.141	29000	0.086	55.556	-6.574	-10.832	0.218	-0.061	-0.014	1.083	-1.272	1.577	-0.327	-0.511	-0.104	-0.499	0.977	0.355	-1.721	-0.583	0.551	-2.029	
0.00166	0.43671	0.43512	495.446	-113.753	-105.125	-1.406	-0.000	3.142	29277	0.028	55.669	-6.504	-10.958	0.290	-0.052	0.118	0.475	-1.638	1.560	-0.567	-0.370	-0.136	-0.499	0.977	0.355	-1.721	-0.583	0.551	-1.592	
0.00055	0.43294	0.41428	495.445	-113.752	-105.125	-1.821	-0.000	3.142	29561	0.105	55.524	-6.535	-10.862	0.391	-0.019	-0.143	-0.152	-1.780	1.580	-0.714	-0.147	-0.150	-0.499	0.977	0.355	-1.721	-0.583	0.551	-1.159	
0.00043	0.19511	0.14283	495.446	-113.753	-105.125	-1.963	-0.000	-3.142	29844	0.065	55.574	-6.504	-10.885	0.300	-0.045	-0.073	-0.227	-1.670	1.528	-0.691	-0.106	-0.123	-0.499	0.977	0.355	-1.721	-0.583	0.551	-0.964	
0.00031	0.00297	0.00020	495.446	-113.752	-105.125	-1.964	-0.000	-3.142	30077	0.017	55.645	-6.512	-10.897	0.264	-0.058	-0.149	-0.221	-1.691	1.547	-0.725	-0.132	-0.147	-0.499	0.977	0.355	-1.721	-0.583	0.551	-0.961	
0.00041	0.10915	0.15567	495.445	-113.752	-105.125	-2.119	-0.000	-3.142	30360	0.099	55.638	-6.476	-10.987	0.390	0.002	-0.228	-0.678	-1.625	1.551	-0.775	0.054	-0.144	-0.499	0.977	0.355	-1.721	-0.583	0.551	-0.852	
0.00060	0.39075	0.41324	495.445	-113.752	-105.125	-2.533	-0.000	-3.141	30639	0.067	55.613	-6.499	-10.897	0.421	-0.015	-0.167	-1.323	-1.194	1.587	-0.700	0.371	-0.142	-0.499	0.977	0.355	-1.721	-0.583	0.551	-0.461	
0.00110	0.43669	0.44767	495.446	-113.752	-105.124	-2.980	-0.000	-3.141	30920	0.047	55.737	-6.563	-10.945	0.321	-0.043	-0.006	-1.655	-0.533	1.504	-0.506	0.608	-0.134	-0.499	0.977	0.355	-1.721	-0.583	0.551	-0.025	
0.00125	0.42852	0.40368	495.445	-113.752	-105.125	2.899	-0.000	-3.141	31201	0.086	55.679	-6.428	-10.866	0.111	-0.072	-0.203	-1.811	0.064	1.535	-0.302	0.772	-0.173	-0.499	0.977	0.355	-1.721	-0.583	0.551	0.404	
0.00106	0.20229	0.15031	495.446	-113.751	-105.125	2.749	0.000	-3.141	31484	0.051	55.651	-6.518	-10.936	0.310	-0.039	-0.094	-1.681	0.223	1.552	-0.238	0.730	-0.137	-0.499	0.977	0.355	-1.721	-0.583	0.551	0.606	
0.00011	0.00338	0.00009	495.446	-113.751	-105.125	2.749	0.000	-3.141	31710	-0.027	54.831	-6.572	-10.735	0.519	0.087	-0.132	-1.492	0.242	0.853	-0.218	0.745	-0.103	-0.499	0.977	0.355	-1.721	-0.583	0.551	0.610	
6.90357	0.01753	0.00003	495.436	-113.773	-112.028	2.749	0.000	-3.141	31949	0.608	53.556	-6.075	-9.960	0.535	0.184	-0.155	-1.698	0.305	1.871	-0.192	1.021	-0.066	-0.499	0.988	0.355	-1.718	-0.593	0.546	0.617	
18.92792	0.07394	0.00034	495.580	-113.735	-130.956	2.749	0.000	3.142	32231	0.527	58.046	-6.883	-10.404	0.585	0.149	-0.150	-1.795	0.797	0.891	0.083	0.981	-0.042	-0.500	1.032	0.355	-1.702	-0.636	0.526	0.649	
4.18313	0.02551	0.00013	495.570	-113.788	-135.138	2.749	0.000	-3.141	32511	0.441	56.285	-6.730	-9.869	0.518	0.090	-0.110	-1.490	0.918	0.801	0.133	0.810	-0.028	-0.500	1.047	0.355	-1.696	-0.651	0.519	0.660	
0.00765	0.00004	0.00002	495.577	-113.787	-135.140	2.749	0.000	-3.141	32712	0.495	56.553	-6.752	-9.953	0.516	0.091	0.076	-1.482	0.870	1.012	0.127	0.788	-0.006	-0.500	1.047	0.355	-1.696	-0.651	0.519	0.660	
0.00253	0.01907	0.03323	495.580	-113.787	-135.141	2.782	0.000	-3.141	32932	0.350	56.457	-6.899	-9.963	0.626	0.085	0.144	-1.121	1.025	1.125	0.265	0.539	0.143	-0.500	1.047	0.355	-1.696	-0.651	0.519	0.641	
0.00448	0.14982	0.17441	495.583	-113.784	-135.140	2.957	0.000	-3.141	33212	0.406	56.604	-6.819	-10.017	0.615	0.087	0.135	-1.363	0.827	1.109	0.173	0.601	0.147	-0.500	1.047	0.355	-1.696	-0.651	0.519	0.491	
0.00407	0.18319	0.16160	495.587	-113.783	-135.138	3.118	0.000	-3.141	33493	0.409	56.543	-6.807	-9.992	0.524	0.069	0.108	-1.460	0.667	1.194	0.115	0.626	0.160	-0.500	1.047	0.355	-1.696	-0.651	0.519	0.308	
0.00060	0.04072	0.02356	495.587	-113.782	-135.138	-3.141	0.000	-3.141	33776	0.340	56.562	-6.834	-10.027	0.522	0.070	0.058	-1.492	0.482	1.131	0.006	0.663	0.100	-0.500	1.047	0.355	-1.696	-0.651	0.519	0.267	
0.00008	0.00002	0.00000	495.587	-113.782	-135.138	-3.141	0.000	-3.141	34010	-0.558	56.082	-7.137	-10.840	0.354	0.013	0.115	-1.490	0.537	1.088	0.030	0.654	0.103	-0.500	1.047	0.355	-1.696	-0.651	0.519	0.267	
3.93167	0.01268	0.00011	499.518	-113.766	-135.093	-3.142	0.000	-3.141	34228	0.220	57.019	-6.597	-10.333	0.268	-0.172	0.140	-0.567	0.158	0.696	-0.121	0.133	0.033	-0.498	1.050	0.355	-1.687	-0.646	0.524	0.263	
6.02400	0.03137	0.00023	505.542	-113.711	-135.160	-3.142	0.000	-3.141	34510	0.026	57.264	-6.932	-10.351	0.291	-0.084	0.088	-1.008	0.087	1.368	-0.174	0.313	0.015	-0.492	1.057	0.355	-1.666	-0.633	0.536	0.251	
0.09205	0.00182	0.00011	505.541	-113.787	-135.107	3.142	0.000	-3.141	34745	0.102	57.268	-6.829	-10.335	0.304	-0.081	0.085	-1.000	0.013	1.262	-0.206	0.323	0.015	-0.491	1.057	0.355	-1.664	-0.633	0.537	0.251	
1.69237	0.00185	0.00009	507.232	-113.827	-135.063	-3.142	0.000	-3.141	34992	0.172	57.916	-6.745	-10.668	0.234	-0.114	0.130	-0.502	-0.238	1.284	-0.328	0.110	0.008	-0.491	1.058	0.355	-1.663	-0.632	0.538	0.250	
7.05697	0.03237	0.00016	514.289	-113.769	-135.116	-3.142	0.000	-3.141	35273	0.128	58.233	-6.841	-10.957	0.307	-0.022	0.097	-0.890	0.283	1.133	-0.042	0.218	0.040	-0.485	1.065	0.355	-1.640	-0.620	0.551	0.239	
1.18413	0.01132	0.00026	515.473	-113.781	-135.128	3.142	-0.000	-3.141	35556	0.095	58.174	-6.943	-10.917	0.305	-0.028	0.095	-1.051	-0.029	0.982	-0.205	0.378	0.016	-0.483	1.068	0.355	-1.632	-0.616	0.555	0.235	
0.47811	0.00009	0.00039	515.947	-113.815	-135.078	-3.142	0.000	-3.141	35791	-0.090	58.230	-6.906	-11.028	0.228	-0.158	0.132	-0.164	0.093	0.872	-0.110	-0.025	0.042	-0.483	1.068	0.355	-1.632	-0.616	0.555	0.235	
6.85388	0.02752	0.00021	522.800	-113.747	-135.142	-3.141	0.000	-3.141	36070	0.649	59.054	-6.696	-10.988	0.247	-0.104	0.132	-0.598	-0.307	1.059	-0.283	0.102	0.018	-0.478	1.075	0.355	-1.613	-0.606	0.566	0.226	
2.68170	0.01786	0.00017	525.482	-113.761	-135.141	-3.142	0.000	-3.141	36354	0.066	58.922	-7.000	-11.270	0.277	-0.051	0.098	-1.122	0.041	1.245	-0.136	0.366	0.018	-0.474	1.079	0.355	-1.600	-0.600	0.573	0.220	
0.00955	0.00002	0.00002	525.479	-113.752	-135.139	-3.142	0.000	-3.141	36560	-0.820	57.822	-7.144	-11.816	0.232	-0.046	0.141	-1.129	-0.017	1.273	-0.179	0.359	0.016	-0.474	1.079	0.355	-1.600	-0.600	0.573	0.220	
3.97846	0.01287	0.00029	529.455	-113.609	-135.201	-3.141	-0.000	-3.141	36792	3.960	63.922	-3.343	-17.983	1.720	1.111	-0.162	6.436	6.501	-0.316	0.226	-0.405	-0.155	-0.472	1.082	0.355	-1.590	-0.595	0.579	0.216	
1.84612	0.01469	0.00049	531.272	-113.365	-135.419	-3.141	-0.001	3.142	37040	7.272	68.110	-1.122	-21.302	2.533	1.816	-0.292	8.505	13.590	4.286	0.658	-0.065	-0.287	-0.469	1.086	0.355	-1.580	-0.591	0.585	0.212	
1.06778	0.00413	0.00174	530.532	-113.926	-134.890	3.142	0.001	-3.141	37306	3.479	61.053	-3.892	-13.548	1.365	0.260	-0.135	1.589	9.677	2.561	0.499	0.710	-0.122	-0.470	1.085	0.355	-1.583	-0.592	0.583	0.213	
3.48929	0.01623	0.00113	527.125	-114.674	-134.817	3.141	0.001	-3.141	37588	0.688	59.191	-6.826	-11.277	0.487	0.022	-0.014	-2.127	0.585	1.404	0.002	0.851	0.032	-0.473	1.080	0.354	-1.594	-0.597	0.576	0.218	
1.06494	0.00257	0.00145	526.718	-113.746	-135.145	3.141	0.000	-3.141	37840	0.383	59.121	-6.980	-11.243	0.461	0.032	-0.009	-2.006	0.311	1.533	-0.054	0.790	0.016	-0.473	1.080	0.355	-1.596	-0.598	0.575	0.219	
0.06585	0.00178	0.00726	526.662	-113.713	-135.151	-3.134	0.000	-3.141	38029	0.418	59.096	-6.973	-11.202	0.460	0.055	0.149	-1.905	0.524	1.616	0.117	0.725	0.138	-0.473	1.080	0.355	-1.596	-0.598	0.575	0.217	
0.00217	0.09912	0.12608	526.661	-113.714	-135.149	-3.008	0.000	-3.141	38311	0.436	59.086	-6.997	-11.168	0.494	0.052	0.118	-2.017	0.220	1.595	-0.005	0.770	0.151	-0.473	1.080	0.355	-1.596	-0.598	0.575	0.118	
0.02009	0.20396	0.19793	526.665	-113.733	-135.148	-2.810	0.000	-3.141	38593	0.419	59.081	-6.947	-11.226	0.507	0.054	0.148	-2.032	-0.158	1.561	-0.165	0.770	0.155	-0.473	1.080	0.355	-1.596	-0.598	0.575	-0.086	
0.00344	0.08734	0.06144	526.666	-113.737	-135.147	-2.749	0.000	-3.141	38876	0.399	59.077	-6.970	-11.234	0.519	0.052	0.100	-2.024	-0.286	1.554	-0.231	0.766	0.126	-0.473	1.080	0.355	-1.596	-0.598	0.575	-0.174	
0.00144	0.00037	0.00002	526.667	-113.738	-135.147	-2.749	0.000	-3.141	39140	-0.012	59.173	-7.194	-11.359	0.518	0.048	0.101	-2.009	-0.304	1.572	-0.247	0.761	0.119	-0.473	1.080	0.355	-1.596	-0.598	0.575	-0.174	
2.70231	0.00535	0.00026	529.198	-112.794	-135.072	-2.749	0.000	-3.141	39372	0.179	59.561	-6.923	-11.553	0.261	-0.120	0.141	-0.836	-0.196	1.440	-0.189	0.195	0.026	-0.471	1.081	0.355	-1.592	-0.597	0.577	-0.175	
6.93998	0.02768	0.00019	535.596	-110.105	-135.119	-2.749	0.000	-3.141	39652	-0.046	59.416	-7.074	-11.712	0.312	-0.016	0.057	-0.588	-0.671	0.632	-0.366	0.162	-0.007	-0.461	1.088	0.355	-1.572	-0.588	0.589	-0.178	
0.25229	0.00591	0.00040	535.774	-109.929	-135.148	-2.749	-0.000	-3.141	39888	0.138	59.631	-7.025	-11.715	0.316	-0.023	0.057	-1.069	-0.552	0.904	-0.335	0.340	-0.007	-0.459	1.090	0.355	-1.568	-0.586	0.591	-0.179	
0.74539	0.00014	0.00078	536.507	-109.840	-135.043	-2.749	0.001	-3.141	40137	0.398	59.786	-6.690	-11.660	0.249	-0.200	0.132	-0.847	0.015	1.021	-0.013	0.170	0.035	-0.459	1.090	0.355	-1.568	-0.586	0.591	-0.179	
6.90501	0.02428	0.00044	542.824	-107.053	-135.154	-2.749	0.000	-3.141	40416	0.505	60.498	-6.858	-12.012	0.291	-0.106	0.110	-0.538	-0.528	1.000	-0.262	0.060	0.018	-0.450	1.096	0.355	-1.550	-0.578	0.601	-0.182	
2.42316	0.01491	0.00038	545.059	-106.118	-135.142	-2.749	-0.000	-3.141	40695	0.065	60.245	-7.050	-12.000	0.332	-0.018	0.096	-1.159	-0.624	1.264	-0.375	0.368	0.019	-0.445	1.100	0.355	-1.540	-0.574	0.607	-0.183	
0.05686	0.00006	0.00010	545.101	-106.081	-135.132	-2.749	-0.000	-3.141	40937	0.230	60.624	-6.986	-11.890	0.220	-0.184	0.134	-0.901	-0.407	1.152	-0.212	0.162	0.016	-0.445	1.100	0.355	-1.540	-0.574	0.607	-0.183	
6.45835	0.02077	0.00018	551.094	-103.673	-135.118	-2.749	0.000	-3.141	41228	2.843	64.445	-5.791	-17.527	0.894	1.829	-0.063	2.717	3.253	0.477	0.149	-0.193	-0.066	-0.437	1.106	0.355	-1.524	-0.568	0.616	-0.186	
3.18423	0.01832	0.00117	553.752	-101.957	-135.475	-2.748	-0.001	3.141	41509	3.632	67.871	-4.934	-20.900	1.806	2.452	-0.168	5.612	10.090	2.949	0.408	-0.027	-0.164	-0.431	1.111	0.355	-1.511	-0.562	0.623	-0.188	
0.89372	0.00170	0.00157	553.548	-102.708	-135.036	-2.749	0.001	-3.141	41744	2.660	63.199	-5.358	-15.327	1.307	0.850	-0.116	0.580	8.355	2.283	0.247	0.772	-0.079	-0.431	1.110	0.355	-1.512	-0.563	0.622	-0.187	
3.63325	0.01421	0.00123	550.627	-104.855	-134.790	-2.750	0.001	-3.140	42023	0.823	60.796	-6.938	-12.053	0.507	0.078	-0.006	-2.882	-0.403	2.015	-0.392	1.092	0.025	-0.437	1.106	0.354	-1.522	-0.567	0.616	-0.186	
1.14866	0.00419	0.00138	549.752	-104.197	-135.137	-2.749	0.000	-3.141	42260	0.477	60.792	-7.079	-12.106	0.485	0.086	-0.004	-2.241	-0.505	1.538	-0.308	0.872	0.025	-0.438	1.105	0.355	-1.525	-0.568	0.615	-0.185	
0.07844	0.00020	0.00168	549.675	-104.199	-135.156	-2.747	0.000	-3.141	42493	0.445	60.806	-7.080	-12.151	0.482	0.051	0.126	-2.206	-0.181	1.612	-0.096	0.865	0.157	-0.438	1.105	0.355	-1.525	-0.568	0.615	-0.185	
0.03784	0.07289	0.09875	549.640	-104.190	-135.166	-2.649	0.000	-3.141	42776	0.406	60.722	-7.169	-12.081	0.480	0.065	0.165	-2.197	-0.429	1.673	-0.163	0.847	0.182	-0.438	1.105	0.355	-1.525	-0.568	0.615	-0.258	
0.01598	0.20084	0.20346	549.624	-104.188	-135.167	-2.445	0.000	-3.141	43055	0.454	60.697	-7.069	-12.037	0.550	0.056	0.132	-2.130	-0.815	1.610	-0.335	0.817	0.184	-0.438	1.105	0.355	-1.526	-0.568	0.615	-0.459	
0.01722	0.11428	0.08829	549.636	-104.194	-135.156	-2.357	0.000	-3.141	43337	0.460	60.720	-7.066	-12.079	0.534	0.081	0.084	-2.001	-1.124	1.595	-0.505	0.764	0.125	-0.438	1.105	0.355	-1.526	-0.568	0.615	-0.573	
0.00371	0.00454	0.00069	549.639	-104.196	-135.154	-2.356	0.000	-3.141	43604	0.423	60.769	-7.085	-12.105	0.536	0.083	0.082	-2.040	-1.161	1.565	-0.521	0.778	0.116	-0.438	1.105	0.355	-1.526	-0.568	0.615	-0.578	
1.19715	0.00074	0.00049	550.626	-103.536	-135.000	-2.356	0.000	-3.141	43838	0.027	60.536	-7.111	-12.404	0.270	-0.055	-0.067	-0.587	-0.749	1.106	-0.359	0.082	-0.091	-0.437	1.105	0.355	-1.525	-0.568	0.615	-0.578	
7.12103	0.02147	0.00031	555.580	-98.421	-135.086	-2.356	0.000	-3.141	44119	-0.079	60.665	-7.087	-12.532	0.343	-0.064	-0.068	-0.771	-0.727	1.070	-0.366	0.079	-0.142	-0.425	1.110	0.355	-1.511	-0.563	0.623	-0.574	
1.64345	0.00910	0.00043	556.699	-97.218	-135.121	-2.356	-0.000	-3.141	44373	0.169	60.896	-6.989	-12.461	0.341	-0.070	-0.058	-0.719	-0.912	0.959	-0.443	0.131	-0.097	-0.420	1.112	0.355	-1.505	-0.561	0.626	-0.573	
0.07114	0.00009	0.00012	556.713	-97.148	-135.120	-2.356	-0.000	-3.141	44573	-0.137	60.733	-6.909	-12.093	0.245	-0.178	-0.087	0.268	-1.264	1.263	-0.662	-0.285	-0.137	-0.420	1.112	0.355	-1.505	-0.561	0.626	-0.573	
5.13736	0.01219	0.00037	560.372	-93.543	-135.153	-2.356	0.000	-3.141	44820	0.682	61.185	-6.785	-12.790	0.297	-0.137	-0.072	-0.022	-1.292	1.142	-0.593	-0.217	-0.169	-0.414	1.115	0.355	-1.497	-0.558	0.630	-0.571	
4.86701	0.01936	0.00039	563.769	-90.057	-135.146	-2.356	-0.000	-3.141	45100	-0.062	61.466	-7.148	-12.625	0.311	-0.102	-0.042	-0.579	-0.953	1.167	-0.446	0.034	-0.104	-0.403	1.120	0.355	-1.485	-0.553	0.637	-0.568	
0.01584	0.00008	0.00002	563.774	-90.065	-135.133	-2.356	-0.000	-3.141	45351	-0.184	61.584	-7.210	-12.801	0.311	-0.094	-0.043	-0.575	-1.041	1.241	-0.481	0.039	-0.100	-0.403	1.120	0.355	-1.485	-0.553	0.637	-0.568	
2.59487	0.00451	0.00010	565.639	-88.262	-135.078	-2.356	-0.000	-3.141	45587	0.067	61.477	-6.930	-12.615	0.266	-0.155	-0.069	-0.535	-1.030	0.964	-0.433	-0.004	-0.141	-0.401	1.121	0.355	-1.482	-0.552	0.639	-0.567	
7.05148	0.02271	0.00022	570.650	-83.300	-135.098	-2.356	0.000	-3.141	45868	0.351	63.209	-7.010	-14.475	0.539	0.453	-0.079	0.886	0.548	0.799	-0.374	-0.214	-0.140	-0.388	1.127	0.355	-1.466	-0.547	0.647	-0.564	
0.31207	0.00480	0.00019	570.857	-83.067	-135.106	-2.356	-0.000	-3.141	46118	0.138	63.267	-7.336	-14.744	0.472	0.627	-0.095	1.034	1.363	1.384	-0.336	-0.076	-0.144	-0.386	1.128	0.355	-1.463	-0.546	0.649	-0.563	
0.39594	0.00009	0.00041	571.080	-82.740	-135.118	-2.356	-0.000	-3.141	46369	-0.156	65.939	-7.444	-19.271	1.023	2.305	-0.213	7.573	4.735	-0.104	-0.462	-1.178	-0.375	-0.386	1.128	0.355	-1.463	-0.546	0.649	-0.563	
2.15987	0.00843	0.00097	572.258	-80.958	-135.433	-2.356	-0.001	3.141	46612	2.494	69.651	-6.558	-22.263	1.529	3.278	-0.269	5.968	11.571	2.630	0.271	-0.253	-0.317	-0.381	1.130	0.355	-1.458	-0.544	0.653	-0.562	
1.50943	0.00328	0.00166	571.940	-82.351	-134.949	-2.356	0.000	-3.141	46885	1.894	63.864	-6.495	-15.271	0.973	0.920	0.023	0.189	6.302	2.032	-0.136	0.691	-0.005	-0.383	1.129	0.355	-1.460	-0.545	0.651	-0.563	
3.34368	0.01142	0.00080	569.965	-85.038	-134.700	-2.357	0.001	-3.140	47169	0.566	62.278	-7.049	-12.836	0.546	0.024	0.084	-2.085	-1.024	1.525	-0.432	0.777	0.134	-0.389	1.126	0.355	-1.467	-0.547	0.647	-0.564	
0.90288	0.00180	0.00135	569.275	-84.669	-135.151	-2.356	0.000	-3.141	47414	0.397	62.100	-7.169	-12.828	0.504	0.027	0.081	-1.926	-0.971	1.441	-0.391	0.715	0.106	-0.390	1.126	0.355	-1.468	-0.548	0.646	-0.564	
0.07807	0.00221	0.00831	569.209	-84.634	-135.172	-2.348	0.000	-3.141	47647	0.499	61.930	-7.061	-12.750	0.472	0.036	0.159	-2.016	-0.932	1.523	-0.355	0.768	0.159	-0.390	1.126	0.355	-1.469	-0.548	0.646	-0.567	
0.03176	0.09920	0.12420	569.187	-84.657	-135.175	-2.224	0.000	-3.141	47925	0.485	62.129	-7.094	-12.803	0.497	0.038	0.198	-1.733	-1.252	1.524	-0.477	0.675	0.173	-0.390	1.126	0.355	-1.469	-0.548	0.646	-0.666	
0.01646	0.20634	0.19915	569.192	-84.671	-135.169	-2.025	-0.000	-3.141	48208	0.477	61.939	-7.063	-12.817	0.522	0.043	0.173	-1.521	-1.526	1.473	-0.582	0.596	0.177	-0.390	1.126	0.355	-1.469	-0.548	0.646	-0.872	
0.02131	0.08433	0.06098	569.199	-84.651	-135.166	-1.964	-0.000	-3.141	48488	0.465	61.938	-7.101	-12.781	0.532	0.052	0.111	-1.462	-1.653	1.523	-0.644	0.556	0.138	-0.390	1.126	0.355	-1.469	-0.548	0.646	-0.957	
0.00454	0.00048	0.00000	569.200	-84.656	-135.165	-1.964	-0.000	-3.141	48753	0.355	61.942	-7.134	-12.784	0.534	0.049	0.100	-1.482	-1.644	1.468	-0.647	0.557	0.130	-0.390	1.126	0.355	-1.469	-0.548	0.646	-0.957	
2.25382	0.00294	0.00023	570.113	-82.598	-135.067	-1.964	-0.000	-3.141	48986	0.159	61.938	-6.851	-12.789	0.331	-0.120	-0.085	0.187	-1.091	0.805	-0.476	-0.285	-0.137	-0.388	1.126	0.355	-1.467	-0.548	0.647	-0.955	
7.08296	0.01755	0.00024	572.847	-76.064	-135.114	-1.963	-0.000	-3.141	49267	0.112	62.018	-7.061	-13.083	0.347	-0.094	-0.038	0.046	-1.000	1.086	-0.412	-0.225	-0.125	-0.375	1.129	0.355	-1.461	-0.545	0.651	-0.946	
0.62451	0.00449	0.00026	573.070	-75.482	-135.146	-1.964	-0.000	-3.141	49532	-0.020	62.038	-7.096	-13.042	0.344	-0.091	-0.038	-0.105	-1.056	0.936	-0.413	-0.136	-0.091	-0.372	1.129	0.355	-1.459	-0.545	0.651	-0.944	
0.26971	0.00017	0.00033	573.128	-75.219	-135.136	-1.963	-0.000	-3.141	49735	0.149	62.284	-6.958	-12.959	0.291	-0.153	-0.104	0.324	-1.086	0.846	-0.451	-0.374	-0.176	-0.372	1.129	0.355	-1.459	-0.545	0.651	-0.944	
6.85213	0.01468	0.00017	575.723	-68.877	-135.145	-1.964	-0.000	-3.141	50016	1.516	62.069	-6.259	-12.765	0.296	-0.198	-0.078	-0.024	-0.796	0.896	-0.302	-0.185	-0.155	-0.361	1.131	0.355	-1.454	-0.543	0.654	-0.937	
2.85584	0.01033	0.00020	576.806	-66.234	-135.151	-1.964	-0.000	-3.141	50295	-0.157	62.073	-7.104	-12.997	0.324	-0.083	-0.054	-0.172	-1.278	1.025	-0.505	-0.120	-0.118	-0.354	1.133	0.355	-1.450	-0.541	0.657	-0.932	
0.04576	0.00005	0.00007	576.808	-66.188	-135.152	-1.964	-0.000	-3.141	50531	-1.061	61.706	-7.372	-12.946	0.277	-0.160	-0.086	-0.111	-1.203	0.898	-0.482	-0.169	-0.129	-0.354	1.133	0.355	-1.450	-0.541	0.657	-0.932	
4.75511	0.00879	0.00044	578.751	-61.848	-135.134	-1.964	-0.000	-3.141	50796	-0.231	61.952	-7.249	-13.804	0.265	0.505	-0.156	0.274	-0.955	0.776	-0.392	-0.318	-0.177	-0.348	1.134	0.355	-1.446	-0.540	0.659	-0.927	
5.21959	0.01609	0.00105	580.279	-56.862	-135.344	-1.963	-0.000	3.141	51076	0.015	65.749	-7.790	-17.600	0.637	1.751	-0.166	1.506	3.590	1.366	-0.360	-0.274	-0.233	-0.336	1.137	0.355	-1.440	-0.538	0.663	-0.920	
0.36117	0.00043	0.00059	580.576	-56.980	-135.174	-1.964	-0.000	-3.141	51345	-0.087	66.063	-7.957	-17.911	0.637	1.969	-0.179	2.435	6.164	1.743	-0.159	-0.321	-0.257	-0.336	1.137	0.355	-1.439	-0.538	0.663	-0.920	
0.05891	0.00011	0.00009	580.626	-57.003	-135.155	-1.964	-0.000	-3.141	51548	-0.116	66.108	-7.996	-18.014	0.639	1.987	-0.177	2.763	6.202	1.847	-0.107	-0.351	-0.256	-0.336	1.137	0.355	-1.439	-0.538	0.663	-0.920	
0.87236	0.00073	0.00045	580.499	-57.860	-135.054	-1.964	-0.000	-3.141	51784	-0.059	62.735	-7.253	-12.982	0.573	0.085	0.109	-0.528	0.790	1.645	-0.630	0.385	0.045	-0.336	1.137	0.355	-1.440	-0.538	0.662	-0.920	
3.48699	0.00904	0.00027	579.232	-61.109	-135.015	-1.964	-0.000	-3.141	52065	0.622	62.932	-7.009	-13.357	0.615	0.066	0.069	-1.350	-2.041	1.566	-0.858	0.508	0.139	-0.343	1.135	0.355	-1.443	-0.540	0.660	-0.924	
0.62962	0.00308	0.00038	578.851	-61.595	-135.138	-1.963	-0.000	-3.141	52330	0.296	62.615	-7.177	-13.131	0.494	0.049	0.069	-1.531	-1.727	1.550	-0.690	0.550	0.082	-0.345	1.135	0.355	-1.445	-0.540	0.659	-0.926	
0.01780	0.00021	0.00158	578.851	-61.613	-135.139	-1.962	-0.000	-3.141	52521	0.379	62.592	-7.112	-13.103	0.495	0.051	0.184	-1.432	-1.581	1.581	-0.599	0.549	0.145	-0.345	1.135	0.355	-1.445	-0.540	0.659	-0.926	
0.00316	0.07386	0.09953	578.852	-61.610	-135.140	-1.862	-0.000	-3.141	52798	0.442	62.561	-7.048	-13.091	0.539	0.056	0.086	-1.090	-1.901	1.576	-0.730	0.411	0.129	-0.345	1.135	0.355	-1.445	-0.540	0.659	-1.000	
0.00864	0.20112	0.20343	578.859	-61.604	-135.141	-1.659	-0.000	-3.141	53078	0.325	62.621	-7.091	-13.076	0.549	0.054	0.201	-0.845	-2.028	1.579	-0.773	0.312	0.153	-0.345	1.135	0.355	-1.445	-0.540	0.659	-1.201	
0.02649	0.11317	0.08731	578.862	-61.578	-135.141	-1.571	-0.000	-3.141	53360	0.446	62.525	-7.090	-13.104	0.548	0.052	0.103	-0.683	-2.103	1.571	-0.801	0.239	0.127	-0.345	1.135	0.355	-1.445	-0.540	0.659	-1.314	
0.00249	0.00426	0.00053	578.863	-61.576	-135.141	-1.571	-0.000	-3.141	53625	0.388	62.521	-7.058	-13.056	0.548	0.048	0.101	-0.595	-2.070	1.532	-0.798	0.179	0.111	-0.345	1.135	0.355	-1.445	-0.540	0.659	-1.318	
1.10398	0.00062	0.00053	578.735	-60.480	-135.185	-1.571	-0.000	-3.141	53815	-0.597	62.756	-7.308	-13.123	0.600	0.126	-0.084	0.538	-2.346	1.207	-1.038	-0.586	-0.095	-0.344	1.135	0.355	-1.445	-0.540	0.659	-1.318	
7.15728	0.01737	0.00039	578.751	-53.323	-135.132	-1.571	-0.001	-3.141	54096	-0.495	62.564	-7.238	-12.990	0.599	0.035	-0.056	0.258	-2.409	1.303	-1.020	-0.512	-0.094	-0.333	1.134	0.355	-1.447	-0.541	0.658	-1.305	
1.65590	0.00739	0.00020	578.800	-51.668	-135.130	-1.571	-0.000	-3.141	54352	-0.055	62.621	-7.047	-13.105	0.539	0.046	-0.044	0.547	-2.138	1.397	-0.890	-0.531	-0.081	-0.328	1.133	0.355	-1.448	-0.541	0.657	-1.299	
0.09378	0.00013	0.00012	578.808	-51.574	-135.129	-1.571	-0.000	-3.141	54581	0.202	62.528	-6.797	-12.998	0.575	0.091	-0.089	1.113	-2.297	1.210	-0.978	-0.827	-0.130	-0.328	1.133	0.355	-1.448	-0.541	0.657	-1.299	
5.83670	0.01193	0.00021	578.817	-45.738	-135.098	-1.571	-0.001	-3.141	54865	0.886	62.834	-6.584	-13.265	0.631	0.082	-0.088	0.857	-2.277	1.301	-1.044	-0.762	-0.123	-0.320	1.133	0.355	-1.450	-0.542	0.657	-1.291	
4.11229	0.01326	0.00011	578.747	-41.626	-135.137	-1.571	-0.001	-3.141	55147	-0.340	62.705	-7.255	-13.060	0.582	0.094	-0.031	0.550	-2.201	1.325	-0.974	-0.544	-0.057	-0.311	1.132	0.355	-1.451	-0.542	0.656	-1.281	
0.05391	0.00013	0.00013	578.781	-41.584	-135.137	-1.571	-0.001	-3.141	55414	-2.805	62.366	-8.299	-12.743	0.533	0.127	-0.082	0.572	-2.227	1.311	-0.978	-0.558	-0.063	-0.311	1.132	0.355	-1.451	-0.542	0.656	-1.281	
3.71130	0.00616	0.00015	578.869	-37.874	-135.151	-1.571	-0.000	-3.141	55664	-0.345	62.797	-7.228	-13.199	0.589	0.115	-0.095	1.044	-2.399	1.433	-1.090	-0.853	-0.145	-0.307	1.132	0.355	-1.452	-0.542	0.655	-1.276	
6.23389	0.01721	0.00041	578.696	-31.643	-135.181	-1.571	-0.001	-3.141	55942	-0.023	62.336	-7.051	-12.946	0.585	0.077	-0.037	0.652	-2.197	1.273	-0.984	-0.597	-0.070	-0.296	1.132	0.355	-1.453	-0.543	0.655	-1.264	
0.04367	0.00155	0.00015	578.702	-31.661	-135.142	-1.571	-0.001	-3.141	56208	-0.204	62.369	-7.079	-12.964	0.579	0.074	-0.031	0.526	-2.201	1.296	-0.973	-0.546	-0.067	-0.295	1.132	0.355	-1.453	-0.543	0.655	-1.263	
1.24557	0.00069	0.00011	578.742	-30.417	-135.168	-1.571	-0.001	-3.141	56407	-0.708	62.375	-7.298	-12.934	0.600	0.104	-0.125	0.921	-2.240	1.098	-1.031	-0.758	-0.133	-0.294	1.132	0.355	-1.454	-0.543	0.655	-1.262	
7.16445	0.01741	0.00013	578.674	-23.252	-135.189	-1.571	-0.001	-3.141	56691	-0.731	62.326	-7.377	-12.871	0.568	0.098	-0.053	-0.049	-2.309	1.266	-1.043	-0.390	-0.100	-0.282	1.131	0.355	-1.455	-0.543	0.654	-1.250	
1.60877	0.00672	0.00035	578.810	-21.650	-135.149	-1.571	-0.000	-3.141	56945	-0.105	62.380	-7.045	-12.996	0.588	0.089	-0.047	0.564	-2.222	1.237	-1.005	-0.578	-0.077	-0.278	1.131	0.355	-1.455	-0.544	0.654	-1.245	
0.08262	0.00016	0.00014	578.839	-21.573	-135.139	-1.571	-0.000	-3.141	57197	-0.157	62.397	-7.067	-12.979	0.578	0.082	-0.089	0.984	-2.194	1.233	-1.003	-0.811	-0.124	-0.278	1.131	0.355	-1.455	-0.544	0.654	-1.245	
6.04859	0.01218	0.00015	578.850	-15.525	-135.117	-1.571	-0.001	-3.141	57489	1.409	62.365	-6.240	-13.074	0.609	0.055	-0.102	0.899	-2.364	1.258	-1.105	-0.807	-0.156	-0.269	1.131	0.355	-1.456	-0.544	0.653	-1.236	
3.91422	0.01255	0.00018	578.831	-11.611	-135.157	-1.571	-0.000	-3.141	57768	-0.241	62.284	-7.109	-12.909	0.579	0.078	-0.052	0.513	-2.252	1.275	-1.019	-0.558	-0.082	-0.260	1.131	0.355	-1.456	-0.544	0.653	-1.227	
0.03520	0.00009	0.00006	578.834	-11.576	-135.154	-1.571	-0.000	-3.141	58019	-2.865	62.188	-8.258	-12.665	0.539	0.107	-0.093	0.554	-2.187	1.222	-0.997	-0.585	-0.084	-0.260	1.131	0.355	-1.456	-0.544	0.653	-1.227	
3.57530	0.00595	0.00011	578.798	-8.001	-135.178	-1.571	-0.000	-3.141	58252	0.073	62.306	-6.884	-12.863	0.579	0.059	-0.127	1.028	-2.293	1.189	-1.081	-0.851	-0.152	-0.256	1.131	0.355	-1.456	-0.544	0.653	-1.223	
6.40795	0.01689	0.00002	578.785	-1.593	-135.146	-1.571	-0.000	-3.141	58532	-0.415	62.297	-7.211	-12.951	0.593	0.088	-0.034	0.573	-2.222	1.213	-1.024	-0.611	-0.082	-0.244	1.130	0.355	-1.456	-0.544	0.653	-1.211	
0.04561	0.00166	0.00012	578.753	-1.624	-135.158	-1.571	-0.000	-3.141	58795	-0.223	62.284	-7.058	-12.947	0.596	0.075	-0.033	0.504	-2.155	1.193	-0.997	-0.579	-0.067	-0.243	1.130	0.355	-1.457	-0.544	0.653	-1.210	
1.03348	0.00051	0.00004	578.759	-0.590	-135.158	-1.571	-0.001	-3.141	58983	-0.281	62.444	-7.019	-12.999	0.592	0.061	-0.084	0.344	-2.124	1.244	-0.990	-0.568	-0.111	-0.243	1.130	0.355	-1.457	-0.544	0.653	-1.209	
7.19525	0.01662	0.00028	578.817	6.605	-135.153	-1.571	-0.000	-3.141	59264	-0.250	62.457	-7.106	-12.979	0.577	0.037	-0.080	0.217	-1.943	1.073	-0.926	-0.503	-0.126	-0.231	1.130	0.355	-1.456	-0.544	0.653	-1.198	
1.73443	0.00729	0.00029	578.850	8.339	-135.154	-1.571	-0.000	-3.141	59525	-0.219	62.299	-7.047	-12.949	0.580	0.044	-0.044	0.562	-1.947	1.093	-0.902	-0.599	-0.083	-0.226	1.130	0.355	-1.456	-0.544	0.653	-1.192	
0.06817	0.00009	0.00011	578.851	8.407	-135.154	-1.571	-0.000	-3.141	59765	-0.048	62.465	-6.848	-13.115	0.564	0.005	-0.084	0.919	-1.941	1.038	-0.919	-0.811	-0.139	-0.226	1.130	0.355	-1.456	-0.544	0.653	-1.192	
6.21566	0.01212	0.00021	578.799	14.622	-135.173	-1.571	-0.000	-3.141	60061	1.284	62.086	-6.299	-12.995	0.474	-0.066	-0.121	1.174	-1.737	1.021	-0.798	-0.885	-0.180	-0.217	1.131	0.355	-1.456	-0.544	0.653	-1.184	
3.73244	0.01218	0.00035	578.765	18.355	-135.195	-1.571	-0.001	-3.141	60341	-0.448	62.251	-7.184	-12.990	0.450	-0.010	-0.078	0.677	-1.576	1.084	-0.683	-0.605	-0.142	-0.208	1.131	0.355	-1.455	-0.544	0.654	-1.176	
0.03945	0.00014	0.00007	578.769	18.389	-135.176	-1.571	-0.001	-3.141	60589	-3.155	62.161	-8.349	-12.728	0.404	0.018	-0.124	0.583	-1.652	1.054	-0.742	-0.574	-0.143	-0.208	1.131	0.355	-1.455	-0.544	0.654	-1.176	
3.80164	0.00634	0.00021	578.794	22.190	-135.150	-1.571	-0.000	-3.141	60840	-0.425	62.311	-7.106	-12.961	0.390	-0.065	-0.099	0.523	-1.473	1.018	-0.637	-0.573	-0.180	-0.204	1.131	0.355	-1.455	-0.544	0.654	-1.171	
6.22171	0.01644	0.00008	578.815	28.412	-135.201	-1.571	-0.000	-3.141	61118	-0.461	62.094	-7.187	-12.978	0.395	-0.055	-0.060	0.691	-1.339	1.036	-0.577	-0.598	-0.150	-0.192	1.131	0.355	-1.454	-0.543	0.654	-1.160	
0.04057	0.00136	0.00017	578.813	28.372	-135.193	-1.571	-0.001	-3.141	61368	-0.368	62.221	-7.120	-13.056	0.407	-0.054	-0.059	0.713	-1.370	0.967	-0.588	-0.610	-0.142	-0.191	1.131	0.355	-1.454	-0.543	0.654	-1.159	
1.12530	0.00058	0.00004	578.804	29.497	-135.175	-1.571	-0.001	-3.141	61603	-0.074	62.215	-6.822	-13.111	0.370	-0.106	-0.101	0.740	-1.318	0.834	-0.572	-0.668	-0.207	-0.191	1.131	0.355	-1.454	-0.543	0.654	-1.159	
7.15612	0.01667	0.00026	578.927	36.652	-135.145	-1.571	-0.000	-3.141	61886	-0.464	62.470	-7.158	-13.065	0.304	-0.079	-0.076	0.404	-1.214	1.028	-0.497	-0.490	-0.180	-0.178	1.132	0.355	-1.452	-0.543	0.655	-1.147	
1.71456	0.00690	0.00059	578.676	38.347	-135.222	-1.571	-0.000	-3.141	62144	-0.335	62.366	-7.101	-13.067	0.378	-0.048	-0.052	0.780	-1.354	0.886	-0.583	-0.601	-0.153	-0.174	1.132	0.355	-1.452	-0.542	0.656	-1.143	
0.05766	0.00008	0.00009	578.674	38.404	-135.222	-1.571	-0.000	-3.141	62381	0.001	61.917	-6.881	-12.856	0.364	-0.094	-0.115	1.292	-1.525	1.150	-0.684	-0.895	-0.205	-0.173	1.132	0.355	-1.452	-0.542	0.656	-1.143	
5.87027	0.01139	0.00033	578.785	44.274	-135.196	-1.571	-0.000	-3.141	62665	0.325	62.248	-6.671	-13.201	0.347	-0.106	-0.095	1.613	-1.128	0.749	-0.515	-0.990	-0.225	-0.165	1.133	0.355	-1.450	-0.542	0.656	-1.135	
4.13331	0.01269	0.00031	578.814	48.407	-135.202	-1.571	-0.000	-3.141	62948	-0.522	62.330	-7.184	-13.079	0.339	-0.077	-0.058	0.727	-1.271	0.970	-0.519	-0.582	-0.160	-0.156	1.133	0.355	-1.449	-0.542	0.657	-1.127	
0.02530	0.00015	0.00004	578.793	48.420	-135.205	-1.571	-0.000	-3.141	63211	-2.320	62.262	-7.914	-12.939	0.320	-0.061	-0.086	0.691	-1.321	0.979	-0.555	-0.597	-0.160	-0.156	1.133	0.355	-1.449	-0.542	0.657	-1.127	
3.46212	0.00551	0.00038	578.832	51.881	-135.136	-1.571	-0.001	-3.141	63444	-0.327	62.254	-6.891	-13.167	0.337	-0.113	-0.127	1.093	-1.143	0.800	-0.518	-0.808	-0.234	-0.152	1.133	0.355	-1.448	-0.542	0.657	-1.123	
6.49049	0.01656	0.00023	578.811	58.371	-135.199	-1.571	-0.000	-3.141	63723	-0.516	62.280	-7.104	-13.110	0.339	-0.088	-0.055	1.035	-1.220	0.902	-0.517	-0.725	-0.185	-0.140	1.134	0.355	-1.446	-0.541	0.659	-1.112	
0.03058	0.00189	0.00027	578.839	58.383	-135.203	-1.571	-0.000	-3.141	63991	-0.405	62.338	-7.072	-13.132	0.339	-0.087	-0.049	0.908	-1.279	1.009	-0.542	-0.681	-0.165	-0.138	1.135	0.355	-1.446	-0.540	0.659	-1.111	
1.01407	0.00046	0.00027	578.810	59.396	-135.180	-1.571	-0.000	-3.141	64175	-0.543	62.348	-7.119	-13.207	0.298	-0.088	-0.094	1.181	-1.202	1.039	-0.539	-0.856	-0.226	-0.138	1.135	0.355	-1.446	-0.540	0.659	-1.111	
7.17303	0.01637	0.00012	578.891	66.569	-135.167	-1.571	-0.000	-3.141	64459	-0.464	62.818	-7.124	-13.305	0.315	-0.092	-0.094	1.043	-1.175	1.022	-0.526	-0.791	-0.242	-0.126	1.136	0.355	-1.443	-0.540	0.660	-1.100	
1.77261	0.00722	0.00047	578.785	68.338	-135.199	-1.571	-0.000	-3.141	64724	-0.472	62.611	-7.117	-13.191	0.334	-0.088	-0.059	0.884	-1.365	1.114	-0.581	-0.688	-0.177	-0.121	1.136	0.355	-1.442	-0.539	0.661	-1.096	
0.07523	0.00009	0.00014	578.764	68.410	-135.196	-1.571	-0.001	-3.141	64961	-0.550	62.446	-7.093	-13.215	0.282	-0.110	-0.100	1.495	-1.322	1.119	-0.623	-1.000	-0.239	-0.121	1.136	0.355	-1.442	-0.539	0.661	-1.096	
6.14294	0.01174	0.00027	578.742	74.553	-135.202	-1.571	-0.000	-3.141	65252	1.073	62.627	-6.328	-13.365	0.316	-0.160	-0.089	0.974	-1.262	0.830	-0.539	-0.784	-0.228	-0.112	1.137	0.355	-1.439	-0.538	0.662	-1.088	
3.81520	0.01223	0.00035	578.710	78.368	-135.229	-1.571	-0.001	-3.141	65539	-0.538	62.716	-7.150	-13.314	0.331	-0.049	-0.048	0.877	-1.462	0.971	-0.639	-0.663	-0.174	-0.103	1.138	0.355	-1.437	-0.538	0.664	-1.080	
0.06942	0.00020	0.00011	578.651	78.400	-135.247	-1.571	-0.001	-3.142	65787	-2.515	63.012	-8.040	-13.459	0.321	-0.026	-0.092	0.816	-1.477	1.017	-0.656	-0.655	-0.175	-0.103	1.138	0.355	-1.437	-0.538	0.664	-1.080	
3.47261	0.00529	0.00032	578.759	81.871	-135.212	-1.571	-0.000	-3.141	66022	-0.562	62.625	-7.037	-13.210	0.280	-0.157	-0.102	1.505	-1.319	0.860	-0.579	-1.023	-0.263	-0.099	1.138	0.355	-1.436	-0.538	0.664	-1.077	
6.45652	0.01661	0.00009	578.767	88.327	-135.238	-1.571	-0.000	-3.141	66301	-0.479	62.682	-7.049	-13.235	0.325	-0.136	-0.038	1.189	-1.359	1.112	-0.556	-0.823	-0.179	-0.087	1.140	0.355	-1.432	-0.536	0.666	-1.067	
0.04639	0.00205	0.00015	578.751	88.362	-135.213	-1.571	-0.001	-3.141	66565	-0.602	62.692	-7.120	-13.263	0.325	-0.103	-0.039	0.918	-1.384	1.095	-0.589	-0.717	-0.171	-0.085	1.140	0.355	-1.432	-0.536	0.667	-1.066	
1.31144	0.00079	0.00037	578.864	89.668	-135.159	-1.571	-0.001	-3.141	66769	-0.807	63.211	-7.206	-13.599	0.295	-0.123	-0.125	1.342	-1.006	0.803	-0.454	-0.929	-0.256	-0.085	1.140	0.355	-1.432	-0.536	0.667	-1.065	
7.18851	0.01668	0.00011	578.854	96.856	-135.205	-1.571	-0.000	-3.141	67051	-0.800	62.779	-7.275	-13.356	0.308	-0.089	-0.065	0.545	-1.162	0.853	-0.516	-0.608	-0.229	-0.072	1.141	0.355	-1.427	-0.535	0.669	-1.055	
1.50119	0.00646	0.00021	578.797	98.356	-135.210	-1.571	-0.000	-3.141	67303	-0.593	62.845	-7.077	-13.354	0.329	-0.086	-0.055	1.048	-1.434	1.045	-0.642	-0.782	-0.194	-0.068	1.142	0.355	-1.426	-0.534	0.670	-1.052	
0.05160	0.00006	0.00004	578.796	98.407	-135.206	-1.571	-0.000	-3.141	67553	-0.223	62.677	-6.777	-13.310	0.285	-0.174	-0.089	1.821	-1.239	0.975	-0.600	-1.142	-0.246	-0.068	1.142	0.355	-1.426	-0.534	0.670	-1.052	
6.07983	0.01173	0.00014	578.720	104.487	-135.235	-1.571	-0.001	-3.141	67843	-1.920	65.468	-8.838	-17.747	0.306	2.022	-0.160	6.267	2.983	0.122	-0.412	-1.538	-0.432	-0.059	1.143	0.355	-1.423	-0.533	0.672	-1.045	
2.44190	0.00906	0.00070	578.421	106.905	-135.388	-1.571	-0.001	3.141	68091	-2.098	68.413	-10.378	-20.539	0.253	3.496	-0.234	7.260	8.574	1.885	-0.134	-1.110	-0.389	-0.052	1.144	0.354	-1.420	-0.533	0.673	-1.039	
1.40637	0.00198	0.00147	579.114	105.742	-135.008	-1.571	-0.000	-3.141	68375	-0.031	63.067	-7.121	-13.383	0.547	0.126	0.087	1.029	1.543	1.719	-0.667	-0.120	-0.023	-0.054	1.144	0.355	-1.420	-0.533	0.673	-1.040	
3.43514	0.00879	0.00028	579.116	102.308	-135.090	-1.571	-0.000	-3.141	68659	-0.304	63.141	-7.264	-13.362	0.570	0.038	0.082	-0.683	-1.874	1.355	-0.774	0.057	0.071	-0.060	1.143	0.355	-1.423	-0.534	0.671	-1.045	
0.46571	0.00173	0.00095	578.740	102.069	-135.222	-1.571	-0.001	-3.141	68924	-0.077	63.111	-7.143	-13.308	0.565	0.026	0.078	-0.187	-2.001	1.392	-0.872	-0.147	0.042	-0.061	1.143	0.355	-1.423	-0.534	0.671	-1.046	
0.03010	0.00186	0.00756	578.739	102.038	-135.223	-1.563	-0.001	-3.141	69112	-0.202	63.084	-7.194	-13.295	0.528	-0.008	0.176	-0.278	-1.939	1.461	-0.804	-0.093	0.073	-0.061	1.143	0.355	-1.423	-0.534	0.671	-1.048	
0.03137	0.10271	0.12697	578.730	102.068	-135.223	-1.436	-0.001	-3.141	69393	-0.048	63.035	-7.155	-13.324	0.525	0.012	0.123	0.050	-1.878	1.502	-0.717	-0.192	0.095	-0.061	1.143	0.355	-1.423	-0.534	0.671	-1.151	
0.01120	0.20135	0.19596	578.726	102.058	-135.223	-1.240	-0.001	-3.142	69675	-0.114	63.021	-7.149	-13.303	0.489	-0.006	0.168	0.323	-1.826	1.531	-0.659	-0.275	0.097	-0.061	1.143	0.355	-1.423	-0.534	0.671	-1.352	
0.00325	0.08640	0.06213	578.724	102.060	-135.223	-1.178	-0.001	3.142	69955	-0.085	63.024	-7.142	-13.309	0.484	0.008	0.102	0.407	-1.838	1.520	-0.657	-0.307	0.066	-0.061	1.143	0.355	-1.423	-0.534	0.671	-1.439	
0.00035	0.00054	0.00007	578.724	102.060	-135.223	-1.178	-0.001	3.142	70222	-0.304	63.021	-7.211	-13.275	0.478	0.010	0.056	0.473	-1.860	1.495	-0.670	-0.346	0.039	-0.061	1.143	0.355	-1.423	-0.534	0.671	-1.439	
2.49245	0.00366	0.00050	577.846	104.393	-135.189	-1.178	-0.000	-3.141	70471	-0.585	63.174	-7.082	-13.368	0.629	0.095	-0.076	2.041	-2.110	1.166	-0.903	-1.385	-0.164	-0.059	1.142	0.355	-1.424	-0.534	0.671	-1.436	
6.89135	0.01887	0.00022	575.259	110.780	-135.185	-1.178	-0.000	-3.141	70750	-0.401	62.810	-7.003	-13.162	0.561	0.056	-0.034	1.825	-2.021	1.540	-0.856	-1.253	-0.135	-0.048	1.140	0.355	-1.430	-0.535	0.668	-1.423	
0.59863	0.00464	0.00012	575.031	111.333	-135.195	-1.178	-0.001	-3.141	71016	-0.683	62.842	-7.172	-13.207	0.556	0.059	-0.027	1.665	-1.925	1.291	-0.801	-1.151	-0.127	-0.046	1.140	0.355	-1.431	-0.536	0.667	-1.419	
0.25415	0.00009	0.00005	574.945	111.572	-135.209	-1.178	-0.001	-3.141	71249	-0.780	63.150	-7.293	-13.807	0.627	0.184	-0.086	1.918	-1.992	1.141	-0.885	-1.339	-0.159	-0.046	1.140	0.355	-1.431	-0.536	0.667	-1.419	
6.91646	0.01566	0.00017	572.239	117.937	-135.223	-1.178	-0.000	-3.141	71531	1.081	62.755	-6.196	-13.459	0.656	0.102	-0.049	2.792	-1.805	0.850	-0.879	-1.700	-0.184	-0.036	1.138	0.355	-1.435	-0.537	0.664	-1.408	
2.83171	0.01104	0.00020	571.147	120.550	-135.214	-1.178	-0.001	-3.141	71816	-0.678	62.743	-7.136	-13.156	0.574	0.105	-0.031	1.482	-1.959	1.158	-0.873	-1.071	-0.115	-0.030	1.137	0.355	-1.438	-0.538	0.663	-1.399	
0.04437	0.00006	0.00007	571.139	120.594	-135.216	-1.178	-0.001	-3.141	72036	-1.745	63.199	-7.650	-13.006	0.563	0.140	-0.062	1.789	-1.915	1.073	-0.871	-1.260	-0.146	-0.030	1.137	0.355	-1.438	-0.538	0.663	-1.399	
4.75625	0.00930	0.00011	569.336	124.995	-135.238	-1.178	-0.000	-3.141	72299	-0.925	62.829	-7.151	-13.071	0.614	0.128	-0.067	1.892	-2.270	1.247	-1.039	-1.370	-0.176	-0.024	1.137	0.355	-1.441	-0.539	0.662	-1.393	
5.18706	0.01707	0.00025	567.221	129.731	-135.276	-1.178	-0.001	-3.141	72583	-2.367	64.365	-9.331	-15.606	0.335	1.527	-0.130	3.737	3.073	1.532	-0.615	-1.351	-0.248	-0.014	1.135	0.354	-1.445	-0.540	0.659	-1.380	
0.14550	0.00022	0.00022	567.359	129.715	-135.233	-1.178	-0.001	-3.141	72817	-0.893	62.418	-7.464	-13.049	0.462	0.080	0.085	2.324	2.828	1.316	-0.511	-0.781	-0.137	-0.014	1.135	0.354	-1.445	-0.540	0.659	-1.380	
2.75908	0.00587	0.00021	568.517	127.210	-135.231	-1.178	-0.001	-3.141	73099	-0.063	62.403	-7.059	-13.108	0.357	-0.077	0.115	0.339	-1.309	1.281	-0.447	-0.259	0.019	-0.017	1.135	0.354	-1.443	-0.540	0.660	-1.384	
2.23504	0.00758	0.00043	569.210	125.085	-135.248	-1.178	-0.001	-3.142	73377	-0.250	62.590	-7.157	-13.212	0.352	-0.043	0.081	0.406	-1.187	1.267	-0.386	-0.318	-0.018	-0.022	1.136	0.354	-1.441	-0.539	0.661	-1.390	
0.02423	0.00019	0.00005	569.222	125.069	-135.235	-1.178	-0.001	-3.142	73644	-0.195	62.578	-7.108	-13.196	0.345	-0.046	0.138	0.484	-1.220	1.255	-0.401	-0.339	-0.017	-0.022	1.136	0.354	-1.441	-0.539	0.661	-1.390	
0.03201	0.02055	0.03642	569.212	125.100	-135.234	-1.142	-0.001	3.142	73896	-0.191	62.490	-7.120	-13.179	0.425	-0.024	0.130	0.381	-1.217	1.231	-0.395	-0.252	0.056	-0.022	1.136	0.354	-1.441	-0.539	0.661	-1.410	
0.01585	0.15683	0.17891	569.218	125.085	-135.234	-0.963	-0.001	3.141	74177	-0.200	62.518	-7.134	-13.206	0.320	-0.005	0.168	0.674	-1.121	1.213	-0.334	-0.356	0.055	-0.022	1.136	0.354	-1.441	-0.539	0.661	-1.567	
0.00378	0.17888	0.15648	569.221	125.083	-135.232	-0.806	-0.000	3.141	74459	-0.210	62.501	-7.121	-13.166	0.364	-0.015	0.167	0.767	-1.034	1.237	-0.284	-0.368	0.062	-0.022	1.136	0.354	-1.441	-0.539	0.661	-1.746	
0.00098	0.03658	0.02102	569.222	125.083	-135.232	-0.785	-0.000	3.141	74744	-0.204	62.529	-7.118	-13.166	0.363	-0.016	0.111	0.886	-1.034	1.233	-0.278	-0.434	0.007	-0.022	1.136	0.354	-1.441	-0.539	0.661	-1.783	
0.00060	0.00000	0.00000	569.222	125.083	-135.232	-0.785	-0.000	3.141	74969	-1.190	62.487	-7.352	-12.920	0.537	0.129	-0.044	0.907	-1.214	1.212	-0.362	-0.531	-0.041	-0.022	1.136	0.354	-1.441	-0.539	0.661	-1.783	
4.75491	0.01299	0.00022	565.886	128.470	-135.200	-0.785	-0.001	3.142	75224	-1.038	62.266	-7.348	-12.907	0.613	0.138	-0.055	2.654	-1.027	0.962	-0.304	-1.669	-0.145	-0.018	1.133	0.354	-1.448	-0.541	0.657	-1.774	
5.26739	0.02256	0.00019	562.193	132.227	-135.217	-0.785	-0.001	-3.142	75504	-0.531	62.158	-7.029	-12.819	0.551	0.090	-0.008	2.300	-1.273	1.154	-0.386	-1.407	-0.115	-0.010	1.129	0.354	-1.461	-0.546	0.650	-1.760	
0.01782	0.00019	0.00010	562.195	132.227	-135.234	-0.785	-0.001	-3.141	75787	-0.847	62.194	-7.178	-12.849	0.554	0.080	-0.020	2.272	-1.020	1.018	-0.277	-1.409	-0.118	-0.010	1.129	0.354	-1.461	-0.546	0.650	-1.759	
2.51417	0.00470	0.00004	560.394	133.982	-135.271	-0.785	-0.001	-3.142	75988	-0.811	62.325	-6.960	-12.568	0.646	0.117	-0.055	3.031	-1.190	1.243	-0.371	-1.852	-0.167	-0.009	1.128	0.354	-1.464	-0.546	0.649	-1.756	
6.99219	0.02454	0.00020	555.421	138.897	-135.248	-0.785	-0.000	3.142	76268	-0.418	61.811	-6.928	-12.577	0.551	0.033	0.011	2.769	-1.096	1.292	-0.281	-1.704	-0.146	0.000	1.123	0.354	-1.477	-0.551	0.642	-1.740	
0.44738	0.00585	0.00026	555.159	139.259	-135.226	-0.785	-0.001	-3.141	76548	-0.777	61.864	-7.128	-12.684	0.551	0.036	0.009	2.177	-1.153	1.239	-0.291	-1.377	-0.107	0.002	1.122	0.354	-1.480	-0.552	0.640	-1.736	
0.42516	0.00009	0.00037	554.818	139.507	-135.280	-0.786	-0.000	3.141	76783	-0.605	61.657	-7.155	-12.233	0.567	0.102	-0.059	2.490	-1.358	1.117	-0.435	-1.666	-0.155	0.002	1.122	0.354	-1.480	-0.552	0.640	-1.736	
6.89163	0.02118	0.00022	549.964	144.399	-135.272	-0.785	-0.000	-3.142	77064	0.800	60.946	-6.080	-12.449	0.641	0.051	-0.024	2.607	-1.585	1.027	-0.531	-1.648	-0.139	0.010	1.118	0.354	-1.491	-0.556	0.634	-1.722	
2.72490	0.01369	0.00009	548.029	146.317	-135.258	-0.785	-0.001	-3.142	77344	-0.747	61.356	-7.076	-12.425	0.560	0.081	0.015	2.108	-1.204	1.026	-0.372	-1.342	-0.092	0.015	1.115	0.354	-1.498	-0.558	0.630	-1.713	
0.05349	0.00009	0.00008	548.004	146.358	-135.282	-0.785	-0.001	3.142	77572	-1.835	61.928	-7.717	-12.265	0.614	0.126	-0.043	2.009	-1.508	1.165	-0.483	-1.377	-0.117	0.015	1.115	0.354	-1.498	-0.558	0.630	-1.713	
3.36600	0.01205	0.00069	545.385	148.472	-135.292	-0.786	-0.001	3.141	77828	-5.005	61.770	-11.477	-13.686	-0.332	1.754	-0.157	5.687	4.737	-0.372	-0.066	-1.561	-0.235	0.019	1.113	0.354	-1.504	-0.561	0.627	-1.705	
0.36840	0.00064	0.00057	545.498	148.823	-135.274	-0.785	-0.001	3.142	78062	-2.119	62.520	-9.597	-13.993	0.003	1.007	0.076	4.458	6.732	1.114	0.215	-0.989	-0.165	0.019	1.113	0.354	-1.504	-0.561	0.627	-1.704	
3.04037	0.00939	0.00075	547.965	147.056	-135.081	-0.785	-0.001	-3.141	78344	-1.218	61.108	-7.656	-11.868	0.261	-0.138	0.173	0.140	-0.819	1.171	-0.172	-0.032	0.067	0.016	1.115	0.355	-1.499	-0.559	0.629	-1.711	
2.01164	0.00819	0.00071	548.998	145.340	-135.266	-0.785	-0.001	3.142	78623	-0.134	61.028	-6.988	-12.422	0.404	-0.089	0.104	0.792	-1.073	1.167	-0.238	-0.428	0.017	0.013	1.116	0.354	-1.495	-0.557	0.631	-1.716	
0.03599	0.00013	0.00006	548.980	145.310	-135.272	-0.785	-0.001	3.141	78869	-0.250	61.177	-7.071	-12.450	0.399	-0.080	0.187	0.727	-1.016	1.115	-0.217	-0.403	0.053	0.013	1.116	0.354	-1.495	-0.557	0.632	-1.716	
0.00699	0.03095	0.04989	548.975	145.305	-135.273	-0.735	-0.001	3.141	79124	-0.137	61.415	-7.004	-12.522	0.382	-0.059	0.232	0.769	-1.008	1.215	-0.219	-0.386	0.082	0.013	1.116	0.354	-1.495	-0.557	0.632	-1.747	
0.00822	0.17106	0.18885	548.971	145.298	-135.273	-0.547	-0.000	3.141	79404	-0.192	61.198	-7.043	-12.491	0.342	-0.070	0.124	0.979	-0.763	1.167	-0.102	-0.437	0.071	0.013	1.116	0.354	-1.495	-0.557	0.632	-1.918	
0.00579	0.16527	0.14139	548.966	145.294	-135.273	-0.405	-0.000	3.141	79687	-0.206	61.327	-7.076	-12.509	0.407	-0.074	0.093	1.112	-0.641	1.190	-0.030	-0.474	0.049	0.013	1.116	0.354	-1.495	-0.557	0.632	-2.084	
0.00138	0.02538	0.01253	548.966	145.293	-135.272	-0.393	-0.000	3.141	79951	-0.211	61.259	-7.064	-12.468	0.413	-0.079	0.056	1.276	-0.580	1.180	0.025	-0.568	-0.027	0.013	1.116	0.354	-1.495	-0.557	0.632	-2.109	
0.01082	0.00003	0.00003	548.955	145.293	-135.275	-0.393	-0.000	3.141	80189	-0.617	61.497	-7.060	-11.963	0.575	0.069	-0.044	2.349	-0.551	1.169	0.043	-1.205	-0.097	0.013	1.116	0.354	-1.495	-0.557	0.632	-2.109	
6.05328	0.02139	0.00014	543.377	147.643	-135.213	-0.393	-0.001	3.141	80467	-0.056	60.675	-6.774	-11.948	0.598	0.101	-0.058	3.091	-0.443	1.021	0.183	-1.810	-0.171	0.016	1.111	0.354	-1.509	-0.563	0.624	-2.097	
3.79516	0.02187	0.00024	539.900	149.164	-135.212	-0.393	-0.001	3.141	80748	-0.722	60.849	-7.032	-12.196	0.534	0.042	-0.012	2.431	-0.083	1.040	0.334	-1.426	-0.133	0.020	1.106	0.354	-1.523	-0.568	0.616	-2.085	
0.14034	0.00014	0.00022	539.766	149.148	-135.250	-0.393	-0.001	3.141	80983	-2.127	61.780	-7.750	-11.348	0.579	0.090	-0.061	2.475	-0.293	1.194	0.270	-1.433	-0.136	0.020	1.106	0.354	-1.523	-0.568	0.616	-2.085	
3.89657	0.01167	0.00012	536.174	150.659	-135.266	-0.393	-0.001	3.141	81217	-0.848	60.191	-6.980	-11.262	0.592	0.102	-0.059	3.202	-0.696	1.235	0.119	-1.909	-0.177	0.022	1.104	0.354	-1.531	-0.571	0.612	-2.078	
6.12007	0.02980	0.00023	530.524	153.010	-135.235	-0.393	-0.001	3.141	81498	-1.027	60.316	-7.214	-11.831	0.511	0.080	0.007	2.626	-0.226	0.806	0.250	-1.548	-0.124	0.027	1.097	0.354	-1.550	-0.578	0.601	-2.061	
0.07933	0.00145	0.00031	530.598	153.014	-135.263	-0.393	-0.001	3.141	81778	-0.967	59.808	-7.085	-11.220	0.489	0.060	-0.024	2.593	-0.126	0.974	0.298	-1.532	-0.129	0.027	1.097	0.354	-1.550	-0.579	0.601	-2.060	
2.89176	0.00718	0.00015	527.907	154.073	-135.260	-0.393	-0.001	3.141	82028	-1.071	59.624	-7.045	-11.495	0.622	0.146	-0.057	3.096	-0.299	0.635	0.251	-1.924	-0.176	0.028	1.095	0.354	-1.555	-0.581	0.598	-2.056	
6.92890	0.03052	0.00016	521.486	156.679	-135.254	-0.393	-0.000	3.141	82310	-2.551	59.752	-8.429	-11.190	0.297	0.370	-0.064	3.301	0.402	1.213	0.157	-1.592	-0.169	0.034	1.088	0.354	-1.574	-0.589	0.588	-2.038	
0.23229	0.00546	0.00017	521.300	156.815	-135.282	-0.393	-0.001	3.141	82591	-1.424	59.377	-7.969	-11.289	0.251	0.328	-0.076	4.220	1.805	0.791	0.449	-1.905	-0.208	0.035	1.087	0.354	-1.577	-0.590	0.586	-2.035	
0.86467	0.00163	0.00028	520.448	156.946	-135.345	-0.393	-0.001	3.141	82778	-4.242	60.204	-11.074	-12.048	-0.346	1.303	-0.093	4.679	4.838	1.257	0.420	-1.567	-0.227	0.035	1.087	0.354	-1.578	-0.590	0.586	-2.034	
0.24342	0.00214	0.00028	520.490	157.166	-135.250	-0.393	-0.000	3.141	83002	-2.317	58.881	-9.131	-11.722	-0.142	0.618	0.062	4.374	6.370	0.836	0.612	-1.306	-0.211	0.035	1.086	0.354	-1.580	-0.591	0.585	-2.033	
2.65565	0.01007	0.00071	523.069	156.537	-135.225	-0.392	-0.000	-3.142	83285	-0.148	59.597	-7.006	-11.400	0.265	-0.126	0.141	0.945	-0.308	1.040	0.082	-0.343	0.017	0.034	1.088	0.355	-1.573	-0.588	0.588	-2.039	
2.36311	0.01185	0.00072	525.013	155.194	-135.288	-0.393	-0.000	3.141	83564	-0.288	59.557	-6.983	-11.678	0.344	-0.040	0.106	1.171	-0.302	0.794	0.085	-0.559	-0.012	0.031	1.091	0.354	-1.566	-0.585	0.592	-2.046	
0.03888	0.00026	0.00006	524.975	155.187	-135.293	-0.393	-0.000	3.141	83799	-0.253	59.647	-7.010	-11.686	0.339	-0.044	0.151	1.156	-0.417	0.877	0.044	-0.546	-0.011	0.031	1.091	0.354	-1.566	-0.585	0.592	-2.046	
0.00443	0.01623	0.03091	524.976	155.191	-135.292	-0.362	-0.000	3.141	84032	-0.233	59.556	-7.052	-11.646	0.362	-0.061	0.118	1.152	-0.416	1.028	0.050	-0.505	0.028	0.031	1.091	0.354	-1.566	-0.585	0.592	-2.062	
0.02916	0.14931	0.17238	524.988	155.164	-135.290	-0.189	-0.000	3.141	84315	-0.229	59.506	-7.026	-11.652	0.391	-0.043	0.122	1.200	-0.154	0.943	0.168	-0.475	0.015	0.031	1.091	0.354	-1.566	-0.585	0.592	-2.211	
0.02160	0.18531	0.16460	525.008	155.162	-135.284	-0.025	-0.000	3.141	84597	-0.229	59.585	-6.988	-11.621	0.314	-0.041	0.115	1.226	0.016	0.967	0.246	-0.456	-0.003	0.031	1.091	0.354	-1.566	-0.585	0.592	-2.396	
0.01008	0.04209	0.02488	525.015	155.169	-135.281	0.000	-0.000	3.141	84877	-0.321	59.566	-7.041	-11.646	0.317	-0.040	0.061	1.331	0.111	0.930	0.306	-0.518	-0.055	0.031	1.091	0.354	-1.566	-0.585	0.592	-2.438	
0.00235	0.00001	0.00001	525.016	155.171	-135.280	0.000	-0.000	3.141	85120	-0.138	59.771	-6.752	-10.836	0.527	0.013	-0.052	2.031	-0.088	0.993	0.248	-0.825	-0.084	0.031	1.091	0.354	-1.566	-0.585	0.592	-2.438	
4.96708	0.01828	0.00029	520.049	155.237	-135.265	0.000	-0.000	3.141	85391	-0.570	59.201	-7.037	-11.362	0.646	0.179	-0.072	2.862	0.258	1.226	0.599	-1.537	-0.142	0.032	1.086	0.354	-1.579	-0.591	0.585	-2.430	
4.89808	0.02938	0.00016	515.151	155.245	-135.229	-0.000	-0.000	3.141	85675	-0.773	58.983	-7.068	-11.080	0.529	0.098	-0.043	2.565	0.280	0.823	0.583	-1.367	-0.132	0.032	1.079	0.354	-1.599	-0.600	0.574	-2.416	
0.08685	0.00024	0.00011	515.100	155.246	-135.299	-0.000	-0.000	3.141	85908	-0.620	59.163	-6.985	-10.846	0.523	0.089	-0.055	2.638	0.536	1.078	0.704	-1.375	-0.136	0.032	1.080	0.354	-1.599	-0.600	0.574	-2.416	
2.83555	0.00772	0.00021	512.265	155.222	-135.257	0.000	-0.000	3.141	86159	-0.687	58.659	-6.820	-11.138	0.609	0.189	-0.066	3.288	0.470	0.933	0.735	-1.761	-0.160	0.032	1.078	0.354	-1.604	-0.602	0.571	-2.412	
6.81211	0.03379	0.00017	505.453	155.238	-135.257	0.000	-0.000	3.141	86438	-0.579	58.670	-6.922	-10.785	0.554	0.096	-0.031	2.932	1.047	1.039	0.983	-1.625	-0.161	0.033	1.070	0.354	-1.627	-0.613	0.558	-2.395	
0.31210	0.00611	0.00006	505.142	155.251	-135.279	-0.000	-0.000	3.141	86718	-0.609	58.346	-6.889	-10.799	0.544	0.100	-0.031	2.568	0.762	0.811	0.839	-1.438	-0.138	0.033	1.069	0.354	-1.631	-0.615	0.556	-2.392	
1.45655	0.00129	0.00042	503.689	155.174	-135.349	-0.000	-0.000	3.141	86954	-0.856	57.637	-6.914	-10.327	0.583	0.170	-0.071	3.417	0.681	1.213	0.903	-1.892	-0.184	0.033	1.069	0.354	-1.632	-0.616	0.556	-2.391	
7.10197	0.03346	0.00034	496.587	155.202	-135.304	0.000	-0.000	3.141	87234	-1.110	57.580	-7.120	-10.278	0.562	0.123	-0.060	2.986	0.660	0.621	0.875	-1.746	-0.171	0.034	1.061	0.354	-1.653	-0.627	0.543	-2.374	
1.48726	0.01334	0.00021	495.101	155.235	-135.292	-0.000	-0.000	3.141	87475	-0.823	57.609	-6.921	-10.313	0.540	0.111	-0.050	2.839	0.889	0.755	0.929	-1.623	-0.161	0.034	1.058	0.354	-1.662	-0.632	0.538	-2.367	
0.01304	0.00006	0.00002	495.093	155.235	-135.302	-0.000	-0.000	3.141	87712	-0.692	57.600	-6.948	-10.374	0.597	0.240	-0.073	3.310	0.597	0.794	0.850	-1.820	-0.171	0.034	1.058	0.354	-1.662	-0.632	0.538	-2.367	
3.15560	0.01704	0.00056	491.954	154.947	-135.163	-0.000	-0.001	3.141	87952	-4.515	55.181	-11.065	-8.501	-0.710	0.688	-0.176	5.271	7.068	0.136	1.220	-1.582	-0.288	0.035	1.054	0.354	-1.673	-0.638	0.532	-2.358	
0.39053	0.00089	0.00059	491.736	155.255	-135.262	0.000	-0.000	3.141	88185	-2.679	57.043	-9.176	-9.586	-0.224	0.244	0.041	4.211	7.522	0.531	1.302	-1.096	-0.250	0.035	1.055	0.354	-1.672	-0.638	0.532	-2.358	
3.10676	0.01346	0.00064	494.819	155.625	-135.355	0.000	0.000	-3.142	88464	-0.735	57.765	-6.996	-9.806	0.210	-0.187	0.092	1.454	0.650	0.961	0.621	-0.601	-0.077	0.035	1.058	0.355	-1.664	-0.633	0.537	-2.365	
1.80104	0.01073	0.00063	496.568	155.197	-135.303	-0.000	0.000	3.141	88744	-0.469	57.823	-6.850	-10.507	0.316	-0.085	0.053	1.566	0.642	0.903	0.665	-0.727	-0.096	0.034	1.060	0.354	-1.657	-0.629	0.541	-2.371	
1.12489	0.00069	0.00042	496.765	155.229	-134.196	-0.000	-0.000	3.141	88899	-0.755	58.840	-6.911	-9.981	0.221	-0.256	0.122	1.889	0.389	2.003	0.623	-0.812	-0.101	0.034	1.059	0.354	-1.657	-0.629	0.541	-2.371	
15.56403	0.04736	0.00015	496.779	155.239	-118.632	0.000	-0.001	3.141	89180	-0.969	55.843	-6.614	-10.862	0.246	-0.140	0.121	1.941	0.450	1.172	0.677	-0.762	-0.103	0.034	1.030	0.354	-1.668	-0.602	0.554	-2.390	
13.04928	0.05805	0.00047	496.638	155.193	-105.584	-0.000	-0.000	3.141	89461	-0.574	56.817	-6.458	-11.491	0.253	-0.093	0.051	2.219	0.825	1.771	0.867	-0.973	-0.174	0.035	0.994	0.354	-1.681	-0.569	0.571	-2.414	
0.31565	0.00435	0.00017	496.607	155.193	-105.270	-0.000	-0.000	3.141	89740	-0.678	56.895	-6.538	-11.420	0.282	-0.090	-0.087	2.106	0.845	1.393	0.862	-0.955	-0.179	0.035	0.991	0.354	-1.682	-0.567	0.572	-2.416	
0.00201	0.04019	0.07085	496.606	155.191	-105.269	-0.071	-0.000	3.141	89977	-0.734	56.585	-6.544	-11.323	0.276	-0.059	0.065	2.432	0.700	1.148	0.789	-1.271	-0.259	0.035	0.991	0.354	-1.682	-0.567	0.572	-2.375	
0.00170	0.31210	0.35687	496.604	155.190	-105.269	-0.428	-0.000	3.141	90259	-0.769	56.559	-6.600	-11.369	0.197	-0.047	-0.062	2.435	-0.359	1.026	0.173	-1.444	-0.242	0.035	0.991	0.354	-1.682	-0.567	0.572	-2.063	
0.00227	0.44304	0.44141	496.602	155.189	-105.269	-0.869	-0.000	3.141	90541	-0.712	56.753	-6.547	-11.386	0.381	-0.076	-0.219	2.118	-1.445	1.081	-0.531	-1.445	-0.271	0.035	0.991	0.354	-1.682	-0.567	0.572	-1.620	
0.00050	0.44605	0.44213	496.602	155.189	-105.269	-1.311	-0.000	3.142	90824	-0.723	56.694	-6.566	-11.352	0.212	-0.082	-0.101	1.414	-2.203	1.094	-1.112	-1.144	-0.291	0.035	0.991	0.354	-1.682	-0.567	0.572	-1.174	
0.00110	0.29811	0.24741	496.601	155.188	-105.269	-1.559	-0.000	-3.142	91107	-0.738	56.641	-6.564	-11.360	0.299	-0.062	-0.027	1.053	-2.363	1.097	-1.260	-0.963	-0.274	0.035	0.991	0.354	-1.682	-0.567	0.572	-0.876	
0.00016	0.03142	0.01223	496.601	155.188	-105.269	-1.571	-0.000	-3.142	91374	-0.747	56.636	-6.561	-11.345	0.305	-0.070	-0.120	0.978	-2.246	1.111	-1.194	-0.914	-0.226	0.035	0.991	0.354	-1.682	-0.567	0.572	-0.845	
0.00031	0.03886	0.06918	496.601	155.188	-105.269	-1.640	-0.000	-3.142	91595	-0.823	56.397	-6.534	-11.292	0.207	-0.012	-0.169	0.655	-2.454	1.057	-1.410	-0.760	-0.273	0.035	0.991	0.354	-1.682	-0.567	0.572	-0.806	
0.00025	0.31336	0.35529	496.601	155.188	-105.269	-1.995	-0.000	-3.141	91879	-0.774	56.666	-6.578	-11.367	0.270	-0.054	-0.086	-0.347	-2.557	1.073	-1.634	-0.160	-0.277	0.035	0.991	0.354	-1.682	-0.567	0.572	-0.493	
0.00070	0.43986	0.44143	496.600	155.188	-105.269	-2.437	-0.000	-3.141	92158	-0.768	56.754	-6.579	-11.313	0.267	-0.068	0.227	-1.461	-2.193	1.060	-1.588	0.565	-0.275	0.035	0.991	0.354	-1.682	-0.567	0.572	-0.053	
0.00032	0.44296	0.43797	496.600	155.188	-105.269	-2.875	-0.000	-3.141	92440	-0.703	56.616	-6.545	-11.315	0.306	-0.058	-0.061	-2.205	-1.498	1.056	-1.297	1.150	-0.309	0.035	0.991	0.354	-1.682	-0.567	0.572	0.390	
0.00056	0.30080	0.25178	496.599	155.188	-105.269	-3.127	0.000	-3.141	92722	-0.749	56.659	-6.582	-11.367	0.309	-0.057	-0.069	-2.332	-1.104	1.050	-1.104	1.287	-0.292	0.035	0.991	0.354	-1.682	-0.567	0.572	0.691	
0.00010	0.03495	0.01512	496.600	155.188	-105.269	3.141	0.000	-3.141	93001	-0.601	54.879	-6.381	-10.892	0.499	0.030	-0.113	-2.284	-0.993	1.197	-1.064	1.271	-0.235	0.035	0.991	0.354	-1.682	-0.567	0.572	0.726	
4.62035	0.00965	0.00023	496.560	155.153	-109.889	-3.142	-0.000	-3.141	93236	-0.470	58.070	-6.656	-10.814	0.585	0.089	-0.134	-2.422	-0.804	-0.131	-0.847	1.509	-0.188	0.035	0.997	0.354	-1.680	-0.572	0.569	0.730	
18.95158	0.06589	0.00031	496.650	155.227	-128.841	-3.141	0.000	-3.141	93516	-0.515	58.605	-7.081	-10.374	0.578	0.122	-0.120	-2.243	-0.660	-0.109	-0.773	1.498	-0.153	0.034	1.038	0.354	-1.665	-0.609	0.550	0.757	
6.44422	0.03501	0.00024	496.727	155.219	-135.284	3.142	0.000	-3.141	93798	-0.202	57.757	-6.726	-10.524	0.548	0.108	-0.075	-2.278	-0.487	0.666	-0.769	1.493	-0.156	0.034	1.060	0.354	-1.657	-0.629	0.541	0.771	
0.02048	0.00022	0.00003	496.708	155.222	-135.291	3.142	0.000	-3.141	94029	-0.464	57.680	-6.869	-10.535	0.543	0.116	0.067	-2.135	-0.421	0.464	-0.711	1.389	-0.122	0.034	1.060	0.354	-1.657	-0.629	0.541	0.771	
0.00199	0.01959	0.03502	496.708	155.223	-135.292	-3.107	0.000	-3.141	94279	-0.454	57.600	-6.803	-10.465	0.456	0.053	0.161	-1.808	-0.395	0.733	-0.685	1.123	0.007	0.034	1.060	0.354	-1.657	-0.629	0.541	0.751	
0.00697	0.15487	0.17638	496.709	155.230	-135.292	-2.930	0.000	-3.141	94561	-0.450	57.457	-6.901	-10.480	0.531	0.090	0.105	-1.711	-0.833	0.646	-0.935	0.982	0.000	0.034	1.060	0.354	-1.657	-0.629	0.541	0.596	
0.00562	0.18037	0.15962	496.708	155.236	-135.292	-2.771	0.000	-3.141	94843	-0.524	57.559	-6.877	-10.492	0.548	0.079	0.099	-1.621	-0.991	0.651	-1.020	0.889	0.006	0.034	1.060	0.354	-1.657	-0.629	0.541	0.416	
0.00102	0.03788	0.02173	496.708	155.237	-135.292	-2.749	0.000	-3.141	95122	-0.542	57.570	-6.899	-10.487	0.543	0.081	0.077	-1.642	-1.054	0.650	-1.059	0.908	-0.020	0.034	1.060	0.354	-1.657	-0.629	0.541	0.378	
0.00037	0.00001	0.00000	496.708	155.237	-135.292	-2.749	0.000	-3.141	95359	0.120	58.202	-6.684	-9.749	0.594	0.112	-0.003	-1.673	-1.104	0.359	-1.073	0.938	-0.027	0.034	1.060	0.354	-1.657	-0.629	0.541	0.378	
4.16999	0.01372	0.00021	492.870	153.609	-135.217	-2.749	0.000	-3.141	95592	0.081	57.387	-6.659	-10.043	0.629	0.170	-0.052	-2.779	-0.751	1.200	-0.908	1.407	-0.072	0.032	1.057	0.354	-1.666	-0.634	0.536	0.384	
5.88565	0.03251	0.00011	487.427	151.369	-135.252	-2.749	0.000	-3.141	95872	-0.317	56.672	-6.839	-9.862	0.496	0.111	-0.028	-2.244	-0.725	0.910	-0.866	1.152	-0.080	0.028	1.050	0.354	-1.689	-0.647	0.523	0.397	
0.06170	0.00111	0.00013	487.454	151.409	-135.291	-2.749	0.000	-3.141	96155	-0.268	56.722	-6.811	-9.702	0.505	0.105	-0.044	-2.189	-0.786	1.030	-0.894	1.126	-0.080	0.028	1.049	0.354	-1.689	-0.648	0.523	0.398	
2.87040	0.00725	0.00026	484.803	150.308	-135.316	-2.749	-0.000	-3.141	96390	-0.296	56.233	-6.797	-9.284	0.577	0.133	-0.106	-2.780	-0.585	1.123	-0.868	1.418	-0.101	0.027	1.048	0.354	-1.694	-0.651	0.520	0.401	
6.80646	0.03360	0.00011	478.527	147.676	-135.277	-2.749	-0.000	-3.141	96670	-0.233	56.350	-6.742	-9.537	0.540	0.130	-0.062	-2.579	-0.865	1.143	-0.973	1.337	-0.095	0.023	1.041	0.354	-1.717	-0.665	0.508	0.415	
0.31555	0.00703	0.00019	478.222	147.592	-135.280	-2.749	0.000	-3.141	96905	-0.258	56.237	-6.775	-9.534	0.529	0.130	-0.063	-2.394	-0.916	1.027	-1.004	1.259	-0.100	0.022	1.039	0.354	-1.721	-0.668	0.505	0.418	
0.43003	0.00004	0.00039	477.831	147.421	-135.331	-2.749	-0.000	-3.141	97092	-0.055	55.773	-6.806	-9.485	0.600	0.198	-0.098	-2.999	-0.695	1.252	-0.922	1.503	-0.095	0.022	1.039	0.354	-1.721	-0.668	0.505	0.418	
6.92847	0.02932	0.00018	471.433	144.761	-135.291	-2.749	-0.000	-3.141	97374	-2.430	53.279	-9.073	-6.598	-0.357	0.075	-0.129	-5.205	-4.656	0.747	-1.437	1.634	-0.197	0.018	1.033	0.354	-1.740	-0.680	0.495	0.431	
2.16899	0.01772	0.00059	469.485	143.817	-135.158	-2.749	0.001	-3.141	97624	-4.070	51.013	-10.503	-4.441	-1.049	-0.218	-0.196	-7.478	-8.767	-0.940	-1.443	1.563	-0.315	0.016	1.029	0.354	-1.751	-0.688	0.488	0.440	
0.98817	0.00440	0.00128	470.188	144.430	-135.486	-2.749	-0.001	-3.141	97893	-0.235	55.546	-6.583	-9.300	0.254	-0.149	0.089	-1.282	-2.794	0.452	-1.071	0.419	-0.116	0.016	1.031	0.354	-1.749	-0.686	0.490	0.438	
3.81986	0.01750	0.00069	473.674	145.981	-135.309	-2.749	-0.000	-3.141	98176	-0.626	55.547	-6.719	-9.449	0.337	-0.031	0.070	-1.133	-1.094	0.902	-1.015	0.593	-0.084	0.019	1.034	0.355	-1.738	-0.679	0.496	0.430	
0.33007	0.00256	0.00048	473.772	145.668	-135.275	-2.749	-0.000	-3.141	98426	-0.594	55.699	-6.701	-9.348	0.348	-0.036	0.065	-1.356	-1.324	0.668	-1.188	0.728	-0.084	0.019	1.034	0.354	-1.736	-0.677	0.497	0.428	
0.00326	0.00248	0.00920	473.769	145.669	-135.273	-2.740	-0.000	-3.141	98676	-0.625	55.719	-6.776	-9.435	0.372	-0.036	0.185	-1.180	-1.209	0.762	-1.095	0.600	-0.053	0.019	1.034	0.354	-1.736	-0.678	0.497	0.426	
0.02882	0.10589	0.13108	473.761	145.696	-135.274	-2.609	-0.000	-3.141	98958	-0.637	55.508	-6.719	-9.382	0.303	-0.056	0.188	-0.857	-1.379	0.669	-1.147	0.358	-0.041	0.019	1.034	0.354	-1.736	-0.677	0.497	0.320	
0.01890	0.20214	0.19399	473.776	145.707	-135.274	-2.415	-0.000	-3.141	99237	-0.620	55.628	-6.734	-9.412	0.273	-0.053	0.157	-0.624	-1.357	0.747	-1.088	0.172	-0.035	0.019	1.034	0.354	-1.736	-0.677	0.497	0.118	
0.02361	0.08212	0.05845	473.799	145.712	-135.270	-2.356	-0.000	-3.141	99519	-0.571	55.598	-6.711	-9.408	0.278	-0.050	0.060	-0.613	-1.576	0.716	-1.210	0.167	-0.099	0.019	1.034	0.354	-1.736	-0.677	0.497	0.036	
0.00134	0.00038	0.00003	473.800	145.713	-135.270	-2.356	-0.000	-3.141	99781	0.233	55.425	-6.276	-9.043	0.272	-0.057	0.019	-0.596	-1.625	0.699	-1.236	0.163	-0.109	0.019	1.034	0.354	-1.736	-0.677	0.497	0.035	
3.05765	0.00757	0.00025	471.614	143.576	-135.313	-2.356	-0.000	-3.141	100031	-0.571	55.472	-7.076	-8.979	0.534	0.205	-0.054	-2.105	-1.950	1.117	-1.429	0.907	-0.072	0.016	1.033	0.354	-1.741	-0.681	0.494	0.038	
6.76138	0.03000	0.00011	466.836	138.792	-135.296	-2.356	-0.000	-3.141	100314	-0.231	55.009	-6.599	-8.901	0.495	0.102	-0.027	-2.025	-1.560	1.567	-1.341	0.865	-0.080	0.007	1.027	0.354	-1.760	-0.695	0.483	0.046	
0.07331	0.00466	0.00020	466.842	138.718	-135.296	-2.356	-0.000	-3.141	100579	-0.258	55.202	-6.657	-8.937	0.489	0.100	-0.021	-1.698	-1.597	1.102	-1.294	0.734	-0.075	0.006	1.026	0.354	-1.763	-0.697	0.481	0.048	
1.55913	0.00147	0.00027	465.667	137.694	-135.277	-2.356	-0.000	-3.141	100812	-0.363	55.118	-6.763	-8.257	0.554	0.126	-0.092	-2.351	-2.212	1.108	-1.600	1.033	-0.088	0.005	1.026	0.354	-1.764	-0.697	0.481	0.048	
7.08979	0.03020	0.00017	460.684	132.651	-135.302	-2.356	-0.000	-3.141	101095	-0.249	54.589	-6.719	-8.520	0.482	0.165	-0.004	-1.668	-2.139	0.680	-1.618	0.846	-0.078	-0.005	1.020	0.354	-1.783	-0.712	0.470	0.057	
1.34815	0.01112	0.00017	459.761	131.669	-135.280	-2.356	-0.000	-3.141	101375	-0.241	54.430	-6.590	-8.565	0.488	0.142	-0.006	-1.716	-1.638	0.964	-1.338	0.788	-0.063	-0.008	1.018	0.354	-1.790	-0.718	0.466	0.061	
0.60452	0.00012	0.00051	459.253	131.348	-135.343	-2.356	-0.000	-3.141	101607	-0.376	54.081	-6.738	-7.955	0.577	0.129	-0.066	-2.250	-1.989	0.984	-1.486	1.023	-0.058	-0.008	1.018	0.354	-1.790	-0.718	0.466	0.061	
6.92556	0.02696	0.00037	454.406	126.401	-135.296	-2.356	-0.000	-3.141	101887	-0.956	53.614	-7.075	-8.344	0.558	0.205	-0.069	-2.080	-1.846	1.082	-1.554	0.987	-0.093	-0.017	1.013	0.354	-1.807	-0.732	0.457	0.070	
2.54347	0.01642	0.00030	452.611	124.598	-135.300	-2.356	-0.000	-3.141	102162	-0.226	53.709	-6.507	-8.135	0.511	0.039	-0.053	-1.682	-1.540	0.930	-1.308	0.703	-0.073	-0.022	1.010	0.354	-1.817	-0.740	0.451	0.075	
0.04956	0.00007	0.00012	452.613	124.549	-135.299	-2.356	-0.000	-3.141	102400	0.048	53.747	-6.914	-6.222	0.288	-0.354	-0.102	-2.399	-1.680	0.950	-1.373	1.076	-0.070	-0.022	1.010	0.354	-1.817	-0.740	0.451	0.075	
4.21429	0.02021	0.00104	450.005	121.250	-135.025	-2.357	0.001	-3.141	102684	-2.611	49.084	-8.357	-2.309	-0.788	-0.904	-0.152	-4.916	-8.330	0.284	-1.593	0.794	-0.228	-0.029	1.006	0.354	-1.828	-0.751	0.445	0.082	
0.43073	0.00069	0.00078	449.629	121.354	-135.207	-2.356	0.000	-3.141	102918	-2.635	50.470	-8.588	-3.970	-0.766	-0.589	-0.002	-4.559	-11.213	-0.004	-1.848	0.516	-0.274	-0.029	1.007	0.354	-1.828	-0.751	0.445	0.082	
3.03598	0.01221	0.00161	451.067	124.010	-135.515	-2.356	-0.001	3.141	103198	-0.180	53.511	-6.277	-7.770	0.203	-0.158	0.083	-0.050	-1.720	0.517	-1.228	-0.055	-0.089	-0.024	1.009	0.355	-1.822	-0.744	0.449	0.077	
1.93306	0.00981	0.00104	452.808	124.827	-135.315	-2.356	-0.000	-3.141	103477	-0.660	53.666	-6.603	-8.261	0.321	-0.025	0.051	-0.631	-1.620	0.562	-1.313	0.239	-0.090	-0.021	1.011	0.354	-1.816	-0.739	0.452	0.074	
0.17997	0.00022	0.00028	452.974	124.832	-135.246	-2.356	-0.000	-3.141	103684	-0.473	53.662	-6.516	-8.272	0.323	-0.022	0.136	-0.623	-1.614	0.535	-1.291	0.229	-0.060	-0.021	1.011	0.354	-1.816	-0.739	0.452	0.074	
0.02003	0.03523	0.05477	452.979	124.813	-135.247	-2.301	-0.000	-3.141	103964	-0.582	53.746	-6.540	-8.233	0.319	-0.055	0.170	-0.417	-1.549	0.655	-1.219	0.067	-0.018	-0.022	1.011	0.354	-1.816	-0.739	0.452	0.039	
0.01041	0.17589	0.19287	452.972	124.820	-135.251	-2.108	-0.000	-3.141	104243	-0.512	53.642	-6.500	-8.235	0.233	-0.047	0.126	-0.119	-1.556	0.615	-1.170	-0.162	-0.029	-0.021	1.011	0.354	-1.816	-0.739	0.452	-0.137	
0.01043	0.15925	0.13447	452.963	124.824	-135.256	-1.974	-0.000	-3.141	104524	-0.562	53.626	-6.548	-8.263	0.276	-0.041	0.083	0.035	-1.563	0.642	-1.128	-0.260	-0.021	-0.021	1.011	0.354	-1.816	-0.739	0.452	-0.296	
0.00182	0.02241	0.01055	452.962	124.825	-135.256	-1.963	-0.000	-3.141	104779	-0.546	53.660	-6.541	-8.266	0.277	-0.040	0.080	0.062	-1.707	0.589	-1.224	-0.275	-0.081	-0.021	1.011	0.354	-1.816	-0.739	0.452	-0.319	
0.00631	0.00001	0.00001	452.959	124.819	-135.257	-1.963	-0.000	-3.141	105028	-0.370	53.646	-6.400	-7.682	0.536	0.077	0.018	-0.776	-1.210	1.288	-1.031	0.156	-0.010	-0.021	1.011	0.354	-1.816	-0.739	0.452	-0.319	
5.96189	0.01600	0.00008	450.668	119.315	-135.263	-1.964	-0.000	-3.141	105306	-0.651	53.118	-6.782	-7.676	0.545	0.169	-0.020	-1.550	-2.245	1.120	-1.526	0.479	-0.000	-0.031	1.008	0.354	-1.824	-0.747	0.447	-0.318	
3.95676	0.01775	0.00023	449.165	115.655	-135.255	-1.964	-0.000	-3.141	105584	-0.277	53.524	-6.487	-7.943	0.526	0.030	0.008	-0.872	-2.043	1.141	-1.462	0.118	-0.029	-0.041	1.005	0.354	-1.834	-0.756	0.442	-0.318	
0.05773	0.00017	0.00010	449.216	115.630	-135.247	-1.964	-0.000	-3.141	105836	2.092	53.597	-5.168	-7.225	0.574	-0.021	-0.002	-0.863	-2.038	1.182	-1.439	0.125	-0.026	-0.041	1.005	0.354	-1.834	-0.756	0.442	-0.318	
3.81993	0.00847	0.00030	447.651	112.146	-135.279	-1.963	-0.000	-3.141	106069	-0.200	53.281	-6.428	-7.791	0.584	0.171	-0.036	-1.800	-2.333	1.138	-1.560	0.584	-0.012	-0.046	1.004	0.354	-1.839	-0.760	0.440	-0.318	
6.31024	0.02343	0.00020	445.237	106.316	-135.263	-1.964	-0.000	-3.141	106351	-0.133	53.205	-6.368	-7.598	0.534	0.128	-0.042	-1.069	-2.425	0.968	-1.693	0.274	-0.062	-0.060	1.001	0.354	-1.851	-0.772	0.433	-0.317	
0.07421	0.00164	0.00015	445.269	106.383	-135.262	-1.964	-0.000	-3.141	106602	-0.234	52.904	-6.474	-7.547	0.505	0.123	-0.034	-1.093	-2.234	1.108	-1.570	0.281	-0.058	-0.061	1.000	0.354	-1.852	-0.773	0.432	-0.317	
1.22747	0.00089	0.00012	444.754	105.270	-135.310	-1.963	-0.000	-3.141	106837	-0.147	52.575	-6.735	-7.390	0.578	0.236	-0.051	-1.794	-2.233	1.194	-1.559	0.585	-0.020	-0.061	1.000	0.354	-1.852	-0.773	0.432	-0.317	
7.19207	0.02313	0.00015	442.100	98.585	-135.259	-1.964	-0.000	-3.141	107118	0.028	52.715	-6.407	-7.380	0.526	0.083	-0.014	-0.896	-2.533	1.126	-1.757	0.266	-0.034	-0.075	0.997	0.354	-1.864	-0.785	0.426	-0.316	
1.47326	0.00953	0.00034	441.581	97.207	-135.237	-1.964	-0.000	-3.141	107365	-0.138	52.549	-6.408	-7.361	0.519	0.089	-0.014	-1.078	-1.963	1.018	-1.433	0.257	-0.028	-0.081	0.996	0.354	-1.869	-0.790	0.423	-0.316	
0.05124	0.00005	0.00009	441.557	97.162	-135.243	-1.964	-0.000	-3.141	107608	-0.034	50.666	-5.997	-4.763	0.238	-0.590	-0.103	-1.368	-2.232	1.208	-1.551	0.411	-0.014	-0.081	0.996	0.354	-1.869	-0.790	0.423	-0.316	
3.67694	0.01277	0.00046	440.400	93.674	-135.113	-1.964	-0.000	-3.141	107898	-1.321	47.619	-6.727	-0.887	-0.597	-1.453	-0.195	-3.098	-9.798	0.120	-1.927	0.213	-0.237	-0.089	0.994	0.354	-1.875	-0.797	0.419	-0.316	
0.41896	0.00066	0.00071	440.159	93.984	-135.260	-1.963	-0.000	-3.141	108135	-1.295	49.587	-6.842	-3.756	-0.410	-0.938	-0.062	-2.072	-10.226	0.096	-1.906	-0.250	-0.281	-0.089	0.994	0.354	-1.875	-0.797	0.419	-0.316	
3.34687	0.01084	0.00133	440.808	97.258	-135.508	-1.963	-0.001	3.141	108415	-0.660	52.332	-6.505	-7.379	0.250	-0.023	0.012	0.288	-1.854	0.583	-1.244	-0.412	-0.152	-0.082	0.996	0.354	-1.870	-0.791	0.423	-0.316	
1.47614	0.00589	0.00113	441.877	98.244	-135.251	-1.964	-0.001	-3.141	108666	-0.436	52.563	-6.379	-7.554	0.329	-0.031	0.001	0.021	-1.924	0.665	-1.406	-0.267	-0.114	-0.078	0.996	0.354	-1.867	-0.788	0.424	-0.316	
0.11098	0.00025	0.00017	441.982	98.277	-135.236	-1.963	-0.000	-3.141	108903	-0.504	52.402	-6.411	-7.451	0.332	-0.035	0.178	-0.084	-1.609	0.695	-1.177	-0.207	-0.015	-0.078	0.996	0.354	-1.867	-0.788	0.424	-0.316	
0.01177	0.05038	0.07281	441.980	98.265	-135.238	-1.891	-0.001	-3.141	109185	-0.402	52.466	-6.409	-7.388	0.229	-0.046	0.169	0.082	-1.501	0.782	-1.055	-0.332	0.004	-0.078	0.996	0.354	-1.867	-0.788	0.424	-0.367	
0.01796	0.18842	0.20011	441.965	98.274	-135.242	-1.691	-0.001	-3.142	109462	-0.461	52.474	-6.392	-7.474	0.247	-0.047	0.199	0.439	-1.425	0.810	-0.936	-0.540	-0.024	-0.078	0.996	0.354	-1.867	-0.788	0.424	-0.555	
0.01222	0.14101	0.11503	441.955	98.280	-135.246	-1.576	-0.000	3.142	109743	-0.452	52.447	-6.410	-7.511	0.241	-0.040	0.086	0.551	-1.439	0.809	-0.915	-0.608	-0.040	-0.078	0.996	0.354	-1.867	-0.788	0.424	-0.696	
0.00177	0.01313	0.00480	441.954	98.281	-135.246	-1.571	-0.000	3.142	110008	-0.430	52.446	-6.398	-7.476	0.240	-0.040	0.080	0.633	-1.532	0.774	-0.974	-0.653	-0.076	-0.078	0.996	0.354	-1.867	-0.788	0.424	-0.709	
0.42341	0.00006	0.00047	441.921	97.859	-135.267	-1.571	-0.001	3.141	110210	0.047	52.449	-6.229	-7.065	0.540	0.048	0.166	-0.186	-1.787	1.104	-1.031	-0.177	0.094	-0.079	0.996	0.354	-1.867	-0.788	0.424	-0.709	
6.83211	0.01763	0.00049	441.915	91.027	-135.285	-1.571	-0.000	3.142	110490	-1.515	52.742	-7.235	-7.347	0.545	0.182	0.148	-1.079	-1.782	1.319	-1.041	0.198	0.154	-0.092	0.995	0.354	-1.871	-0.792	0.422	-0.718	
2.68309	0.01096	0.00011	441.932	88.344	-135.250	-1.571	-0.000	-3.142	110768	-0.263	52.333	-6.427	-7.255	0.498	0.112	0.124	-0.238	-2.095	0.980	-1.272	-0.215	0.068	-0.101	0.995	0.354	-1.873	-0.794	0.421	-0.724	
0.03071	0.00008	0.00009	441.950	88.320	-135.250	-1.571	-0.000	-3.142	110991	2.421	52.537	-5.148	-7.243	0.503	0.029	0.164	-0.347	-2.093	1.116	-1.254	-0.172	0.068	-0.101	0.995	0.354	-1.873	-0.794	0.421	-0.724	
3.70351	0.00728	0.00011	441.994	84.616	-135.256	-1.571	-0.000	-3.142	111206	-0.149	52.211	-6.526	-7.027	0.550	0.166	0.174	-0.704	-2.173	1.331	-1.270	0.014	0.139	-0.107	0.994	0.354	-1.874	-0.796	0.420	-0.728	
6.28852	0.01977	0.00009	441.962	78.328	-135.245	-1.571	-0.000	-3.142	111487	-0.036	52.332	-6.367	-7.118	0.497	0.073	0.129	-0.269	-2.052	1.109	-1.210	-0.220	0.085	-0.122	0.993	0.354	-1.878	-0.800	0.418	-0.739	
0.03357	0.00174	0.00017	441.931	78.338	-135.252	-1.571	-0.000	-3.142	111738	-0.266	52.266	-6.438	-7.188	0.495	0.070	0.122	-0.449	-1.906	1.202	-1.104	-0.117	0.085	-0.124	0.993	0.354	-1.878	-0.800	0.418	-0.740	
1.09736	0.00051	0.00026	441.887	77.242	-135.284	-1.571	-0.000	3.141	111970	-0.028	52.258	-6.509	-7.083	0.571	0.193	0.166	-1.054	-2.179	1.401	-1.232	0.166	0.145	-0.124	0.993	0.354	-1.878	-0.800	0.418	-0.740	
7.17440	0.02014	0.00026	442.001	70.068	-135.249	-1.571	-0.000	-3.142	112254	0.099	51.973	-6.202	-7.063	0.544	0.127	0.123	-0.489	-2.083	1.153	-1.257	-0.065	0.138	-0.140	0.992	0.354	-1.882	-0.804	0.416	-0.751	
1.73257	0.00840	0.00026	441.905	68.338	-135.245	-1.571	-0.000	3.142	112508	-0.120	52.290	-6.442	-7.198	0.534	0.146	0.117	-0.375	-2.124	1.112	-1.277	-0.151	0.084	-0.146	0.992	0.354	-1.883	-0.806	0.415	-0.756	
