arturo-sol653/Programmierung-und-Regelung-fuer-Mensch-Roboterinteraktion/Robot Programming/iiwa-exercises/logs/log_wireloop_2.log
TRANS_DIST	TIME	A	B	C	MT0	MT1	MT2	MT3	MT4	MT5	MT6	J0	J1	J2	J3	J4	J5	J6	ROT_DIST	X	Y	Z	JS_DIST	FX	FY	FZ	TA	TB	TC	
0.00000	0	-1.571	0.000	-3.141	-0.069	52.719	-3.306	-7.883	0.450	0.146	-0.049	-0.016	0.967	0.202	-1.861	-0.486	0.362	-1.012	0.00000	449.441	69.930	-135.113	0.00000	0.038	-1.718	0.914	-1.007	-0.295	-0.006	
0.00171	214	-1.571	0.000	-3.141	-0.152	52.744	-3.382	-7.874	0.437	0.138	-0.046	-0.016	0.967	0.202	-1.861	-0.486	0.362	-1.012	0.00000	449.443	69.930	-135.112	0.00000	0.135	-1.749	0.924	-1.013	-0.342	-0.010	
0.00089	494	-1.571	0.000	-3.141	-0.147	52.697	-3.374	-7.836	0.437	0.134	-0.045	-0.016	0.967	0.202	-1.861	-0.486	0.362	-1.012	0.00000	449.443	69.930	-135.111	0.00000	0.122	-1.745	0.902	-1.008	-0.338	-0.011	
0.00087	759	-1.571	0.000	-3.141	2.046	52.523	-2.199	-7.638	0.453	0.086	0.036	-0.016	0.967	0.202	-1.861	-0.486	0.362	-1.012	0.00000	449.444	69.930	-135.111	0.00000	0.371	-1.792	0.887	-1.034	-0.438	-0.012	
3.90576	1008	-1.571	0.000	-3.141	0.008	52.756	-3.285	-7.900	0.508	0.209	0.118	-0.022	0.967	0.202	-1.862	-0.487	0.361	-1.017	0.00011	449.479	66.026	-135.027	0.00792	-0.423	-1.773	1.126	-0.992	-0.011	0.131	
6.15751	1290	-1.571	0.000	-3.142	-0.233	52.579	-3.437	-7.715	0.437	0.118	0.078	-0.037	0.966	0.202	-1.865	-0.490	0.359	-1.029	0.00029	449.310	59.872	-135.156	0.02028	-0.087	-1.851	1.283	-0.996	-0.247	0.074	
0.13853	1541	-1.571	0.000	-3.141	-0.167	52.524	-3.377	-7.687	0.428	0.112	0.072	-0.038	0.966	0.202	-1.865	-0.490	0.359	-1.030	0.00022	449.429	59.923	-135.107	0.00122	-0.157	-1.722	1.418	-0.919	-0.184	0.072	
0.42586	1747	-1.571	0.000	-3.141	-0.022	52.568	-3.508	-7.649	0.490	0.198	0.122	-0.038	0.966	0.202	-1.865	-0.490	0.359	-1.030	0.00017	449.433	59.497	-135.115	0.00010	-0.615	-1.790	1.355	-0.948	0.106	0.148	
6.99558	2030	-1.571	0.000	-3.142	-1.108	52.548	-3.986	-7.556	0.428	0.201	0.087	-0.052	0.966	0.202	-1.868	-0.492	0.358	-1.042	0.00010	449.365	52.502	-135.145	0.01855	-0.549	-1.799	1.261	-0.958	0.046	0.133	
2.57495	2308	-1.571	0.000	-3.141	-0.207	52.587	-3.421	-7.698	0.424	0.159	0.063	-0.060	0.965	0.202	-1.869	-0.493	0.357	-1.049	0.00022	449.389	49.928	-135.111	0.01095	-0.019	-1.850	1.211	-1.015	-0.241	0.059	
0.06512	2558	-1.571	0.000	-3.141	2.292	52.384	-2.066	-7.466	0.423	0.093	0.106	-0.060	0.965	0.202	-1.869	-0.493	0.357	-1.049	0.00013	449.451	49.908	-135.103	0.00010	-0.059	-1.812	1.282	-0.983	-0.214	0.063	
4.00185	2810	-1.571	-0.000	3.142	-0.089	52.513	-3.366	-7.516	0.483	0.181	0.119	-0.066	0.965	0.202	-1.870	-0.493	0.356	-1.054	0.00035	449.340	45.908	-135.118	0.00814	-0.432	-1.825	1.388	-0.961	0.022	0.137	
6.06029	3092	-1.571	0.000	-3.142	0.019	52.607	-3.294	-7.606	0.438	0.149	0.078	-0.082	0.964	0.202	-1.872	-0.495	0.355	-1.068	0.00015	449.388	39.848	-135.105	0.02057	-0.073	-1.936	1.169	-1.026	-0.221	0.090	
0.05250	3327	-1.571	-0.000	-3.142	-0.102	52.621	-3.346	-7.611	0.438	0.145	0.067	-0.082	0.964	0.202	-1.872	-0.495	0.355	-1.068	0.00025	449.360	39.891	-135.114	0.00115	-0.181	-1.830	1.322	-0.961	-0.154	0.076	
0.29640	3562	-1.571	0.000	-3.142	0.172	52.488	-3.496	-7.551	0.474	0.192	0.109	-0.082	0.964	0.202	-1.872	-0.495	0.355	-1.068	0.00012	449.363	39.594	-135.118	0.00006	-0.587	-1.804	1.585	-0.937	0.083	0.140	
6.88809	3842	-1.571	-0.000	3.141	-1.735	52.553	-4.418	-7.554	0.465	0.240	0.103	-0.096	0.964	0.202	-1.873	-0.496	0.354	-1.080	0.00015	449.301	32.707	-135.135	0.01801	-1.049	-1.811	1.549	-0.914	0.291	0.163	
2.76820	4125	-1.571	0.000	-3.141	-0.126	52.638	-3.432	-7.627	0.441	0.152	0.079	-0.105	0.964	0.202	-1.874	-0.497	0.353	-1.088	0.00040	449.444	29.942	-135.107	0.01215	-0.050	-1.905	1.273	-1.006	-0.212	0.085	
0.02957	4373	-1.571	0.000	-3.141	2.460	52.431	-2.029	-7.655	0.444	0.111	0.121	-0.105	0.964	0.202	-1.874	-0.497	0.353	-1.088	0.00008	449.455	29.915	-135.109	0.00011	-0.106	-1.832	1.318	-0.953	-0.171	0.086	
4.00079	4622	-1.571	-0.000	3.141	0.081	52.512	-3.421	-7.583	0.490	0.200	0.132	-0.111	0.964	0.202	-1.874	-0.497	0.353	-1.094	0.00048	449.287	25.918	-135.150	0.00825	-0.698	-1.903	1.547	-0.942	0.179	0.162	
6.08982	4904	-1.571	0.000	-3.141	-0.004	52.638	-3.323	-7.643	0.461	0.190	0.048	-0.126	0.963	0.202	-1.876	-0.498	0.352	-1.108	0.00028	449.421	19.829	-135.112	0.02110	-0.144	-2.000	1.433	-1.042	-0.151	0.085	
0.07243	5139	-1.571	0.000	-3.141	0.013	52.383	-3.345	-7.569	0.445	0.173	0.048	-0.127	0.963	0.202	-1.876	-0.499	0.352	-1.109	0.00026	449.400	19.898	-135.113	0.00119	-0.264	-1.908	1.414	-0.983	-0.088	0.077	
0.34781	5389	-1.571	0.000	-3.141	-0.048	52.763	-3.388	-7.631	0.507	0.189	0.124	-0.127	0.963	0.202	-1.876	-0.499	0.352	-1.109	0.00002	449.401	19.551	-135.116	0.00006	-0.406	-1.687	1.471	-0.854	0.114	0.154	
7.02169	5673	-1.571	0.000	3.142	-0.960	52.251	-3.981	-7.363	0.473	0.200	0.111	-0.141	0.963	0.202	-1.876	-0.499	0.352	-1.122	0.00025	449.346	12.529	-135.114	0.01914	-0.836	-1.739	1.384	-0.853	0.302	0.175	
2.58938	5952	-1.571	0.000	3.142	0.016	52.493	-3.405	-7.547	0.460	0.176	0.085	-0.149	0.963	0.202	-1.877	-0.499	0.352	-1.130	0.00017	449.293	9.941	-135.146	0.01166	-0.457	-1.863	1.461	-0.947	0.016	0.116	
0.03475	6201	-1.571	0.000	3.142	2.339	52.505	-2.138	-7.651	0.460	0.131	0.130	-0.149	0.963	0.202	-1.877	-0.499	0.352	-1.130	0.00003	449.302	9.907	-135.146	0.00009	-0.159	-1.864	1.378	-0.954	-0.106	0.105	
3.68044	6438	-1.571	0.000	3.142	0.409	52.446	-3.239	-7.549	0.472	0.191	0.126	-0.155	0.963	0.202	-1.877	-0.499	0.352	-1.136	0.00023	449.362	6.227	-135.149	0.00800	-1.051	-1.720	1.633	-0.819	0.421	0.190	
6.33850	6718	-1.571	0.000	-3.142	0.147	52.352	-3.262	-7.423	0.443	0.166	0.050	-0.170	0.963	0.202	-1.877	-0.500	0.351	-1.151	0.00007	449.334	-0.111	-135.133	0.02153	-0.366	-1.788	1.503	-0.899	0.023	0.108	
0.04789	6969	-1.571	0.000	-3.141	0.090	52.379	-3.318	-7.499	0.441	0.171	0.044	-0.172	0.963	0.202	-1.877	-0.500	0.351	-1.152	0.00030	449.351	-0.068	-135.123	0.00177	-0.498	-1.802	1.472	-0.893	0.099	0.094	
0.29159	7160	-1.571	0.000	-3.141	0.125	52.539	-3.469	-7.646	0.354	0.165	0.138	-0.172	0.963	0.202	-1.877	-0.500	0.351	-1.152	0.00004	449.359	-0.359	-135.123	0.00006	-0.550	-1.565	1.671	-0.733	0.253	0.147	
6.98695	7443	-1.571	0.000	-3.141	-1.227	52.259	-4.257	-7.489	0.259	0.078	0.091	-0.185	0.963	0.202	-1.877	-0.500	0.351	-1.166	0.00010	449.408	-7.346	-135.121	0.01908	-1.124	-1.275	1.753	-0.478	0.524	0.115	
2.72622	7725	-1.571	0.000	3.142	0.128	52.477	-3.390	-7.614	0.376	0.037	0.065	-0.194	0.963	0.202	-1.877	-0.499	0.352	-1.175	0.00032	449.358	-10.072	-135.130	0.01254	-0.343	-1.347	1.635	-0.581	0.035	0.082	
0.06183	7976	-1.571	-0.000	3.142	0.375	52.385	-3.220	-7.596	0.377	0.029	0.077	-0.194	0.963	0.202	-1.877	-0.499	0.352	-1.175	0.00015	449.338	-10.130	-135.136	0.00025	-0.357	-1.334	1.579	-0.576	0.048	0.085	
2.46862	8164	-1.571	-0.000	3.141	0.198	52.408	-3.376	-7.599	0.239	-0.003	0.120	-0.196	0.963	0.202	-1.877	-0.499	0.352	-1.178	0.00007	449.272	-12.597	-135.137	0.00394	-0.857	-0.990	1.725	-0.321	0.496	0.104	
6.91491	8445	-1.571	0.000	3.142	0.086	52.457	-3.364	-7.601	0.207	-0.012	0.039	-0.212	0.963	0.202	-1.876	-0.499	0.352	-1.194	0.00014	449.325	-19.512	-135.152	0.02272	-0.798	-0.977	1.740	-0.312	0.406	0.052	
0.54957	8697	-1.571	0.000	-3.142	0.198	52.426	-3.335	-7.606	0.217	-0.009	0.038	-0.216	0.963	0.202	-1.876	-0.498	0.352	-1.198	0.00014	449.387	-20.058	-135.145	0.00535	-0.554	-1.074	1.711	-0.375	0.259	0.026	
0.04479	8934	-1.571	0.000	-3.142	0.199	52.168	-3.460	-7.675	0.196	-0.011	0.120	-0.216	0.963	0.202	-1.876	-0.498	0.352	-1.198	0.00007	449.393	-20.103	-135.143	0.00010	-1.020	-0.949	1.813	-0.268	0.567	0.093	
6.30173	9231	-1.571	0.000	-3.141	-1.036	52.247	-4.125	-7.672	0.158	-0.072	0.129	-0.227	0.964	0.202	-1.875	-0.498	0.353	-1.210	0.00017	449.439	-26.404	-135.145	0.01667	-0.736	-0.590	1.928	-0.068	0.542	0.103	
3.69019	9512	-1.571	0.000	3.141	0.266	52.282	-3.318	-7.631	0.202	-0.038	0.071	-0.238	0.964	0.202	-1.874	-0.497	0.354	-1.222	0.00045	449.277	-30.091	-135.154	0.01579	-0.616	-0.932	1.623	-0.288	0.297	0.043	
0.02694	9748	-1.571	0.000	3.141	0.659	52.442	-3.177	-7.684	0.210	-0.039	0.102	-0.238	0.964	0.202	-1.874	-0.497	0.354	-1.222	0.00006	449.285	-30.116	-135.153	0.00003	-0.649	-0.934	1.750	-0.284	0.329	0.044	
2.68286	9998	-1.571	0.000	-3.141	0.448	52.500	-3.423	-7.700	0.165	-0.108	0.140	-0.241	0.964	0.202	-1.874	-0.497	0.354	-1.225	0.00040	449.402	-32.796	-135.108	0.00473	-1.639	-0.591	2.134	0.022	0.963	0.127	
6.84335	10281	-1.571	0.000	-3.142	0.134	52.494	-3.362	-7.634	0.195	-0.131	0.111	-0.257	0.964	0.202	-1.872	-0.495	0.354	-1.242	0.00011	449.352	-39.639	-135.145	0.02335	-1.363	-0.606	2.042	-0.014	0.752	0.098	
0.44589	10528	-1.571	0.000	3.141	0.219	52.430	-3.404	-7.664	0.195	-0.096	0.105	-0.260	0.965	0.202	-1.872	-0.495	0.355	-1.246	0.00030	449.283	-40.080	-135.153	0.00471	-0.858	-0.774	1.818	-0.135	0.504	0.082	
0.02142	10758	-1.571	0.000	3.141	0.671	52.763	-3.242	-7.834	0.166	-0.115	0.159	-0.260	0.965	0.202	-1.872	-0.495	0.355	-1.246	0.00004	449.284	-40.101	-135.152	0.00008	-1.449	-0.772	2.089	-0.093	0.852	0.120	
4.91273	10997	-1.571	0.000	3.142	0.437	52.346	-3.488	-7.747	0.141	-0.117	0.149	-0.268	0.965	0.202	-1.870	-0.494	0.355	-1.255	0.00021	449.341	-45.014	-135.135	0.01252	-1.559	-0.548	2.218	0.053	0.960	0.123	
5.09701	11277	-1.571	0.000	-3.141	0.388	52.781	-3.286	-7.776	0.181	-0.118	0.100	-0.282	0.965	0.202	-1.869	-0.492	0.357	-1.270	0.00015	449.403	-50.110	-135.148	0.02062	-0.665	-0.787	2.011	-0.124	0.416	0.068	
0.11192	11529	-1.571	0.000	3.142	0.406	52.524	-3.270	-7.705	0.184	-0.120	0.079	-0.282	0.965	0.202	-1.869	-0.492	0.357	-1.271	0.00020	449.296	-50.081	-135.165	0.00025	-0.798	-0.765	1.826	-0.121	0.477	0.064	
1.11907	11763	-1.570	0.000	-3.141	0.514	52.521	-3.338	-7.871	0.150	-0.131	0.154	-0.282	0.965	0.202	-1.869	-0.492	0.357	-1.271	0.00052	449.387	-51.196	-135.123	0.00071	-1.320	-0.541	2.120	0.054	0.909	0.124	
7.15661	12045	-1.571	0.000	-3.142	0.477	52.704	-3.236	-7.805	0.187	-0.074	0.114	-0.297	0.966	0.202	-1.866	-0.491	0.358	-1.288	0.00039	449.322	-58.352	-135.147	0.02295	-0.958	-0.339	1.911	0.073	0.684	0.098	
1.71629	12298	-1.571	0.000	3.141	0.399	52.445	-3.335	-7.718	0.175	-0.054	0.098	-0.303	0.966	0.202	-1.865	-0.489	0.359	-1.296	0.00024	449.287	-60.068	-135.156	0.00983	-0.888	-0.948	1.781	-0.240	0.539	0.072	
0.03121	12558	-1.571	0.000	3.141	0.336	52.286	-3.333	-7.396	0.121	-0.203	0.141	-0.303	0.966	0.202	-1.865	-0.489	0.359	-1.296	0.00006	449.282	-60.099	-135.156	0.00006	-2.161	-0.651	1.966	-0.045	1.236	0.139	
6.95147	12876	-1.571	0.000	-3.141	-1.178	52.654	-4.419	-7.706	0.142	-0.103	0.134	-0.315	0.967	0.202	-1.863	-0.488	0.360	-1.309	0.00045	449.441	-67.048	-135.137	0.01748	-2.388	-0.564	2.094	0.074	1.379	0.146	
3.00333	13199	-1.571	0.000	3.142	0.528	52.630	-3.359	-7.822	0.185	-0.123	0.103	-0.325	0.968	0.202	-1.861	-0.486	0.362	-1.321	0.00029	449.327	-70.049	-135.159	0.01631	-0.935	-0.718	1.798	-0.093	0.563	0.082	
0.07670	13397	-1.571	0.000	3.141	2.645	52.841	-2.176	-8.043	0.199	-0.171	0.148	-0.325	0.968	0.202	-1.861	-0.486	0.362	-1.321	0.00012	449.258	-70.081	-135.170	0.00013	-0.868	-0.785	1.843	-0.118	0.559	0.083	
3.59888	13631	-1.571	0.000	-3.141	3.927	51.345	0.002	-4.597	0.289	-1.994	-0.101	-0.330	0.968	0.202	-1.860	-0.485	0.362	-1.327	0.00035	449.382	-73.677	-135.138	0.00802	-9.093	-4.651	2.374	-0.094	2.734	0.101	
2.26224	13917	-1.571	0.000	-3.141	4.034	49.042	1.873	-2.912	0.410	-2.885	-0.125	-0.337	0.968	0.202	-1.858	-0.484	0.364	-1.336	0.00020	449.533	-75.932	-135.041	0.01191	-7.214	-9.364	0.095	-0.709	1.049	-0.101	
0.78701	14153	-1.571	-0.000	3.141	-0.216	52.755	-3.184	-7.624	0.397	-0.195	-0.100	-0.337	0.968	0.202	-1.858	-0.484	0.364	-1.335	0.00067	449.154	-75.261	-135.201	0.00108	-1.035	-5.265	0.557	-0.899	-0.748	-0.162	
3.69061	14436	-1.571	0.000	3.141	-0.323	52.709	-3.398	-7.761	0.368	0.052	-0.039	-0.329	0.968	0.202	-1.860	-0.485	0.363	-1.326	0.00020	449.061	-71.572	-135.212	0.01207	0.845	-1.605	1.106	-0.774	-0.783	-0.047	
0.60849	14684	-1.571	-0.000	3.142	-0.179	52.845	-3.345	-7.835	0.365	0.050	-0.034	-0.327	0.968	0.202	-1.860	-0.486	0.362	-1.323	0.00049	449.329	-71.034	-135.114	0.00394	0.737	-1.543	1.216	-0.728	-0.672	-0.038	
0.03260	14925	-1.571	-0.000	3.142	-0.222	52.751	-3.391	-7.835	0.343	0.046	0.176	-0.327	0.968	0.202	-1.860	-0.486	0.362	-1.323	0.00013	449.344	-71.006	-135.111	0.00006	0.522	-1.435	1.228	-0.648	-0.500	0.058	
0.00780	15218	-1.490	-0.000	3.142	-0.212	52.747	-3.339	-7.871	0.402	0.026	0.211	-0.327	0.968	0.202	-1.860	-0.486	0.362	-1.380	0.08052	449.351	-71.002	-135.110	0.05738	0.526	-1.298	1.306	-0.513	-0.454	0.098	
0.00941	15498	-1.287	0.000	3.142	-0.198	52.740	-3.406	-7.824	0.383	0.034	0.154	-0.327	0.968	0.202	-1.860	-0.486	0.362	-1.576	0.20313	449.353	-70.993	-135.111	0.19505	0.770	-1.136	1.319	-0.402	-0.539	0.098	
0.00408	15778	-1.181	0.000	3.142	-0.176	52.742	-3.359	-7.821	0.333	0.031	0.109	-0.327	0.968	0.202	-1.860	-0.486	0.362	-1.706	0.10610	449.356	-70.989	-135.111	0.13056	0.797	-1.103	1.322	-0.371	-0.524	0.102	
0.00111	16031	-1.178	0.000	3.142	-0.196	52.763	-3.376	-7.842	0.337	0.033	0.109	-0.327	0.968	0.202	-1.860	-0.486	0.362	-1.716	0.00303	449.356	-70.988	-135.111	0.00995	0.945	-1.077	1.270	-0.360	-0.623	0.053	
0.01356	16218	-1.178	0.000	3.142	0.031	53.083	-3.491	-8.253	0.212	-0.125	0.204	-0.327	0.968	0.202	-1.860	-0.486	0.362	-1.716	0.00003	449.361	-71.001	-135.113	0.00000	-0.475	-1.096	1.701	-0.336	0.307	0.118	
6.06828	16499	-1.178	0.000	3.142	-0.742	52.712	-4.028	-7.999	0.122	-0.139	0.194	-0.335	0.970	0.202	-1.853	-0.480	0.367	-1.732	0.00022	451.696	-76.602	-135.154	0.02106	-1.377	-1.123	1.451	-0.351	1.163	0.171	
3.86336	16782	-1.178	0.000	3.141	0.636	52.841	-3.292	-8.138	0.210	-0.113	0.103	-0.344	0.972	0.202	-1.845	-0.473	0.373	-1.747	0.00017	453.132	-80.188	-135.154	0.02163	-0.678	-1.027	1.555	-0.314	0.571	0.096	
0.03567	17030	-1.178	0.000	3.141	1.024	52.998	-3.127	-8.203	0.221	-0.124	0.151	-0.344	0.972	0.202	-1.845	-0.473	0.373	-1.747	0.00008	453.111	-80.217	-135.157	0.00008	-0.592	-1.030	1.531	-0.325	0.558	0.097	
2.88434	17282	-1.178	0.000	3.142	0.680	52.949	-3.485	-7.871	0.132	-0.223	0.183	-0.347	0.973	0.202	-1.842	-0.471	0.374	-1.753	0.00014	454.257	-82.864	-135.127	0.00692	-1.374	-0.872	1.843	-0.264	1.145	0.163	
6.81367	17561	-1.178	0.000	3.142	0.425	53.250	-3.448	-8.412	0.200	-0.135	0.128	-0.359	0.976	0.202	-1.830	-0.463	0.382	-1.774	0.00007	456.882	-89.152	-135.145	0.02975	-1.426	-1.171	1.656	-0.375	1.053	0.151	
0.28081	17795	-1.178	0.000	3.141	0.386	53.340	-3.491	-8.361	0.208	-0.124	0.128	-0.361	0.977	0.202	-1.828	-0.461	0.383	-1.778	0.00011	456.956	-89.423	-135.154	0.00532	-0.958	-1.141	1.723	-0.379	0.826	0.133	
0.02447	18030	-1.178	0.000	3.141	0.477	53.037	-3.727	-8.465	0.137	-0.151	0.191	-0.361	0.977	0.202	-1.828	-0.461	0.383	-1.778	0.00004	456.950	-89.447	-135.154	0.00007	-1.563	-1.248	1.472	-0.401	1.237	0.173	
6.10548	18308	-1.178	-0.000	-3.141	5.290	53.316	1.868	-6.485	0.708	-1.971	-0.066	-0.369	0.979	0.202	-1.820	-0.456	0.388	-1.793	0.00045	459.430	-95.026	-135.118	0.02010	-8.070	-6.921	2.289	-1.023	2.484	0.128	
2.21434	18588	-1.178	0.000	-3.141	6.577	51.896	4.474	-5.554	1.046	-2.663	-0.136	-0.375	0.981	0.203	-1.814	-0.452	0.392	-1.803	0.00032	460.346	-97.042	-135.102	0.01461	-7.466	-12.248	0.933	-1.172	1.116	-0.070	
0.59868	18825	-1.179	-0.000	3.142	1.194	52.935	-1.441	-7.265	0.556	-0.617	-0.088	-0.374	0.981	0.202	-1.815	-0.452	0.392	-1.802	0.00092	459.888	-96.657	-135.082	0.00171	-1.368	-7.961	0.540	-0.801	-0.814	-0.158	
3.75771	19104	-1.179	0.000	3.141	-0.249	53.672	-3.412	-8.408	0.371	0.058	0.005	-0.369	0.979	0.202	-1.821	-0.457	0.388	-1.791	0.00058	458.157	-93.326	-135.262	0.01481	1.282	-1.269	1.144	-0.418	-0.898	-0.025	
0.75494	19355	-1.178	0.000	-3.141	-0.113	53.731	-3.410	-8.442	0.368	0.064	0.004	-0.367	0.978	0.202	-1.823	-0.458	0.387	-1.788	0.00073	458.350	-92.607	-135.138	0.00443	1.161	-1.145	1.300	-0.383	-0.745	-0.011	
0.02341	19590	-1.178	0.000	-3.141	-0.120	53.724	-3.418	-8.444	0.350	0.069	0.204	-0.367	0.978	0.202	-1.823	-0.458	0.387	-1.788	0.00005	458.367	-92.598	-135.125	0.00006	0.852	-1.208	1.330	-0.419	-0.532	0.081	
0.01414	19868	-1.105	0.000	-3.141	-0.149	53.750	-3.453	-8.403	0.450	0.090	0.176	-0.367	0.978	0.202	-1.823	-0.458	0.387	-1.838	0.07297	458.377	-92.589	-135.119	0.04962	0.911	-1.156	1.364	-0.389	-0.511	0.127	
0.00481	20150	-0.904	-0.000	-3.141	-0.147	53.743	-3.403	-8.386	0.378	0.077	0.167	-0.367	0.978	0.202	-1.823	-0.458	0.387	-2.028	0.20156	458.379	-92.586	-135.117	0.19010	1.191	-0.864	1.314	-0.224	-0.633	0.101	
0.00367	20430	-0.790	-0.000	-3.141	-0.163	53.765	-3.438	-8.461	0.383	0.086	0.126	-0.367	0.978	0.202	-1.823	-0.458	0.387	-2.168	0.11356	458.382	-92.585	-135.115	0.13988	1.266	-0.798	1.320	-0.176	-0.657	0.097	
0.00218	20696	-0.785	-0.000	-3.141	-0.130	53.739	-3.425	-8.456	0.381	0.085	0.122	-0.367	0.978	0.202	-1.823	-0.458	0.387	-2.181	0.00446	458.384	-92.584	-135.114	0.01291	1.294	-0.796	1.284	-0.170	-0.676	0.078	
0.01790	20926	-0.785	-0.000	-3.141	0.301	53.540	-3.457	-8.435	0.188	-0.176	0.164	-0.367	0.978	0.202	-1.823	-0.458	0.387	-2.181	0.00002	458.397	-92.593	-135.121	0.00001	0.322	-1.049	1.615	-0.325	0.046	0.106	
6.26044	21210	-0.785	0.000	-3.142	-0.273	54.266	-3.792	-8.118	0.175	-0.300	0.151	-0.372	0.982	0.202	-1.809	-0.449	0.395	-2.196	0.00030	462.782	-97.061	-135.173	0.02445	-1.149	-1.544	2.058	-0.770	1.004	0.167	
3.62238	21490	-0.785	0.000	3.141	0.587	54.183	-3.434	-8.835	0.214	-0.059	0.076	-0.376	0.986	0.202	-1.797	-0.441	0.403	-2.210	0.00016	465.311	-99.654	-135.158	0.02251	0.063	-1.435	1.640	-0.651	0.335	0.086	
0.01893	21771	-0.785	0.000	3.141	2.136	53.720	-2.496	-9.572	0.189	-0.176	0.154	-0.376	0.986	0.202	-1.797	-0.441	0.403	-2.210	0.00004	465.304	-99.672	-135.158	0.00003	0.032	-1.428	1.709	-0.646	0.359	0.094	
4.26130	22021	-0.785	-0.000	-3.141	1.023	54.644	-3.299	-9.718	0.207	-0.094	0.145	-0.379	0.988	0.202	-1.789	-0.437	0.408	-2.218	0.00042	468.400	-102.599	-135.120	0.01368	-0.891	-1.593	1.762	-0.798	0.948	0.156	
5.83857	22301	-0.786	0.000	3.142	0.622	54.864	-3.407	-9.283	0.249	-0.076	0.106	-0.385	0.994	0.202	-1.772	-0.426	0.419	-2.237	0.00029	472.452	-106.803	-135.152	0.03101	-0.128	-1.375	1.558	-0.649	0.450	0.124	
0.08445	22569	-0.785	0.000	3.141	0.542	54.730	-3.499	-9.225	0.239	-0.074	0.099	-0.386	0.994	0.202	-1.771	-0.426	0.420	-2.237	0.00019	472.384	-106.752	-135.157	0.00092	-0.265	-1.622	1.517	-0.786	0.538	0.132	
1.52887	22754	-0.785	-0.000	-3.141	0.907	55.085	-3.217	-9.791	0.201	-0.133	0.139	-0.386	0.994	0.202	-1.770	-0.426	0.420	-2.238	0.00062	473.586	-107.694	-135.064	0.00127	-0.949	-1.601	1.798	-0.833	0.952	0.161	
6.99186	23037	-0.785	0.000	-3.141	4.687	56.070	1.464	-9.334	1.042	-0.988	-0.095	-0.392	1.000	0.202	-1.752	-0.416	0.432	-2.257	0.00028	478.517	-112.649	-135.177	0.03159	-3.423	-7.374	2.209	-1.331	0.796	0.024	
0.90252	23286	-0.785	-0.000	-3.142	5.366	55.363	2.351	-9.724	1.148	-0.923	-0.148	-0.394	1.002	0.202	-1.747	-0.413	0.435	-2.262	0.00013	479.120	-113.317	-135.111	0.00890	-4.642	-9.679	0.772	-1.297	0.694	-0.044	
1.48875	23550	-0.786	-0.000	3.141	-0.121	55.325	-3.536	-9.188	0.440	0.132	-0.065	-0.393	1.001	0.202	-1.749	-0.414	0.433	-2.259	0.00091	477.823	-112.589	-135.168	0.00482	1.158	-3.104	1.135	-0.360	-0.897	-0.071	
3.41781	23830	-0.785	-0.000	-3.142	-0.071	55.060	-3.459	-9.354	0.404	0.102	-0.044	-0.390	0.998	0.202	-1.759	-0.419	0.428	-2.250	0.00054	475.578	-110.012	-135.130	0.01553	1.632	-0.542	1.121	-0.005	-0.900	-0.044	
0.14293	24064	-0.785	-0.000	-3.141	-0.136	55.418	-3.563	-9.397	0.409	0.102	-0.044	-0.389	0.997	0.202	-1.760	-0.420	0.427	-2.249	0.00011	475.605	-109.871	-135.135	0.00202	1.562	-0.773	1.193	-0.129	-0.815	-0.031	
0.00780	24266	-0.783	-0.000	-3.141	-0.012	55.282	-3.479	-9.417	0.417	0.087	0.148	-0.389	0.997	0.202	-1.760	-0.420	0.427	-2.249	0.00259	475.608	-109.864	-135.134	0.00017	1.325	-0.944	1.356	-0.239	-0.633	0.095	
0.00576	24549	-0.678	-0.000	-3.141	-0.112	55.265	-3.549	-9.399	0.396	0.078	0.113	-0.389	0.997	0.202	-1.760	-0.420	0.427	-2.328	0.10465	475.611	-109.860	-135.134	0.07943	1.434	-0.660	1.336	-0.103	-0.635	0.099	
0.01241	24829	-0.474	-0.000	-3.142	-0.160	55.298	-3.519	-9.433	0.379	0.079	0.151	-0.389	0.997	0.202	-1.760	-0.420	0.427	-2.531	0.20395	475.614	-109.848	-135.133	0.20296	1.556	-0.285	1.303	0.090	-0.665	0.091	
0.01216	25112	-0.393	-0.000	-3.142	-0.070	55.296	-3.514	-9.389	0.417	0.085	0.115	-0.389	0.997	0.202	-1.760	-0.420	0.427	-2.639	0.08128	475.617	-109.836	-135.133	0.10712	1.579	-0.275	1.317	0.092	-0.656	0.084	
0.00195	25362	-0.393	-0.000	-3.142	-0.073	55.321	-3.520	-9.396	0.416	0.086	0.115	-0.389	0.997	0.202	-1.760	-0.420	0.427	-2.641	0.00017	475.617	-109.838	-135.133	0.00292	1.563	-0.335	1.313	0.052	-0.641	0.084	
0.49124	25550	-0.393	-0.000	3.142	0.097	55.542	-3.473	-9.429	0.210	-0.186	0.143	-0.389	0.997	0.202	-1.760	-0.420	0.427	-2.642	0.00008	476.063	-110.043	-135.134	0.00006	0.516	-0.405	1.205	-0.109	0.038	0.074	
7.06518	25833	-0.393	-0.000	3.142	-0.070	55.723	-3.945	-9.765	0.182	-0.119	0.137	-0.390	1.004	0.202	-1.740	-0.410	0.440	-2.655	0.00017	482.583	-112.764	-135.123	0.02946	0.613	-0.811	1.556	-0.381	0.124	0.076	
2.29477	26110	-0.393	0.000	3.142	0.321	55.958	-3.480	-9.940	0.276	-0.109	0.105	-0.390	1.007	0.202	-1.729	-0.404	0.447	-2.662	0.00023	484.701	-113.646	-135.165	0.01637	0.808	-0.679	1.591	-0.282	-0.051	0.079	
0.01479	26363	-0.393	0.000	3.142	0.284	55.228	-3.465	-10.800	0.182	-0.112	0.151	-0.390	1.007	0.202	-1.729	-0.404	0.447	-2.662	0.00003	484.687	-113.643	-135.166	0.00005	0.761	-0.675	1.525	-0.274	-0.036	0.078	
4.02925	26584	-0.393	-0.000	-3.142	0.450	56.168	-3.681	-10.091	0.178	-0.144	0.155	-0.391	1.010	0.202	-1.721	-0.400	0.452	-2.667	0.00034	488.416	-115.167	-135.162	0.01223	0.442	-1.035	1.253	-0.539	0.218	0.100	
6.16558	26865	-0.393	-0.000	-3.142	0.147	56.547	-3.778	-10.459	0.226	-0.069	0.087	-0.391	1.017	0.202	-1.699	-0.391	0.465	-2.680	0.00021	494.112	-117.528	-135.156	0.03097	0.713	-0.868	1.858	-0.445	0.011	0.068	
0.15447	27097	-0.393	0.000	3.142	0.142	56.672	-3.739	-10.293	0.228	-0.092	0.086	-0.391	1.018	0.202	-1.698	-0.390	0.466	-2.681	0.00023	493.969	-117.471	-135.145	0.00190	0.752	-1.070	1.552	-0.529	0.002	0.070	
0.59098	27330	-0.393	-0.000	-3.142	0.376	57.016	-3.705	-10.690	0.172	-0.168	0.145	-0.391	1.018	0.202	-1.698	-0.390	0.466	-2.681	0.00049	494.522	-117.665	-135.067	0.00006	0.494	-1.030	1.605	-0.603	0.220	0.109	
6.25061	27612	-0.392	0.001	-3.142	5.466	59.354	2.188	-13.275	1.498	-0.156	-0.119	-0.392	1.024	0.202	-1.678	-0.382	0.479	-2.692	0.00131	500.340	-119.931	-135.346	0.02766	-3.617	-7.189	1.020	-0.838	0.341	-0.045	
0.86735	27846	-0.392	-0.000	-3.141	7.356	60.218	4.468	-13.626	1.807	-0.311	-0.167	-0.391	1.026	0.202	-1.673	-0.380	0.481	-2.694	0.00105	501.145	-120.205	-135.171	0.00621	-3.785	-12.420	2.794	-1.109	0.199	-0.118	
1.66403	28080	-0.393	-0.000	3.141	0.561	57.315	-3.443	-10.756	0.492	0.168	-0.044	-0.392	1.025	0.202	-1.676	-0.381	0.479	-2.693	0.00125	499.494	-120.412	-135.149	0.00412	1.327	-1.879	0.961	-0.436	-0.661	0.007	
3.48533	28362	-0.393	-0.000	3.141	0.215	56.774	-3.495	-10.554	0.423	0.058	-0.023	-0.392	1.021	0.202	-1.688	-0.386	0.472	-2.686	0.00057	496.448	-118.718	-135.125	0.01587	1.634	-0.488	1.388	-0.163	-0.593	0.029	
0.21051	28613	-0.393	-0.000	-3.142	0.282	59.312	-3.790	-10.825	0.363	0.002	0.019	-0.391	1.020	0.202	-1.689	-0.387	0.471	-2.685	0.00034	496.574	-118.550	-135.134	0.00232	1.484	-0.674	1.566	-0.216	-0.510	0.024	
4.04266	28846	-0.393	-0.000	3.142	0.289	56.015	-3.273	-10.303	0.166	-0.218	0.146	-0.391	1.015	0.202	-1.691	-0.383	0.474	-2.688	0.00021	496.520	-118.581	-131.092	0.00741	1.289	-0.290	3.013	-0.127	-0.169	0.052	
18.86668	29126	-0.393	-0.000	3.142	0.286	54.707	-3.334	-11.061	0.180	-0.167	0.138	-0.391	0.975	0.202	-1.706	-0.357	0.496	-2.708	0.00011	496.536	-118.519	-112.226	0.05861	1.014	-0.585	2.404	-0.311	-0.044	0.058	
7.09606	29407	-0.393	0.000	3.142	0.296	56.036	-3.400	-11.422	0.236	-0.107	0.106	-0.391	0.952	0.202	-1.714	-0.342	0.510	-2.720	0.00030	496.419	-118.506	-105.131	0.03394	1.150	-0.492	1.792	-0.222	-0.162	0.046	
0.00718	29610	-0.393	0.000	3.142	0.171	55.918	-3.407	-11.336	0.232	-0.090	-0.108	-0.391	0.952	0.202	-1.714	-0.342	0.510	-2.720	0.00013	496.422	-118.505	-105.124	0.00012	1.290	-0.233	1.537	-0.039	-0.282	-0.077	
0.00371	29892	-0.551	0.000	3.142	0.031	55.964	-3.463	-11.382	0.289	-0.118	0.031	-0.391	0.952	0.202	-1.714	-0.342	0.510	-2.610	0.15784	496.419	-118.504	-105.124	0.11011	1.189	-0.520	1.652	-0.101	-0.316	-0.089	
0.00165	30171	-0.960	0.000	3.141	0.034	55.958	-3.552	-11.391	0.261	-0.092	-0.014	-0.391	0.952	0.202	-1.714	-0.342	0.510	-2.226	0.40984	496.417	-118.504	-105.124	0.38397	0.840	-0.984	1.525	-0.262	-0.241	-0.087	
0.00101	30452	-1.405	0.000	3.141	0.148	55.802	-3.463	-11.385	0.269	-0.069	-0.073	-0.391	0.952	0.202	-1.714	-0.342	0.510	-1.783	0.44424	496.416	-118.504	-105.124	0.44261	0.293	-1.314	1.521	-0.399	-0.103	-0.091	
0.00080	30734	-1.815	-0.000	3.141	0.108	55.846	-3.444	-11.340	0.285	-0.035	-0.131	-0.391	0.952	0.202	-1.714	-0.342	0.510	-1.353	0.41034	496.415	-118.504	-105.125	0.43077	-0.080	-1.392	1.563	-0.460	-0.019	-0.115	
0.00010	31017	-1.963	-0.000	3.141	0.106	55.878	-3.486	-11.355	0.273	-0.074	-0.087	-0.391	0.952	0.202	-1.714	-0.342	0.510	-1.153	0.14835	496.415	-118.504	-105.125	0.20001	-0.204	-1.281	1.541	-0.431	0.032	-0.091	
0.00016	31264	-1.964	-0.000	3.141	0.063	55.932	-3.519	-11.399	0.269	-0.074	-0.122	-0.391	0.952	0.202	-1.714	-0.342	0.510	-1.149	0.00021	496.415	-118.504	-105.124	0.00348	-0.176	-1.271	1.529	-0.439	0.007	-0.103	
0.00060	31532	-2.079	-0.000	3.141	0.132	55.813	-3.465	-11.388	0.313	-0.053	-0.135	-0.391	0.952	0.202	-1.714	-0.342	0.510	-1.073	0.11557	496.415	-118.503	-105.125	0.07590	-0.480	-1.301	1.514	-0.484	0.093	-0.112	
0.00081	31811	-2.468	-0.000	3.142	0.128	55.867	-3.564	-11.267	0.198	-0.035	0.291	-0.391	0.952	0.202	-1.714	-0.342	0.510	-0.718	0.38926	496.414	-118.503	-105.125	0.35513	-0.984	-0.971	1.550	-0.413	0.285	-0.104	
0.00096	32091	-2.911	-0.000	3.142	0.071	55.878	-3.492	-11.427	0.380	-0.039	-0.288	-0.391	0.952	0.202	-1.714	-0.342	0.510	-0.277	0.44262	496.414	-118.502	-105.125	0.44103	-1.269	-0.485	1.504	-0.300	0.408	-0.112	
0.00031	32370	2.947	-0.000	-3.142	0.142	55.899	-3.450	-11.369	0.201	-0.077	-0.005	-0.391	0.952	0.202	-1.714	-0.342	0.510	0.159	0.42489	496.414	-118.502	-105.125	0.43588	-1.328	0.055	1.547	-0.129	0.464	-0.098	
0.00072	32651	2.752	-0.000	-3.142	0.078	55.891	-3.496	-11.397	0.274	-0.059	-0.106	-0.391	0.952	0.202	-1.714	-0.342	0.510	0.407	0.19499	496.414	-118.502	-105.125	0.24833	-1.333	0.177	1.532	-0.104	0.483	-0.104	
0.00031	32933	2.749	-0.000	-3.142	0.137	54.113	-3.350	-11.342	0.412	0.078	-0.104	-0.391	0.952	0.202	-1.714	-0.342	0.510	0.422	0.00347	496.414	-118.502	-105.125	0.01452	-1.342	0.263	1.667	-0.058	0.492	-0.066	
4.12129	33167	2.749	-0.000	-3.142	0.134	54.732	-3.334	-10.265	0.516	0.073	-0.119	-0.391	0.957	0.202	-1.713	-0.345	0.507	0.424	0.00035	496.442	-118.491	-109.246	0.00735	-1.407	0.553	1.968	-0.008	0.791	-0.024	
18.78080	33448	2.749	0.000	-3.142	0.126	57.854	-3.782	-10.616	0.513	0.172	-0.130	-0.391	0.997	0.202	-1.698	-0.371	0.484	0.444	0.00019	496.542	-118.538	-128.027	0.05844	-1.260	0.513	0.183	0.059	0.772	-0.012	
7.11509	33730	2.749	0.000	-3.142	0.352	57.061	-3.600	-10.523	0.475	0.153	-0.096	-0.391	1.020	0.202	-1.689	-0.387	0.471	0.456	0.00006	496.562	-118.542	-135.142	0.03412	-1.549	0.773	1.506	0.188	0.779	0.005	
0.03466	33980	2.749	0.000	3.142	0.480	57.084	-3.577	-10.513	0.459	0.140	-0.054	-0.391	1.020	0.202	-1.689	-0.387	0.471	0.456	0.00003	496.537	-118.522	-135.156	0.00020	-1.496	0.811	1.402	0.203	0.740	0.008	
0.00290	34213	2.766	0.000	3.142	0.121	56.715	-3.782	-10.423	0.516	0.102	0.134	-0.391	1.020	0.202	-1.689	-0.387	0.471	0.449	0.01682	496.539	-118.521	-135.157	0.00721	-1.261	0.821	1.063	0.313	0.561	0.156	
0.00614	34496	2.917	0.000	-3.142	0.270	57.055	-3.668	-10.494	0.395	0.077	0.169	-0.391	1.020	0.202	-1.689	-0.387	0.471	0.323	0.15129	496.544	-118.517	-135.158	0.12603	-1.406	0.735	1.248	0.270	0.606	0.166	
0.00901	34774	3.100	0.000	-3.142	0.262	56.836	-3.658	-10.440	0.467	0.123	0.138	-0.391	1.020	0.202	-1.689	-0.387	0.471	0.128	0.18268	496.549	-118.510	-135.158	0.19538	-1.544	0.550	1.256	0.195	0.678	0.177	
0.00309	35056	-3.142	0.000	-3.142	0.321	56.940	-3.635	-10.461	0.462	0.131	0.092	-0.391	1.020	0.202	-1.689	-0.387	0.471	0.064	0.04182	496.552	-118.508	-135.158	0.06394	-1.576	0.354	1.169	0.091	0.715	0.141	
0.00142	35321	-3.142	0.000	-3.142	0.060	57.012	-3.771	-10.700	0.461	0.013	0.099	-0.391	1.020	0.202	-1.689	-0.387	0.471	0.064	0.00002	496.553	-118.507	-135.158	0.00004	-1.573	0.375	1.141	0.100	0.714	0.138	
2.83738	35569	3.141	0.000	-3.142	-0.051	56.964	-3.532	-10.871	0.221	-0.116	0.122	-0.390	1.022	0.202	-1.684	-0.384	0.475	0.062	0.00034	499.389	-118.515	-135.085	0.00719	-0.398	-0.515	1.479	-0.381	0.035	0.018	
6.86886	35849	-3.141	0.000	-3.141	-0.374	57.252	-3.734	-10.980	0.305	-0.086	0.090	-0.385	1.030	0.202	-1.662	-0.376	0.488	0.055	0.00042	506.258	-118.526	-135.140	0.02964	-0.495	-0.332	0.798	-0.287	0.099	0.015	
0.18476	36133	-3.142	-0.000	-3.142	-0.186	57.390	-3.719	-10.863	0.298	-0.084	0.083	-0.384	1.031	0.202	-1.658	-0.374	0.491	0.054	0.00018	506.441	-118.499	-135.139	0.00557	-0.864	-0.389	1.081	-0.335	0.257	0.022	
0.40975	36365	-3.141	0.000	-3.141	-0.288	57.697	-3.492	-10.733	0.217	-0.293	0.138	-0.384	1.031	0.202	-1.658	-0.374	0.491	0.054	0.00036	506.841	-118.578	-135.103	0.00004	-0.131	-0.244	0.855	-0.253	-0.063	0.014	
6.98726	36649	3.141	-0.000	-3.142	-0.032	59.605	-3.687	-11.267	0.238	-0.173	0.123	-0.380	1.038	0.202	-1.638	-0.367	0.503	0.049	0.00043	513.828	-118.498	-135.141	0.02618	-0.568	-0.553	1.247	-0.339	0.077	0.015	
2.60741	36932	-3.142	-0.000	-3.142	-0.175	58.390	-3.742	-11.279	0.268	-0.115	0.080	-0.378	1.042	0.202	-1.626	-0.363	0.511	0.045	0.00020	516.435	-118.494	-135.150	0.01621	-1.015	-0.277	1.432	-0.270	0.264	0.004	
0.04169	37133	-3.142	-0.000	-3.142	-0.684	58.327	-4.026	-12.453	0.254	-0.095	0.116	-0.378	1.042	0.202	-1.626	-0.363	0.511	0.045	0.00005	516.457	-118.494	-135.115	0.00008	-0.964	-0.421	1.384	-0.334	0.258	0.003	
3.69499	37368	-3.141	-0.000	-3.142	-0.321	58.300	-3.832	-11.673	0.196	-0.069	0.131	-0.376	1.045	0.202	-1.618	-0.360	0.516	0.043	0.00009	520.151	-118.479	-135.188	0.01073	-0.434	-0.289	1.283	-0.272	0.025	0.012	
6.32543	37649	-3.141	0.000	-3.142	-0.324	58.928	-3.804	-11.794	0.269	-0.113	0.030	-0.371	1.053	0.202	-1.595	-0.353	0.530	0.038	0.00005	526.476	-118.490	-135.177	0.02992	-0.894	-0.475	1.326	-0.345	0.218	-0.030	
0.05760	37898	3.141	-0.000	-3.142	-0.179	58.996	-3.771	-11.761	0.277	-0.111	0.078	-0.371	1.054	0.202	-1.593	-0.352	0.531	0.037	0.00029	526.426	-118.492	-135.150	0.00205	-0.819	-0.410	1.173	-0.304	0.209	0.005	
0.48389	38132	-3.141	0.000	-3.141	-0.457	59.763	-3.973	-11.982	0.193	-0.177	0.112	-0.371	1.054	0.202	-1.593	-0.352	0.531	0.037	0.00051	526.902	-118.549	-135.083	0.00005	-0.210	-0.405	1.126	-0.296	-0.025	-0.001	
6.81365	38413	3.142	-0.000	-3.142	0.050	60.105	-3.742	-11.748	0.210	-0.224	0.120	-0.367	1.061	0.202	-1.573	-0.346	0.543	0.032	0.00038	533.715	-118.492	-135.135	0.02624	-0.648	-0.395	1.409	-0.286	0.092	0.002	
2.72835	38694	-3.142	-0.000	-3.142	-0.156	60.163	-3.823	-12.354	0.326	-0.082	0.059	-0.364	1.066	0.202	-1.560	-0.342	0.551	0.030	0.00012	536.443	-118.502	-135.148	0.01684	-0.940	-0.528	1.286	-0.377	0.277	-0.001	
0.01360	38928	-3.142	-0.000	-3.142	-1.004	59.416	-4.133	-13.210	0.261	-0.110	0.116	-0.364	1.066	0.202	-1.560	-0.342	0.551	0.030	0.00002	536.446	-118.512	-135.139	0.00003	-1.023	-0.278	1.256	-0.276	0.290	0.005	
4.01686	39178	-3.141	0.000	-3.142	-0.441	60.316	-3.962	-12.869	0.215	-0.111	0.113	-0.362	1.069	0.202	-1.551	-0.340	0.557	0.028	0.00023	540.463	-118.484	-135.139	0.01177	-0.456	-0.380	0.904	-0.262	0.018	0.010	
5.96965	39459	3.142	-0.000	-3.142	-0.188	60.999	-3.861	-12.730	0.289	-0.072	0.097	-0.358	1.078	0.202	-1.527	-0.334	0.571	0.023	0.00030	546.433	-118.479	-135.193	0.03016	-0.895	-0.539	1.437	-0.359	0.258	0.008	
0.08062	39740	-3.142	-0.000	-3.142	-0.157	60.740	-3.786	-12.655	0.289	-0.068	0.085	-0.358	1.078	0.202	-1.526	-0.333	0.572	0.022	0.00011	546.438	-118.500	-135.115	0.00154	-1.085	-0.434	1.287	-0.315	0.334	0.007	
1.30132	39973	-3.142	0.000	-3.141	-0.325	60.927	-3.854	-12.934	0.232	-0.200	0.132	-0.357	1.078	0.202	-1.525	-0.333	0.572	0.022	0.00012	547.739	-118.499	-135.142	0.00109	-0.622	-0.394	1.502	-0.279	0.066	0.007	
6.96857	40253	-3.141	-0.000	-3.142	-0.120	61.209	-3.571	-12.949	0.294	-0.172	0.104	-0.353	1.087	0.202	-1.501	-0.327	0.587	0.018	0.00024	554.707	-118.481	-135.159	0.03062	-0.831	-0.331	1.118	-0.211	0.142	0.010	
1.65778	40496	-3.142	-0.000	-3.142	-0.155	61.424	-3.803	-13.131	0.298	-0.117	0.058	-0.351	1.091	0.202	-1.492	-0.325	0.592	0.016	0.00013	556.365	-118.470	-135.166	0.01239	-0.776	-0.489	1.125	-0.321	0.183	-0.017	
0.07830	40749	-3.142	-0.000	-3.142	-1.109	60.868	-4.246	-13.939	0.252	-0.097	0.112	-0.351	1.091	0.202	-1.492	-0.325	0.592	0.016	0.00010	556.432	-118.494	-135.135	0.00016	-0.745	-0.395	1.104	-0.284	0.171	-0.007	
4.12767	40983	-3.141	-0.000	-3.142	-0.539	61.667	-3.974	-13.330	0.224	-0.171	0.118	-0.349	1.095	0.202	-1.481	-0.323	0.598	0.014	0.00007	560.560	-118.515	-135.158	0.01300	-0.387	-0.343	1.209	-0.239	-0.011	0.001	
5.92624	41264	-3.142	-0.000	-3.142	-0.227	62.384	-3.871	-13.567	0.305	-0.096	0.067	-0.345	1.104	0.202	-1.457	-0.317	0.613	0.010	0.00009	566.486	-118.481	-135.193	0.03061	-0.931	-0.561	1.361	-0.367	0.244	-0.014	
0.09307	41545	-3.142	-0.000	-3.142	-0.173	62.380	-3.837	-13.547	0.314	-0.094	0.064	-0.345	1.104	0.202	-1.456	-0.317	0.613	0.010	0.00005	566.420	-118.476	-135.127	0.00104	-1.032	-0.557	1.266	-0.364	0.288	-0.012	
1.71824	41796	3.142	0.000	-3.141	-0.091	62.770	-3.785	-13.818	0.261	-0.171	0.123	-0.344	1.105	0.202	-1.454	-0.317	0.614	0.009	0.00021	568.136	-118.563	-135.137	0.00220	-0.553	-0.481	0.763	-0.291	0.039	0.011	
7.04824	42078	3.142	-0.000	-3.141	-0.109	63.286	-3.764	-14.083	0.327	-0.106	0.078	-0.340	1.115	0.202	-1.429	-0.312	0.629	0.005	0.00015	575.184	-118.511	-135.171	0.03226	-0.842	-0.612	1.432	-0.345	0.168	0.005	
1.30751	42358	-3.142	0.000	-3.142	-0.305	63.192	-3.919	-14.041	0.322	-0.105	0.076	-0.338	1.118	0.202	-1.420	-0.310	0.635	0.004	0.00012	576.490	-118.503	-135.107	0.01126	-0.941	-0.493	1.260	-0.331	0.248	-0.002	
0.00698	42545	-3.142	0.000	-3.142	-0.030	63.381	-3.698	-14.367	0.296	-0.194	0.140	-0.338	1.118	0.202	-1.420	-0.310	0.635	0.004	0.00001	576.497	-118.504	-135.109	0.00001	-1.021	-0.601	1.397	-0.353	0.194	0.010	
6.07157	42826	-3.142	0.000	-3.142	0.214	64.075	-3.772	-14.103	0.247	-0.220	0.124	-0.335	1.125	0.202	-1.402	-0.306	0.645	0.001	0.00003	582.568	-118.484	-135.176	0.02286	-0.472	-0.360	0.792	-0.230	-0.009	0.022	
3.83359	43108	-3.142	-0.000	-3.142	-0.190	63.752	-3.833	-14.421	0.332	-0.114	0.056	-0.332	1.132	0.202	-1.383	-0.303	0.656	-0.002	0.00018	586.401	-118.467	-135.173	0.02361	-0.830	-0.547	1.118	-0.345	0.202	-0.017	
0.02176	43357	-3.142	-0.000	3.142	-0.262	64.437	-3.897	-15.128	0.371	-0.073	0.065	-0.332	1.132	0.202	-1.383	-0.303	0.656	-0.002	0.00003	586.382	-118.459	-135.175	0.00017	-0.848	-0.524	1.051	-0.342	0.215	-0.013	
2.91677	43593	3.141	0.000	-3.142	0.015	64.505	-3.705	-14.752	0.286	-0.221	0.106	-0.331	1.135	0.202	-1.377	-0.302	0.660	-0.003	0.00028	589.298	-118.494	-135.123	0.00763	-0.753	-0.766	1.195	-0.393	0.084	-0.002	
6.95722	43873	3.141	0.000	-3.142	-0.345	64.305	-3.827	-14.726	0.351	-0.122	0.051	-0.326	1.145	0.202	-1.351	-0.297	0.675	-0.007	0.00018	596.255	-118.474	-135.143	0.03310	-0.577	-0.634	0.804	-0.358	0.090	-0.007	
0.18992	44156	-3.142	-0.000	-3.142	-0.261	64.544	-3.846	-14.892	0.355	-0.116	0.051	-0.325	1.147	0.202	-1.346	-0.296	0.678	-0.008	0.00026	596.444	-118.489	-135.152	0.00673	-0.794	-0.534	1.023	-0.338	0.191	-0.012	
0.72053	44404	3.142	0.000	-3.141	-0.266	64.666	-3.816	-15.536	0.273	-0.110	0.125	-0.325	1.147	0.202	-1.346	-0.296	0.678	-0.008	0.00041	597.150	-118.607	-135.069	0.00011	-0.673	-0.451	0.723	-0.264	0.060	0.012	
6.98463	44685	-3.142	0.000	-3.141	-0.198	65.609	-3.941	-15.211	0.298	-0.167	0.111	-0.321	1.157	0.202	-1.321	-0.293	0.692	-0.011	0.00021	604.134	-118.515	-135.131	0.03100	-0.642	-0.621	1.282	-0.336	0.052	0.007	
2.24643	44962	-3.142	-0.000	3.142	-0.306	65.500	-3.829	-15.295	0.334	-0.084	0.085	-0.319	1.163	0.202	-1.307	-0.290	0.701	-0.013	0.00035	606.379	-118.472	-135.172	0.01738	-1.166	-0.570	1.326	-0.313	0.339	0.006	
0.04631	45198	-3.141	-0.000	-3.142	-1.215	64.973	-4.227	-15.932	0.304	-0.137	0.106	-0.319	1.163	0.202	-1.307	-0.290	0.701	-0.013	0.00006	606.391	-118.445	-135.136	0.00011	-1.066	-0.548	1.364	-0.337	0.299	0.002	
3.99355	45432	3.141	0.000	-3.142	-0.362	66.043	-3.730	-15.711	0.298	-0.247	0.122	-0.317	1.167	0.202	-1.296	-0.289	0.706	-0.014	0.00048	610.384	-118.494	-135.154	0.01293	-0.099	-0.651	0.774	-0.297	-0.114	0.020	
6.09996	45716	3.142	0.000	3.142	-0.156	66.292	-3.797	-15.730	0.381	-0.132	0.103	-0.313	1.178	0.202	-1.269	-0.285	0.722	-0.018	0.00027	616.484	-118.466	-135.182	0.03488	-1.041	-0.405	1.276	-0.274	0.251	0.035	
0.06490	45949	-3.142	0.000	-3.142	-0.233	66.320	-3.798	-15.723	0.386	-0.122	0.093	-0.312	1.179	0.202	-1.267	-0.284	0.723	-0.018	0.00008	616.466	-118.491	-135.125	0.00189	-1.006	-0.601	1.299	-0.351	0.248	0.024	
0.54392	46184	-3.142	0.000	-3.141	-0.164	66.737	-3.642	-16.339	0.338	-0.140	0.122	-0.312	1.179	0.202	-1.267	-0.284	0.723	-0.018	0.00029	617.000	-118.591	-135.104	0.00006	-0.823	-0.667	1.246	-0.321	0.099	0.021	
6.94744	46466	-3.142	0.000	-3.141	-0.015	67.203	-3.775	-16.038	0.320	-0.200	0.085	-0.308	1.190	0.202	-1.241	-0.281	0.738	-0.022	0.00016	623.947	-118.526	-135.126	0.03195	-0.192	-0.617	0.696	-0.318	-0.082	0.002	
2.50616	46744	3.142	-0.000	-3.142	-0.306	67.105	-3.760	-16.210	0.380	-0.138	0.035	-0.306	1.196	0.202	-1.226	-0.279	0.747	-0.024	0.00022	626.453	-118.522	-135.112	0.01912	-0.945	-0.709	1.153	-0.391	0.210	-0.029	
0.04692	47010	-3.142	-0.000	-3.142	-0.872	67.303	-4.008	-16.755	0.323	-0.100	0.099	-0.306	1.196	0.202	-1.226	-0.279	0.747	-0.024	0.00007	626.454	-118.475	-135.111	0.00009	-0.258	-0.625	0.661	-0.363	-0.035	-0.010	
4.93681	47266	-3.141	-0.000	-3.142	-0.382	67.700	-3.809	-16.772	0.339	-0.154	0.126	-0.303	1.202	0.202	-1.210	-0.277	0.755	-0.025	0.00019	631.390	-118.498	-135.205	0.01979	-0.341	-0.436	0.611	-0.254	-0.048	0.015	
5.02944	47548	-3.142	-0.000	3.142	-0.301	67.820	-3.774	-16.581	0.415	-0.149	0.093	-0.299	1.213	0.202	-1.184	-0.274	0.770	-0.029	0.00021	636.419	-118.453	-135.221	0.03276	-0.861	-0.563	1.165	-0.323	0.172	0.034	
0.13235	47830	3.142	0.000	-3.142	-0.395	67.750	-3.779	-16.605	0.415	-0.143	0.087	-0.299	1.213	0.202	-1.184	-0.274	0.770	-0.029	0.00014	636.471	-118.510	-135.113	0.00019	-0.912	-0.579	1.197	-0.335	0.199	0.028	
1.55584	48016	-3.141	0.000	-3.141	-0.566	68.249	-3.816	-16.930	0.337	-0.194	0.129	-0.299	1.214	0.202	-1.182	-0.274	0.771	-0.029	0.00020	638.026	-118.527	-135.160	0.00221	-0.664	-0.526	0.932	-0.265	0.048	0.028	
6.93478	48297	3.141	-0.000	-3.142	-0.429	68.367	-3.843	-16.939	0.379	-0.186	0.100	-0.294	1.227	0.202	-1.152	-0.270	0.788	-0.032	0.00030	644.961	-118.463	-135.169	0.03753	-0.500	-0.595	1.180	-0.320	-0.019	0.020	
1.40290	48531	-3.142	-0.000	3.142	-0.344	68.578	-3.690	-17.113	0.411	-0.148	0.098	-0.293	1.232	0.202	-1.140	-0.269	0.795	-0.034	0.00019	646.363	-118.458	-135.162	0.01444	-0.864	-0.528	1.160	-0.272	0.178	0.039	
0.05560	48784	-3.142	-0.000	3.142	-1.136	68.108	-3.919	-17.493	0.371	-0.181	0.114	-0.293	1.232	0.202	-1.140	-0.269	0.795	-0.034	0.00008	646.409	-118.475	-135.136	0.00008	-0.817	-0.504	1.249	-0.275	0.156	0.037	
3.97113	48999	-3.141	0.000	-3.142	-0.835	68.883	-3.865	-17.262	0.337	-0.295	0.132	-0.291	1.237	0.202	-1.128	-0.268	0.801	-0.035	0.00030	650.380	-118.512	-135.186	0.01490	-0.385	-0.323	1.110	-0.205	-0.063	0.043	
6.13911	49280	3.142	0.000	-3.142	-0.301	69.422	-3.606	-17.506	0.460	-0.149	0.075	-0.286	1.250	0.202	-1.097	-0.264	0.819	-0.039	0.00021	656.519	-118.479	-135.159	0.03892	-0.867	-0.582	1.201	-0.317	0.177	0.037	
0.12478	49561	-3.142	-0.000	3.142	-0.382	69.367	-3.676	-17.465	0.458	-0.145	0.070	-0.286	1.251	0.202	-1.095	-0.264	0.820	-0.039	0.00024	656.397	-118.463	-135.180	0.00223	-0.885	-0.570	1.119	-0.324	0.193	0.026	
1.93576	49812	-3.141	0.000	-3.141	-0.288	70.068	-3.406	-17.529	0.380	-0.245	0.117	-0.286	1.252	0.202	-1.092	-0.264	0.821	-0.039	0.00064	658.315	-118.632	-134.983	0.00310	-0.046	-0.521	0.845	-0.267	-0.166	0.035	
6.95855	50092	-3.142	0.000	-3.142	1.477	71.536	-2.315	-19.469	0.862	0.356	0.023	-0.281	1.266	0.202	-1.059	-0.261	0.839	-0.043	0.00046	665.272	-118.506	-135.090	0.04094	0.862	1.370	1.414	-0.170	-0.033	-0.028	
1.16505	50375	-3.141	-0.000	3.142	1.946	71.748	-1.763	-19.808	1.090	0.493	-0.015	-0.279	1.271	0.202	-1.048	-0.259	0.846	-0.044	0.00020	666.431	-118.413	-135.166	0.01440	0.869	3.034	1.824	-0.046	0.174	-0.055	
0.08381	50561	-3.142	-0.000	3.142	6.181	75.220	0.420	-21.520	1.615	1.170	-0.079	-0.279	1.271	0.202	-1.048	-0.259	0.846	-0.044	0.00011	666.460	-118.478	-135.121	0.00014	4.935	4.976	0.091	-0.011	-0.449	-0.136	
1.82165	50844	-3.141	-0.000	3.142	6.357	75.402	1.603	-23.570	2.446	1.712	-0.209	-0.277	1.276	0.202	-1.038	-0.259	0.851	-0.045	0.00038	668.252	-118.291	-135.394	0.01193	4.228	9.469	2.742	0.289	0.110	-0.200	
0.36507	51077	3.142	0.000	-3.142	3.674	71.990	-0.732	-19.607	1.637	0.592	-0.111	-0.278	1.275	0.202	-1.038	-0.259	0.851	-0.045	0.00078	668.168	-118.495	-135.103	0.00057	0.844	8.185	1.898	0.297	0.764	-0.116	
3.50252	51359	3.141	0.001	-3.141	0.415	70.881	-3.466	-18.434	0.686	0.135	-0.054	-0.280	1.268	0.202	-1.054	-0.260	0.842	-0.043	0.00128	664.799	-119.395	-134.771	0.02011	-2.596	-0.025	1.441	-0.240	1.067	-0.016	
1.49780	51640	-3.142	0.000	-3.141	0.222	70.140	-3.584	-17.711	0.632	0.075	-0.046	-0.281	1.265	0.202	-1.062	-0.261	0.838	-0.043	0.00123	663.589	-118.597	-135.148	0.00921	-2.384	-0.191	1.124	-0.199	0.926	0.003	
0.12613	51833	-3.141	0.000	-3.141	0.249	70.138	-3.535	-17.735	0.624	0.080	0.117	-0.281	1.265	0.202	-1.062	-0.261	0.838	-0.043	0.00021	663.502	-118.514	-135.185	0.00020	-2.332	0.047	1.302	-0.041	0.909	0.134	
0.01519	52124	-3.063	0.000	-3.141	0.211	70.164	-3.493	-17.706	0.584	0.050	0.247	-0.281	1.265	0.202	-1.062	-0.261	0.838	-0.098	0.07834	663.511	-118.505	-135.176	0.05499	-2.310	-0.192	1.246	-0.102	0.890	0.174	
0.01711	52403	-2.861	0.000	-3.141	0.227	70.107	-3.588	-17.686	0.618	0.071	0.143	-0.281	1.265	0.202	-1.062	-0.261	0.838	-0.290	0.20213	663.514	-118.489	-135.174	0.19225	-2.211	-0.601	1.233	-0.247	0.859	0.195	
0.01216	52683	-2.752	0.000	-3.141	0.181	70.116	-3.564	-17.743	0.630	0.064	0.092	-0.281	1.265	0.202	-1.062	-0.261	0.838	-0.424	0.10849	663.517	-118.477	-135.172	0.13416	-2.128	-0.770	1.241	-0.317	0.825	0.173	
0.00109	52951	-2.749	0.000	-3.141	0.202	70.100	-3.565	-17.725	0.632	0.064	0.083	-0.281	1.265	0.202	-1.062	-0.261	0.838	-0.435	0.00373	663.518	-118.477	-135.172	0.01129	-2.128	-0.863	1.257	-0.369	0.816	0.125	
0.06282	53142	-2.749	0.000	-3.141	-0.519	70.182	-3.532	-18.099	0.499	-0.148	0.003	-0.281	1.265	0.202	-1.062	-0.261	0.838	-0.435	0.00008	663.574	-118.470	-135.146	0.00000	-0.793	-0.483	1.117	-0.224	0.182	0.051	
6.13437	53433	-2.749	-0.000	-3.141	0.427	69.980	-3.146	-17.912	0.396	-0.262	-0.026	-0.275	1.274	0.202	-1.041	-0.259	0.849	-0.434	0.00023	669.248	-116.138	-135.192	0.02595	-0.046	-1.488	1.087	-0.571	-0.214	-0.088	
3.74350	53714	-2.749	-0.000	-3.142	-0.402	70.655	-3.500	-18.138	0.436	-0.175	0.021	-0.269	1.283	0.202	-1.020	-0.257	0.861	-0.434	0.00028	672.685	-114.656	-135.168	0.02638	-0.524	-0.895	1.090	-0.335	0.028	-0.024	
0.07004	53965	-2.749	-0.000	-3.142	-0.742	70.378	-3.639	-18.280	0.421	-0.161	0.017	-0.269	1.283	0.202	-1.020	-0.257	0.861	-0.434	0.00008	672.717	-114.623	-135.114	0.00020	-0.481	-0.905	1.076	-0.361	0.018	-0.028	
2.66148	54217	-2.749	0.000	-3.141	-0.290	71.370	-3.411	-18.767	0.394	-0.188	-0.036	-0.268	1.285	0.202	-1.014	-0.257	0.864	-0.434	0.00012	675.205	-113.679	-135.157	0.00768	0.089	-0.655	0.923	-0.266	-0.263	-0.098	
6.93664	54499	-2.749	-0.000	-3.141	-0.167	71.423	-3.315	-18.525	0.455	-0.131	-0.036	-0.259	1.299	0.202	-0.984	-0.254	0.881	-0.433	0.00014	681.609	-111.014	-135.144	0.03852	0.009	-1.139	0.986	-0.451	-0.213	-0.092	
0.40137	54748	-2.749	-0.000	-3.141	-0.286	71.462	-3.356	-18.592	0.461	-0.128	-0.032	-0.258	1.301	0.202	-0.977	-0.253	0.884	-0.433	0.00015	681.978	-110.869	-135.079	0.00800	-0.612	-1.128	1.074	-0.485	0.081	-0.074	
0.08026	54989	-2.749	-0.000	-3.142	-0.270	71.119	-3.253	-18.825	0.404	-0.213	-0.047	-0.258	1.301	0.202	-0.977	-0.253	0.884	-0.433	0.00009	681.971	-110.803	-135.123	0.00006	0.077	-1.206	0.893	-0.463	-0.272	-0.096	
6.12314	55281	-2.749	-0.000	-3.142	2.588	74.008	-1.970	-20.664	0.782	0.867	-0.143	-0.252	1.311	0.202	-0.955	-0.251	0.896	-0.433	0.00012	687.623	-108.448	-135.229	0.02801	0.744	-0.368	0.825	-0.212	-0.398	-0.099	
3.78500	55563	-2.749	-0.000	3.141	2.119	74.758	-1.575	-21.964	1.248	1.158	-0.142	-0.246	1.322	0.202	-0.932	-0.250	0.909	-0.433	0.00036	691.051	-106.848	-135.336	0.02875	2.255	4.348	1.811	-0.171	0.074	-0.184	
0.19274	55811	-2.749	0.000	-3.142	1.614	75.672	-2.095	-23.248	1.126	1.743	-0.171	-0.246	1.321	0.202	-0.932	-0.250	0.908	-0.432	0.00039	691.132	-106.969	-135.210	0.00075	3.459	4.838	1.563	-0.067	-0.106	-0.179	
0.04573	56046	-2.749	-0.000	3.142	1.871	75.761	-1.921	-23.222	1.181	1.713	-0.173	-0.246	1.322	0.202	-0.932	-0.250	0.909	-0.432	0.00020	691.174	-106.954	-135.200	0.00087	3.735	4.823	1.533	-0.120	-0.121	-0.194	
0.25059	56281	-2.749	0.000	-3.141	0.509	72.169	-3.080	-19.315	0.768	0.295	0.015	-0.246	1.321	0.202	-0.932	-0.250	0.909	-0.432	0.00036	690.986	-107.098	-135.118	0.00016	-1.644	1.789	2.204	-0.368	0.960	-0.012	
3.48893	56561	-2.749	0.000	-3.141	0.497	72.209	-3.301	-18.634	0.665	0.065	0.042	-0.250	1.314	0.202	-0.947	-0.251	0.900	-0.433	0.00041	687.880	-108.675	-134.921	0.01909	-3.236	-0.994	1.185	-0.401	1.238	0.103	
1.25508	56811	-2.749	0.000	-3.141	0.464	72.018	-3.307	-18.763	0.596	0.070	0.039	-0.252	1.311	0.202	-0.955	-0.252	0.896	-0.433	0.00041	686.684	-108.958	-135.179	0.00969	-2.499	-0.826	1.358	-0.326	0.962	0.080	
0.04194	57063	-2.749	0.000	-3.141	0.367	71.835	-3.328	-18.706	0.602	0.073	0.162	-0.252	1.311	0.202	-0.955	-0.251	0.896	-0.433	0.00016	686.707	-108.951	-135.144	0.00018	-2.466	-0.775	1.375	-0.285	0.962	0.119	
0.01832	57326	-2.698	0.000	-3.141	0.321	71.868	-3.332	-18.675	0.556	0.026	0.244	-0.252	1.311	0.202	-0.955	-0.251	0.896	-0.465	0.05133	686.716	-108.938	-135.135	0.03246	-2.402	-0.871	1.376	-0.282	0.941	0.194	
0.00686	57607	-2.504	0.000	-3.141	0.280	71.857	-3.306	-18.730	0.606	0.050	0.132	-0.252	1.311	0.202	-0.955	-0.251	0.896	-0.639	0.19354	686.718	-108.933	-135.131	0.17416	-2.140	-1.334	1.361	-0.461	0.854	0.193	
0.00414	57890	-2.368	0.000	-3.141	0.329	71.885	-3.352	-18.719	0.602	0.048	0.137	-0.252	1.311	0.202	-0.955	-0.251	0.896	-0.802	0.13637	686.720	-108.931	-135.128	0.16255	-2.024	-1.536	1.389	-0.530	0.821	0.206	
0.00248	58148	-2.356	0.000	-3.141	0.320	71.872	-3.323	-18.704	0.604	0.047	0.123	-0.252	1.311	0.202	-0.955	-0.251	0.896	-0.825	0.01145	686.722	-108.930	-135.126	0.02350	-1.983	-1.633	1.383	-0.579	0.790	0.154	
0.00212	58365	-2.356	0.000	-3.141	-1.096	70.927	-3.569	-18.297	0.514	-0.213	-0.058	-0.252	1.311	0.202	-0.955	-0.251	0.896	-0.825	0.00002	686.723	-108.930	-135.125	0.00002	-1.290	-1.444	1.457	-0.524	0.483	0.094	
4.96177	58644	-2.356	-0.000	-3.141	-0.203	72.268	-3.141	-19.134	0.467	-0.242	-0.068	-0.246	1.317	0.202	-0.943	-0.251	0.903	-0.823	0.00016	690.221	-105.411	-135.121	0.01599	0.032	-0.627	0.935	-0.187	-0.241	-0.123	
4.99080	58923	-2.356	-0.000	-3.142	-0.472	72.237	-3.316	-19.048	0.475	-0.169	-0.020	-0.237	1.325	0.202	-0.923	-0.249	0.914	-0.819	0.00023	693.668	-101.802	-135.204	0.02634	-0.003	-0.913	0.971	-0.289	-0.142	-0.058	
0.06905	59173	-2.356	-0.000	-3.141	-0.374	72.272	-3.242	-19.077	0.484	-0.163	-0.019	-0.237	1.325	0.202	-0.923	-0.249	0.914	-0.819	0.00008	693.702	-101.826	-135.149	0.00012	0.179	-0.860	0.811	-0.287	-0.205	-0.055	
1.34901	59378	-2.356	-0.000	-3.141	-0.755	72.560	-3.257	-19.644	0.472	-0.199	-0.083	-0.237	1.326	0.202	-0.921	-0.249	0.914	-0.819	0.00040	694.769	-101.016	-134.997	0.00141	0.642	-0.870	0.779	-0.246	-0.443	-0.126	
7.08906	59657	-2.356	-0.000	-3.141	-0.702	72.864	-3.282	-19.249	0.456	-0.211	-0.068	-0.227	1.336	0.202	-0.898	-0.247	0.927	-0.814	0.00025	699.677	-95.902	-135.136	0.03036	-0.397	-0.851	1.458	-0.256	-0.088	-0.121	
1.54827	59937	-2.356	-0.000	-3.141	-0.383	72.616	-3.149	-19.297	0.497	-0.180	-0.047	-0.223	1.340	0.202	-0.889	-0.246	0.932	-0.812	0.00029	700.794	-94.832	-135.078	0.01225	-0.015	-1.251	1.334	-0.422	-0.171	-0.083	
0.09160	60195	-2.356	-0.000	-3.141	-1.147	72.752	-3.414	-19.376	0.420	-0.243	-0.092	-0.223	1.340	0.202	-0.889	-0.246	0.932	-0.812	0.00012	700.762	-94.766	-135.133	0.00009	0.719	-0.756	0.583	-0.253	-0.441	-0.091	
4.95543	60467	-2.356	-0.000	-3.141	-0.711	73.087	-3.236	-19.941	0.466	-0.152	-0.106	-0.217	1.346	0.202	-0.876	-0.245	0.939	-0.810	0.00017	704.284	-91.280	-135.199	0.01718	0.787	-1.063	0.938	-0.315	-0.509	-0.147	
5.08322	60748	-2.356	-0.000	-3.141	-0.614	73.236	-3.131	-19.546	0.490	-0.182	-0.079	-0.208	1.356	0.202	-0.854	-0.244	0.951	-0.806	0.00021	707.814	-87.623	-135.207	0.02871	-0.104	-1.359	1.230	-0.456	-0.136	-0.117	
0.11401	60996	-2.356	-0.000	-3.141	-0.339	73.239	-3.008	-19.618	0.512	-0.171	-0.073	-0.208	1.356	0.202	-0.854	-0.244	0.951	-0.806	0.00015	707.862	-87.682	-135.122	0.00011	-0.196	-1.390	1.242	-0.474	-0.105	-0.104	
1.08925	61231	-2.356	-0.000	-3.141	0.663	77.173	-2.468	-24.283	0.938	2.106	-0.249	-0.208	1.356	0.202	-0.853	-0.244	0.951	-0.806	0.00020	708.699	-86.987	-135.066	0.00106	7.017	4.943	-0.081	0.032	-1.129	-0.336	
2.57998	61513	-2.356	-0.001	3.141	1.690	80.174	-2.123	-27.319	1.264	3.474	-0.329	-0.203	1.362	0.202	-0.840	-0.243	0.958	-0.804	0.00090	710.105	-84.879	-135.548	0.01671	5.909	10.430	2.425	0.256	-0.401	-0.329	
0.98881	61747	-2.356	0.000	-3.141	1.351	75.261	-2.341	-21.346	1.013	0.978	0.021	-0.203	1.362	0.202	-0.841	-0.243	0.957	-0.804	0.00108	709.948	-85.709	-135.034	0.00159	0.644	4.685	1.716	-0.506	0.632	-0.044	
3.50021	62028	-2.357	0.001	-3.140	0.354	72.710	-3.027	-19.259	0.667	-0.035	0.062	-0.209	1.355	0.202	-0.853	-0.244	0.950	-0.806	0.00131	707.984	-88.573	-134.600	0.01704	-2.036	-2.003	1.447	-0.754	0.779	0.127	
1.32726	62295	-2.356	-0.000	-3.142	0.113	73.176	-3.094	-19.460	0.671	0.020	0.062	-0.210	1.354	0.202	-0.858	-0.244	0.948	-0.807	0.00186	706.819	-88.622	-135.234	0.00529	-2.000	-1.758	1.388	-0.653	0.723	0.100	
0.05192	62528	-2.356	-0.000	-3.141	0.278	73.229	-3.070	-19.483	0.672	0.003	0.204	-0.210	1.354	0.202	-0.858	-0.244	0.948	-0.807	0.00005	706.835	-88.654	-135.196	0.00007	-1.937	-1.713	1.346	-0.608	0.727	0.176	
0.01029	62807	-2.282	-0.000	-3.142	0.160	73.178	-3.042	-19.551	0.671	-0.006	0.159	-0.210	1.354	0.202	-0.858	-0.244	0.948	-0.858	0.07387	706.838	-88.644	-135.194	0.05076	-1.640	-1.760	1.328	-0.596	0.631	0.193	
0.04450	63090	-2.078	-0.000	-3.142	0.222	73.233	-3.045	-19.526	0.587	-0.001	0.010	-0.210	1.354	0.202	-0.858	-0.244	0.948	-1.050	0.20375	706.876	-88.645	-135.170	0.19255	-1.264	-2.049	1.365	-0.698	0.510	0.156	
0.01110	63370	-1.968	-0.000	-3.142	0.235	73.224	-3.066	-19.499	0.608	-0.010	0.047	-0.210	1.354	0.202	-0.858	-0.244	0.948	-1.188	0.11058	706.885	-88.644	-135.164	0.13735	-1.145	-2.117	1.331	-0.718	0.476	0.149	
0.00319	63634	-1.963	-0.000	-3.142	0.233	73.217	-3.080	-19.513	0.605	-0.008	0.042	-0.210	1.354	0.202	-0.858	-0.244	0.948	-1.200	0.00446	706.887	-88.644	-135.163	0.01218	-1.024	-2.213	1.350	-0.761	0.407	0.071	
0.04421	63869	-1.963	-0.000	-3.142	-0.035	73.354	-3.014	-19.665	0.538	-0.168	-0.115	-0.210	1.354	0.202	-0.858	-0.244	0.948	-1.200	0.00006	706.924	-88.628	-135.144	0.00001	-0.027	-1.619	0.906	-0.531	-0.043	-0.046	
6.05834	64164	-1.964	-0.000	3.142	0.751	73.370	-2.627	-19.551	0.504	-0.306	-0.115	-0.203	1.357	0.202	-0.850	-0.244	0.952	-1.194	0.00018	709.227	-83.025	-135.174	0.01333	0.279	-0.995	1.309	-0.233	-0.288	-0.162	
3.93715	64443	-1.964	-0.000	3.142	-0.493	73.168	-3.031	-19.683	0.485	-0.112	-0.085	-0.195	1.361	0.202	-0.842	-0.243	0.957	-1.189	0.00017	710.751	-79.395	-135.152	0.01405	0.482	-1.283	1.089	-0.410	-0.278	-0.122	
0.02918	64711	-1.964	-0.000	-3.142	-0.780	73.216	-3.126	-19.660	0.515	-0.114	-0.087	-0.195	1.361	0.202	-0.842	-0.243	0.957	-1.189	0.00003	710.765	-79.375	-135.135	0.00013	0.530	-1.267	1.058	-0.416	-0.320	-0.112	
2.16816	64899	-1.963	-0.000	-3.141	-0.837	73.729	-3.042	-20.066	0.483	-0.208	-0.120	-0.193	1.362	0.202	-0.840	-0.243	0.958	-1.187	0.00034	711.706	-77.425	-135.032	0.00294	1.169	-0.372	0.766	0.009	-0.581	-0.163	
7.11357	65183	-1.964	-0.000	-3.142	-0.442	73.056	-3.008	-19.612	0.481	-0.200	-0.122	-0.183	1.367	0.202	-0.828	-0.242	0.964	-1.180	0.00024	714.335	-70.816	-135.155	0.01981	0.711	-0.480	0.856	-0.073	-0.421	-0.174	
0.68128	65464	-1.964	-0.000	-3.142	-0.488	73.303	-2.977	-19.794	0.498	-0.183	-0.100	-0.180	1.369	0.202	-0.825	-0.242	0.966	-1.178	0.00017	714.594	-70.186	-135.162	0.00527	0.553	-0.891	1.025	-0.220	-0.344	-0.130	
0.04057	65705	-1.964	-0.000	-3.142	0.050	73.034	-2.636	-19.904	0.488	-0.213	-0.164	-0.180	1.369	0.202	-0.825	-0.242	0.966	-1.178	0.00006	714.596	-70.146	-135.162	0.00012	0.846	-0.494	0.663	-0.061	-0.494	-0.181	
6.05079	65997	-1.964	-0.000	-3.141	0.401	73.729	-2.668	-19.683	0.457	-0.268	-0.126	-0.173	1.373	0.202	-0.816	-0.241	0.971	-1.173	0.00021	716.941	-64.568	-135.188	0.01375	1.216	-0.746	1.109	-0.153	-0.613	-0.182	
3.93866	66277	-1.964	-0.000	3.141	-0.812	75.040	-3.211	-21.049	0.447	0.400	-0.104	-0.165	1.377	0.202	-0.806	-0.241	0.976	-1.167	0.00034	718.348	-60.889	-135.224	0.01530	1.214	0.405	1.379	-0.266	-0.357	-0.141	
0.13436	66543	-1.964	-0.000	-3.142	-1.274	74.579	-3.480	-20.941	0.335	0.416	-0.121	-0.165	1.377	0.202	-0.806	-0.240	0.976	-1.167	0.00016	718.420	-60.895	-135.111	0.00025	1.883	0.361	1.198	-0.299	-0.367	-0.144	
1.34675	66792	-1.963	-0.001	3.141	-1.848	77.406	-3.941	-23.377	0.259	1.573	-0.184	-0.163	1.378	0.202	-0.804	-0.240	0.977	-1.166	0.00099	718.492	-59.619	-135.537	0.00340	4.302	4.333	1.350	-0.087	-0.548	-0.241	
0.50806	67010	-1.964	-0.000	3.142	-0.218	74.837	-3.057	-21.050	0.489	0.686	-0.007	-0.163	1.378	0.202	-0.804	-0.240	0.977	-1.165	0.00085	718.879	-59.694	-135.217	0.00077	3.468	5.476	2.524	-0.131	-0.348	-0.201	
2.52665	67294	-1.963	0.000	-3.140	0.328	74.072	-2.914	-19.944	0.644	0.124	0.083	-0.166	1.376	0.202	-0.807	-0.241	0.975	-1.168	0.00163	718.630	-62.133	-134.605	0.00600	-1.192	-3.066	1.728	-1.168	0.483	0.089	
2.74257	67575	-1.963	-0.000	-3.141	0.142	73.760	-2.965	-19.823	0.627	0.092	0.045	-0.171	1.374	0.202	-0.813	-0.241	0.972	-1.171	0.00145	717.046	-64.313	-135.112	0.00899	-1.151	-2.727	1.549	-1.051	0.440	0.066	
0.09150	67844	-1.963	-0.000	-3.141	0.198	73.872	-2.888	-19.841	0.643	0.086	0.063	-0.170	1.374	0.202	-0.813	-0.241	0.972	-1.171	0.00005	717.017	-64.330	-135.198	0.00022	-1.157	-2.700	1.248	-1.026	0.442	0.060	
0.05807	68076	-1.947	-0.000	-3.141	0.122	73.837	-2.904	-19.883	0.632	0.065	0.088	-0.170	1.374	0.202	-0.813	-0.241	0.972	-1.178	0.01685	717.028	-64.273	-135.201	0.00707	-1.205	-2.541	1.298	-0.940	0.493	0.170	
0.02644	68358	-1.795	-0.000	-3.141	0.272	73.810	-2.887	-19.874	0.634	0.052	0.280	-0.170	1.374	0.202	-0.813	-0.241	0.972	-1.303	0.15118	717.032	-64.299	-135.202	0.12461	-0.614	-2.575	1.292	-0.938	0.275	0.171	
0.03791	68638	-1.613	-0.000	-3.142	0.199	73.810	-2.890	-19.829	0.636	0.065	0.174	-0.171	1.374	0.202	-0.813	-0.241	0.972	-1.500	0.18270	717.037	-64.337	-135.201	0.19742	-0.190	-2.697	1.334	-0.985	0.133	0.175	
0.01934	68923	-1.571	-0.000	-3.142	0.140	73.840	-2.916	-19.836	0.643	0.077	0.098	-0.170	1.374	0.202	-0.813	-0.241	0.972	-1.564	0.04197	717.040	-64.318	-135.201	0.06355	-0.123	-2.830	1.304	-1.048	0.090	0.114	
0.03315	69187	-1.571	-0.000	-3.142	0.055	73.836	-2.962	-19.841	0.635	0.076	0.088	-0.170	1.374	0.202	-0.813	-0.241	0.972	-1.564	0.00005	717.043	-64.285	-135.202	0.00001	-0.055	-2.792	1.306	-1.036	0.055	0.108	
2.13276	69421	-1.571	-0.000	3.142	-0.374	73.349	-2.812	-19.588	0.653	0.088	-0.057	-0.169	1.374	0.202	-0.813	-0.241	0.972	-1.562	0.00045	717.013	-62.153	-135.242	0.00215	1.168	-2.911	1.449	-1.103	-0.597	-0.073	
7.04724	69705	-1.571	-0.000	-3.142	-0.566	73.473	-2.972	-19.674	0.607	0.044	-0.039	-0.160	1.372	0.202	-0.817	-0.241	0.970	-1.552	0.00034	717.045	-55.106	-135.203	0.01471	1.121	-2.674	1.593	-0.971	-0.594	-0.079	
0.76508	69972	-1.571	-0.000	-3.141	-0.379	74.083	-2.876	-19.914	0.637	0.051	-0.034	-0.157	1.372	0.202	-0.818	-0.241	0.969	-1.549	0.00011	717.085	-54.343	-135.151	0.00395	1.018	-2.492	1.223	-0.908	-0.508	-0.059	
0.07513	70170	-1.571	-0.000	-3.141	-0.620	74.022	-2.956	-19.833	0.622	0.103	-0.090	-0.157	1.372	0.202	-0.818	-0.241	0.969	-1.549	0.00009	717.091	-54.268	-135.151	0.00007	1.798	-2.549	1.090	-0.934	-0.835	-0.116	
6.03197	70460	-1.571	-0.000	3.142	0.473	73.379	-2.575	-19.639	0.696	0.062	-0.073	-0.151	1.371	0.202	-0.820	-0.241	0.969	-1.542	0.00023	717.042	-48.237	-135.119	0.00980	1.199	-3.006	1.565	-1.126	-0.648	-0.092	
3.94318	70742	-1.571	-0.000	-3.142	-0.589	73.627	-2.940	-19.715	0.681	0.064	-0.039	-0.143	1.370	0.202	-0.822	-0.242	0.967	-1.535	0.00012	717.051	-44.294	-135.146	0.01063	1.025	-2.611	1.401	-0.978	-0.546	-0.056	
0.03655	71007	-1.571	-0.000	-3.141	-0.882	73.750	-3.042	-19.746	0.667	0.064	-0.045	-0.144	1.370	0.202	-0.822	-0.242	0.967	-1.535	0.00008	717.082	-44.277	-135.134	0.00014	1.097	-2.512	1.230	-0.937	-0.570	-0.053	
2.37086	71240	-1.571	-0.000	3.141	-0.640	73.828	-2.928	-19.690	0.691	0.069	-0.118	-0.142	1.370	0.202	-0.823	-0.242	0.967	-1.533	0.00043	716.934	-41.913	-135.246	0.00231	1.191	-2.876	1.352	-1.082	-0.665	-0.127	
6.94263	71522	-1.571	-0.000	-3.141	-0.528	73.821	-2.916	-19.769	0.695	0.081	-0.054	-0.132	1.369	0.202	-0.825	-0.242	0.966	-1.523	0.00048	717.137	-34.975	-135.108	0.01434	1.128	-2.799	1.496	-1.063	-0.628	-0.086	
0.61989	71787	-1.571	-0.000	-3.141	-0.598	73.698	-2.966	-19.747	0.672	0.071	-0.049	-0.130	1.368	0.202	-0.826	-0.242	0.965	-1.520	0.00008	717.087	-34.359	-135.161	0.00355	0.996	-2.623	1.390	-0.986	-0.547	-0.067	
0.05127	72017	-1.571	-0.000	-3.141	-0.679	73.895	-2.906	-19.690	0.683	0.069	-0.079	-0.130	1.368	0.202	-0.826	-0.242	0.965	-1.520	0.00006	717.086	-34.308	-135.165	0.00011	1.847	-2.566	1.236	-0.967	-0.876	-0.110	
4.29514	72300	-1.571	-0.001	3.141	-4.670	76.839	-6.141	-23.642	-0.403	2.581	-0.164	-0.124	1.368	0.202	-0.827	-0.242	0.965	-1.514	0.00113	716.642	-30.045	-135.436	0.00891	5.716	5.756	1.102	-0.313	-0.851	-0.208	
0.40763	72488	-1.571	-0.000	3.141	-2.266	78.312	-5.369	-24.757	-0.061	2.877	-0.090	-0.124	1.368	0.202	-0.827	-0.242	0.965	-1.514	0.00073	716.905	-29.783	-135.267	0.00042	7.382	8.838	3.215	-0.030	-0.892	-0.235	
2.26017	72764	-1.570	-0.000	-3.140	-0.114	73.614	-3.072	-19.826	0.633	-0.039	0.120	-0.126	1.368	0.202	-0.826	-0.242	0.965	-1.517	0.00148	717.609	-31.875	-134.781	0.00382	-0.330	-1.675	1.144	-0.659	0.203	0.133	
2.84272	73045	-1.571	-0.000	3.141	-0.054	73.799	-3.035	-19.844	0.637	-0.010	0.077	-0.130	1.368	0.202	-0.826	-0.242	0.966	-1.521	0.00134	716.985	-34.618	-135.189	0.00628	-0.232	-1.973	1.115	-0.684	0.111	0.098	
0.05033	73328	-1.571	-0.000	3.141	0.099	73.650	-2.937	-19.816	0.642	-0.012	0.111	-0.131	1.368	0.202	-0.826	-0.242	0.966	-1.521	0.00006	716.971	-34.665	-135.200	0.00012	-0.190	-2.021	1.283	-0.698	0.073	0.088	
0.00599	73574	-1.550	-0.000	3.141	0.125	73.619	-2.955	-19.843	0.627	-0.056	0.106	-0.130	1.368	0.202	-0.826	-0.242	0.966	-1.531	0.02108	716.969	-34.671	-135.202	0.00976	-0.093	-1.897	1.239	-0.635	0.093	0.174	
0.01277	73856	-1.392	-0.000	3.141	0.113	73.653	-2.812	-19.796	0.660	-0.026	0.069	-0.131	1.368	0.202	-0.826	-0.242	0.966	-1.662	0.15790	716.969	-34.658	-135.201	0.13144	0.263	-1.800	1.188	-0.601	-0.026	0.179	
0.00195	74136	-1.215	-0.000	3.141	0.066	73.616	-2.926	-19.833	0.606	-0.030	0.197	-0.131	1.368	0.202	-0.826	-0.242	0.966	-1.857	0.17642	716.970	-34.658	-135.199	0.19466	0.410	-1.768	1.175	-0.591	-0.054	0.185	
0.01679	74420	-1.178	-0.000	3.141	0.030	73.680	-2.940	-19.823	0.606	-0.037	0.146	-0.131	1.368	0.202	-0.826	-0.242	0.966	-1.913	0.03721	716.983	-34.665	-135.192	0.05684	0.512	-1.748	1.212	-0.578	-0.093	0.150	
0.00122	74669	-1.178	-0.000	3.141	0.034	73.556	-2.955	-19.779	0.606	-0.031	0.139	-0.131	1.368	0.202	-0.826	-0.242	0.966	-1.913	0.00000	716.983	-34.666	-135.191	0.00001	0.511	-1.738	1.217	-0.573	-0.095	0.144	
2.20783	74901	-1.179	0.000	-3.141	-0.647	73.751	-2.934	-19.423	0.710	0.081	-0.031	-0.130	1.367	0.202	-0.828	-0.242	0.964	-1.912	0.00061	716.238	-32.589	-135.149	0.00391	2.059	-2.321	1.256	-0.786	-0.940	-0.046	
7.01661	75182	-1.178	-0.000	3.141	-0.515	73.342	-2.892	-19.577	0.703	0.027	-0.033	-0.122	1.359	0.202	-0.846	-0.243	0.955	-1.900	0.00049	713.466	-26.143	-135.215	0.02569	1.895	-2.286	1.329	-0.740	-0.901	-0.064	
0.74221	75448	-1.178	-0.000	3.142	-0.602	73.306	-3.034	-19.473	0.670	0.020	-0.023	-0.120	1.357	0.202	-0.851	-0.244	0.952	-1.897	0.00019	713.210	-25.447	-135.249	0.00691	1.852	-1.897	1.366	-0.583	-0.830	-0.048	
0.05296	75689	-1.178	-0.000	3.142	-0.204	73.083	-2.995	-19.512	0.709	0.154	-0.042	-0.120	1.357	0.202	-0.851	-0.244	0.952	-1.897	0.00007	713.219	-25.405	-135.219	0.00007	2.552	-2.048	1.479	-0.712	-1.140	-0.086	
6.06109	75978	-1.178	-0.000	-3.142	0.000	73.091	-2.746	-19.469	0.774	0.049	-0.052	-0.115	1.352	0.202	-0.863	-0.244	0.946	-1.889	0.00017	710.943	-19.788	-135.146	0.01728	2.274	-1.879	1.403	-0.652	-1.082	-0.072	
3.88737	76259	-1.178	-0.000	-3.142	-0.699	72.958	-3.123	-19.336	0.677	0.061	-0.007	-0.110	1.346	0.202	-0.875	-0.245	0.939	-1.881	0.00019	709.440	-16.203	-135.168	0.01784	1.827	-1.954	1.351	-0.650	-0.842	-0.030	
0.04946	76509	-1.178	-0.000	-3.142	-0.739	72.909	-3.118	-19.219	0.675	0.062	-0.019	-0.110	1.347	0.202	-0.875	-0.245	0.939	-1.881	0.00006	709.425	-16.163	-135.193	0.00013	1.804	-1.910	1.288	-0.624	-0.843	-0.032	
2.35337	76695	-1.178	-0.000	3.141	-1.215	72.829	-3.361	-19.249	0.703	0.158	-0.042	-0.109	1.346	0.202	-0.877	-0.245	0.938	-1.879	0.00043	708.424	-14.034	-135.271	0.00370	2.214	-2.448	1.926	-0.856	-1.103	-0.083	
7.02820	76975	-1.178	-0.000	3.141	-0.407	72.643	-2.938	-19.187	0.740	0.082	-0.016	-0.101	1.338	0.202	-0.893	-0.246	0.929	-1.868	0.00017	705.790	-7.519	-135.206	0.02401	2.027	-2.273	1.329	-0.762	-0.982	-0.055	
0.57656	77257	-1.178	-0.000	3.142	-0.663	72.667	-3.148	-19.126	0.694	0.074	-0.009	-0.099	1.336	0.202	-0.898	-0.247	0.927	-1.865	0.00019	705.577	-6.983	-135.202	0.00612	1.780	-1.954	1.280	-0.650	-0.861	-0.032	
0.04281	77488	-1.178	-0.000	3.142	-2.039	73.150	-5.398	-20.194	-0.504	1.236	-0.201	-0.099	1.336	0.202	-0.898	-0.247	0.927	-1.865	0.00007	705.574	-6.941	-135.208	0.00009	2.719	-2.326	1.641	-0.791	-1.235	-0.081	
3.13944	77772	-1.179	-0.000	3.141	-4.845	74.918	-8.152	-21.391	-1.277	1.539	-0.178	-0.095	1.333	0.202	-0.905	-0.248	0.923	-1.859	0.00060	704.077	-4.182	-135.283	0.01166	6.134	5.904	1.087	0.042	-0.910	-0.184	
0.45797	77944	-1.178	-0.000	3.142	-3.808	74.982	-6.115	-21.626	-0.342	1.192	-0.010	-0.095	1.333	0.202	-0.905	-0.248	0.923	-1.859	0.00070	704.263	-3.773	-135.192	0.00060	5.553	8.101	1.610	0.327	-0.763	-0.166	
2.31363	78224	-1.178	-0.000	-3.141	-0.052	72.715	-3.233	-19.381	0.524	-0.171	0.142	-0.097	1.335	0.203	-0.900	-0.247	0.926	-1.863	0.00080	705.597	-5.655	-135.012	0.00717	0.218	-0.863	1.446	-0.188	0.095	0.137	
2.71236	78507	-1.178	-0.000	3.141	-0.017	72.748	-3.136	-19.296	0.526	-0.159	0.086	-0.100	1.338	0.202	-0.894	-0.247	0.929	-1.867	0.00093	706.125	-8.308	-135.202	0.00973	0.399	-1.324	1.265	-0.317	-0.025	0.076	
0.08381	78772	-1.178	-0.000	3.141	-0.065	72.673	-3.127	-19.267	0.533	-0.155	0.101	-0.101	1.338	0.202	-0.894	-0.247	0.929	-1.867	0.00012	706.148	-8.377	-135.159	0.00016	0.503	-1.228	1.339	-0.280	-0.088	0.067	
0.00317	79005	-1.162	-0.000	3.141	-0.032	72.670	-3.111	-19.264	0.537	-0.130	0.145	-0.101	1.338	0.202	-0.894	-0.247	0.929	-1.874	0.01628	706.147	-8.379	-135.157	0.00658	0.455	-1.336	1.294	-0.352	-0.037	0.155	
0.00238	79285	-1.014	-0.000	3.141	-0.085	72.704	-3.049	-19.254	0.586	-0.122	0.090	-0.101	1.338	0.202	-0.894	-0.247	0.929	-1.995	0.14779	706.145	-8.380	-135.156	0.12160	0.753	-1.207	1.264	-0.318	-0.141	0.120	
0.00333	79567	-0.829	-0.000	3.141	-0.051	72.676	-3.110	-19.262	0.533	-0.135	0.142	-0.101	1.338	0.202	-0.894	-0.247	0.929	-2.195	0.18505	706.143	-8.378	-135.154	0.19990	0.916	-1.086	1.283	-0.284	-0.171	0.116	
0.00162	79846	-0.785	-0.000	3.141	-0.065	72.698	-3.125	-19.263	0.534	-0.158	0.047	-0.101	1.338	0.202	-0.894	-0.247	0.929	-2.260	0.04359	706.141	-8.377	-135.154	0.06468	0.994	-0.974	1.296	-0.201	-0.205	0.034	
0.00086	80110	-0.785	-0.000	3.141	-0.186	72.670	-3.145	-19.144	0.530	-0.140	0.038	-0.101	1.338	0.202	-0.894	-0.247	0.929	-2.260	0.00002	706.141	-8.376	-135.153	0.00006	1.012	-0.938	1.306	-0.186	-0.208	0.032	
2.60477	80344	-0.786	-0.000	3.141	-0.413	71.979	-2.979	-18.940	0.743	0.136	-0.085	-0.100	1.336	0.202	-0.899	-0.247	0.926	-2.258	0.00025	704.327	-6.507	-135.187	0.00717	2.783	-1.386	1.153	-0.355	-1.196	-0.087	
6.88614	80627	-0.785	-0.000	3.141	-0.441	72.009	-3.117	-18.847	0.679	0.081	-0.043	-0.095	1.323	0.202	-0.927	-0.249	0.911	-2.247	0.00026	699.402	-1.695	-135.193	0.03606	2.742	-1.055	1.396	-0.204	-1.202	-0.090	
0.43599	80878	-0.785	-0.000	3.141	-0.605	72.227	-3.197	-18.900	0.674	0.073	-0.042	-0.094	1.321	0.202	-0.933	-0.250	0.908	-2.244	0.00018	699.131	-1.354	-135.170	0.00801	2.394	-1.042	1.235	-0.205	-1.043	-0.072	
0.04785	81113	-0.785	-0.000	3.141	-0.488	72.097	-3.158	-18.296	0.675	0.011	-0.086	-0.094	1.321	0.202	-0.933	-0.250	0.908	-2.244	0.00007	699.129	-1.306	-135.176	0.00008	3.144	-0.963	1.882	-0.177	-1.381	-0.113	
6.12984	81396	-0.785	-0.000	3.142	0.180	71.849	-2.955	-19.174	0.750	0.179	-0.100	-0.091	1.312	0.202	-0.952	-0.251	0.898	-2.236	0.00010	694.801	3.035	-135.151	0.02427	3.260	-0.972	1.100	-0.160	-1.448	-0.137	
3.87002	81680	-0.785	-0.000	3.141	-0.505	71.806	-3.190	-18.682	0.670	0.024	-0.059	-0.087	1.304	0.202	-0.971	-0.253	0.887	-2.228	0.00009	692.048	5.755	-135.186	0.02487	2.347	-0.882	1.336	-0.116	-1.010	-0.092	
0.05100	81927	-0.785	-0.000	3.141	-0.776	71.823	-3.363	-18.430	0.636	0.047	-0.065	-0.088	1.304	0.202	-0.971	-0.253	0.887	-2.228	0.00006	692.024	5.785	-135.220	0.00015	2.305	-0.722	1.251	-0.050	-0.999	-0.094	
2.86233	82177	-0.785	0.000	3.141	-0.226	71.225	-3.246	-18.110	0.668	0.105	-0.077	-0.087	1.302	0.202	-0.977	-0.253	0.884	-2.225	0.00027	689.942	7.748	-135.183	0.00765	2.907	-1.200	1.488	-0.250	-1.346	-0.122	
6.86538	82459	-0.785	-0.000	3.142	-0.457	70.984	-3.310	-18.291	0.643	0.036	-0.055	-0.081	1.291	0.202	-1.002	-0.255	0.871	-2.214	0.00034	685.155	12.669	-135.158	0.03340	2.630	-0.636	1.348	-0.028	-1.160	-0.104	
0.15388	82693	-0.785	-0.000	-3.142	-0.712	71.052	-3.385	-18.213	0.629	0.033	-0.049	-0.080	1.289	0.202	-1.007	-0.256	0.868	-2.212	0.00017	685.057	12.788	-135.156	0.00612	2.314	-0.721	1.173	-0.059	-1.021	-0.094	
0.06784	82926	-0.785	-0.000	3.142	-2.951	69.529	-5.990	-18.483	-0.429	0.456	-0.195	-0.080	1.289	0.202	-1.007	-0.256	0.868	-2.212	0.00008	685.033	12.850	-135.170	0.00008	3.413	-0.742	1.459	-0.373	-1.235	-0.166	
2.42585	83208	-0.786	-0.000	3.141	-7.735	71.228	-9.715	-18.785	-1.681	1.173	-0.229	-0.079	1.285	0.202	-1.016	-0.257	0.863	-2.208	0.00043	683.167	14.399	-135.231	0.01162	6.643	8.273	-0.393	0.492	-1.099	-0.272	
0.27113	83443	-0.785	-0.000	3.141	-2.491	71.704	-5.734	-19.092	-0.266	0.449	0.023	-0.079	1.285	0.202	-1.016	-0.256	0.863	-2.208	0.00058	683.435	14.433	-135.201	0.00044	3.347	6.959	0.902	0.550	-0.349	-0.097	
3.35452	83725	-0.785	0.000	-3.141	-0.172	72.037	-3.525	-18.905	0.475	-0.135	0.093	-0.080	1.290	0.203	-1.004	-0.255	0.869	-2.214	0.00045	686.129	12.445	-135.003	0.01550	0.680	-0.684	1.526	-0.125	-0.003	0.081	
1.39436	83969	-0.785	0.000	3.141	-0.112	71.019	-3.433	-18.354	0.471	-0.168	0.086	-0.082	1.292	0.202	-0.998	-0.255	0.873	-2.216	0.00058	686.688	11.177	-135.156	0.00771	0.724	-0.798	1.229	-0.154	-0.075	0.059	
0.05321	84233	-0.785	0.000	3.141	-0.083	70.894	-3.363	-18.307	0.483	-0.164	0.124	-0.082	1.292	0.202	-0.998	-0.255	0.873	-2.216	0.00005	686.687	11.125	-135.143	0.00018	0.785	-0.814	1.295	-0.147	-0.117	0.056	
0.07737	84461	-0.751	0.000	3.141	-0.060	71.085	-3.378	-18.388	0.490	-0.138	0.232	-0.082	1.292	0.202	-0.998	-0.255	0.873	-2.235	0.03418	686.641	11.121	-135.205	0.01887	0.823	-0.789	1.133	-0.179	-0.122	0.091	
0.00638	84744	-0.575	0.000	3.141	-0.147	71.045	-3.305	-18.372	0.493	-0.126	0.117	-0.082	1.292	0.202	-0.998	-0.255	0.873	-2.390	0.17648	686.638	11.116	-135.205	0.15458	1.012	-0.587	1.113	-0.126	-0.179	0.080	
0.00460	85027	-0.415	0.000	3.141	-0.113	71.045	-3.389	-18.381	0.482	-0.131	0.110	-0.082	1.292	0.202	-0.998	-0.255	0.873	-2.571	0.16025	686.634	11.113	-135.206	0.18086	1.056	-0.471	1.137	-0.099	-0.180	0.085	
0.00064	85309	-0.393	0.000	3.141	-0.102	71.073	-3.379	-18.357	0.486	-0.136	0.087	-0.082	1.292	0.202	-0.998	-0.255	0.873	-2.609	0.02170	686.634	11.113	-135.206	0.03830	1.120	-0.444	1.171	-0.077	-0.198	0.055	
0.00047	85558	-0.393	0.000	3.141	-1.089	72.264	-3.806	-18.278	0.518	0.093	-0.005	-0.082	1.292	0.202	-0.998	-0.255	0.873	-2.609	0.00000	686.633	11.112	-135.206	0.00001	1.148	-0.547	0.991	-0.132	-0.245	0.050	
3.98385	85795	-0.393	0.000	3.141	-0.542	70.115	-3.544	-17.907	0.638	0.265	-0.077	-0.082	1.287	0.202	-1.011	-0.256	0.866	-2.605	0.00018	682.961	12.653	-135.091	0.01671	3.032	-0.667	1.556	-0.060	-1.225	-0.074	
5.87625	86076	-0.393	-0.000	3.141	-0.590	70.624	-3.534	-17.950	0.596	0.072	-0.048	-0.081	1.273	0.202	-1.043	-0.259	0.848	-2.596	0.00033	677.538	14.915	-135.084	0.03940	2.519	-0.246	1.047	0.138	-1.011	-0.083	
0.09625	86359	-0.393	-0.000	3.142	-0.436	70.511	-3.437	-17.911	0.595	0.064	-0.046	-0.081	1.273	0.202	-1.044	-0.259	0.848	-2.596	0.00021	677.563	14.923	-135.176	0.00161	2.440	-0.127	1.236	0.175	-0.953	-0.085	
1.60757	86594	-0.393	0.000	-3.142	-0.583	70.544	-3.400	-17.467	0.676	0.144	-0.072	-0.081	1.272	0.202	-1.046	-0.259	0.847	-2.595	0.00029	676.062	15.498	-135.217	0.00233	3.267	-0.270	1.207	0.174	-1.356	-0.100	
7.06559	86875	-0.393	0.000	3.142	-0.864	69.725	-3.557	-17.333	0.629	0.073	-0.040	-0.079	1.259	0.202	-1.077	-0.262	0.830	-2.586	0.00010	669.543	18.222	-135.202	0.03885	2.649	-0.095	0.865	0.288	-1.161	-0.104	
1.41976	87110	-0.393	-0.000	3.141	-0.590	69.893	-3.512	-17.567	0.633	0.086	-0.031	-0.078	1.254	0.202	-1.088	-0.263	0.823	-2.582	0.00017	668.224	18.746	-135.240	0.01434	2.500	0.098	1.175	0.316	-1.043	-0.081	
0.06725	87357	-0.393	-0.000	3.141	-0.870	69.185	-3.571	-16.957	0.667	0.101	-0.087	-0.079	1.254	0.202	-1.088	-0.263	0.823	-2.582	0.00009	668.265	18.741	-135.187	0.00003	2.920	-0.260	1.860	0.201	-1.234	-0.102	
5.11916	87623	-0.393	0.000	3.141	-0.895	68.889	-3.681	-17.317	0.687	0.176	-0.078	-0.078	1.247	0.202	-1.104	-0.265	0.815	-2.577	0.00025	663.543	20.716	-135.122	0.02068	2.845	0.252	1.499	0.417	-1.315	-0.119	
4.85568	87904	-0.393	-0.000	3.141	-0.622	68.815	-3.582	-17.023	0.635	0.117	-0.029	-0.076	1.236	0.202	-1.130	-0.268	0.800	-2.569	0.00033	659.066	22.597	-135.104	0.03286	2.574	0.029	1.259	0.302	-1.125	-0.082	
0.09916	88186	-0.393	-0.000	3.141	-0.772	69.078	-3.646	-16.755	0.611	0.094	-0.039	-0.076	1.236	0.202	-1.130	-0.268	0.800	-2.569	0.00008	659.042	22.581	-135.199	0.00026	2.518	0.139	1.121	0.352	-1.102	-0.084	
2.75457	88416	-0.393	0.000	3.141	-4.056	67.363	-6.939	-17.348	-0.572	0.518	-0.189	-0.076	1.233	0.202	-1.136	-0.268	0.797	-2.567	0.00029	656.470	23.564	-135.147	0.00749	4.375	3.669	0.961	0.682	-1.384	-0.205	
3.40954	88699	-0.393	-0.000	-3.142	-5.565	67.733	-8.428	-16.255	-1.059	0.515	-0.182	-0.075	1.225	0.202	-1.156	-0.271	0.786	-2.561	0.00041	653.367	24.979	-135.160	0.02473	3.964	6.867	0.114	0.612	-0.953	-0.203	
0.25350	88936	-0.392	0.000	3.142	-2.073	68.356	-5.156	-17.161	-0.011	0.080	0.034	-0.074	1.225	0.202	-1.155	-0.270	0.786	-2.560	0.00036	653.611	24.926	-135.204	0.00043	1.422	5.138	0.766	0.650	-0.221	-0.091	
3.59134	89216	-0.392	0.000	-3.142	-0.413	68.623	-3.732	-17.041	0.429	-0.058	0.077	-0.075	1.231	0.202	-1.142	-0.269	0.794	-2.565	0.00026	657.013	23.779	-135.117	0.01756	1.004	0.153	0.775	0.206	-0.168	0.021	
1.03989	89452	-0.393	0.000	3.142	-0.374	68.714	-3.692	-17.100	0.457	-0.065	0.069	-0.076	1.234	0.202	-1.135	-0.268	0.798	-2.567	0.00032	657.841	23.152	-135.176	0.00843	1.344	-0.143	1.187	0.068	-0.378	0.015	
1.11775	89684	-0.393	-0.000	-3.142	-0.112	70.745	-3.624	-17.828	0.471	-0.161	0.091	-0.076	1.233	0.202	-1.135	-0.268	0.798	-2.567	0.00046	658.000	23.138	-134.070	0.00059	1.922	-0.508	1.561	-0.015	-0.437	0.022	
15.76154	89966	-0.393	-0.000	-3.141	-0.186	66.341	-3.752	-16.566	0.271	-0.277	0.082	-0.076	1.208	0.202	-1.148	-0.262	0.810	-2.570	0.00024	658.000	23.168	-118.308	0.03163	1.445	-0.723	1.260	-0.155	-0.196	0.028	
12.86547	90247	-0.393	-0.000	-3.141	-0.028	68.132	-3.616	-17.439	0.412	-0.108	0.058	-0.077	1.178	0.202	-1.161	-0.255	0.826	-2.573	0.00010	657.926	23.160	-105.443	0.03685	1.839	-0.610	1.810	-0.138	-0.422	0.019	
0.29953	90495	-0.393	0.000	3.142	-0.109	68.356	-3.638	-17.566	0.439	-0.107	-0.065	-0.077	1.176	0.202	-1.162	-0.255	0.827	-2.573	0.00032	657.829	23.140	-105.161	0.00267	1.872	-0.586	1.611	-0.123	-0.477	-0.009	
0.00725	90731	-0.471	0.000	3.142	-0.017	68.537	-3.798	-17.559	0.490	-0.151	0.221	-0.077	1.176	0.202	-1.162	-0.255	0.827	-2.527	0.07843	657.833	23.139	-105.155	0.04605	1.873	-0.770	1.536	-0.125	-0.533	-0.109	
0.00092	91013	-0.836	0.000	3.141	-0.097	68.436	-3.639	-17.566	0.567	-0.137	-0.109	-0.077	1.176	0.202	-1.162	-0.255	0.827	-2.205	0.36515	657.833	23.140	-105.155	0.32209	1.322	-1.494	1.500	-0.362	-0.418	-0.097	
0.00063	91294	-1.278	0.000	3.141	-0.175	68.234	-3.617	-17.500	0.396	-0.122	-0.068	-0.077	1.176	0.202	-1.162	-0.255	0.827	-1.763	0.44130	657.833	23.140	-105.155	0.44137	0.606	-1.942	1.510	-0.548	-0.267	-0.121	
0.00053	91577	-1.718	0.000	3.141	-0.105	68.331	-3.711	-17.572	0.498	-0.137	-0.183	-0.077	1.176	0.202	-1.162	-0.255	0.827	-1.319	0.44018	657.833	23.141	-105.155	0.44445	-0.169	-2.062	1.503	-0.666	-0.055	-0.152	
0.00078	91859	-1.953	-0.000	3.141	-0.152	68.356	-3.661	-17.576	0.437	-0.110	-0.041	-0.077	1.176	0.202	-1.162	-0.255	0.827	-1.030	0.23481	657.832	23.141	-105.155	0.28848	-0.436	-2.004	1.523	-0.676	0.027	-0.147	
0.00033	92141	-1.964	-0.000	3.141	-0.156	68.321	-3.647	-17.539	0.441	-0.112	-0.141	-0.077	1.176	0.202	-1.162	-0.255	0.827	-1.002	0.01105	657.833	23.141	-105.155	0.02850	-0.549	-1.920	1.516	-0.629	0.094	-0.069	
0.00035	92375	-2.008	-0.000	3.141	-0.120	68.320	-3.672	-17.526	0.412	-0.129	-0.083	-0.077	1.176	0.202	-1.162	-0.255	0.827	-0.981	0.04458	657.832	23.141	-105.155	0.02141	-0.701	-1.939	1.505	-0.686	0.104	-0.137	
0.00050	92655	-2.332	-0.000	3.141	-0.128	68.379	-3.648	-17.626	0.405	-0.147	-0.232	-0.077	1.176	0.202	-1.162	-0.255	0.827	-0.709	0.32336	657.833	23.141	-105.155	0.27186	-1.373	-1.533	1.506	-0.611	0.340	-0.133	
0.00036	92937	-2.768	-0.000	3.141	-0.180	68.269	-3.654	-17.504	0.439	-0.194	0.065	-0.077	1.176	0.202	-1.162	-0.255	0.827	-0.271	0.43665	657.832	23.142	-105.155	0.43748	-1.889	-0.830	1.505	-0.459	0.554	-0.146	
0.00045	93217	3.074	-0.000	3.142	-0.292	68.350	-3.574	-17.592	0.586	-0.018	-0.186	-0.077	1.176	0.202	-1.162	-0.255	0.827	0.170	0.44136	657.833	23.142	-105.155	0.44142	-2.043	0.021	1.499	-0.211	0.682	-0.146	
0.00040	93499	2.779	-0.000	-3.142	-0.167	68.319	-3.629	-17.553	0.451	-0.099	-0.147	-0.077	1.176	0.202	-1.162	-0.255	0.827	0.511	0.29440	657.832	23.142	-105.155	0.34035	-2.040	0.365	1.491	-0.125	0.736	-0.179	
0.00053	93764	2.749	-0.000	-3.142	-0.161	68.327	-3.650	-17.554	0.443	-0.098	-0.082	-0.077	1.176	0.202	-1.162	-0.255	0.827	0.569	0.03044	657.833	23.142	-105.155	0.05828	-1.976	0.482	1.483	-0.063	0.694	-0.105	
1.00067	93998	2.749	0.000	3.141	-0.116	66.055	-3.565	-16.739	0.592	0.080	-0.145	-0.077	1.177	0.202	-1.162	-0.255	0.827	0.569	0.00044	657.971	23.145	-106.146	0.00056	-2.002	0.346	2.127	-0.130	0.959	-0.122	
15.39482	94279	2.749	-0.000	-3.141	-3.344	70.168	-6.795	-17.600	-0.385	0.574	-0.208	-0.077	1.200	0.202	-1.152	-0.261	0.814	0.571	0.00049	657.828	22.884	-121.538	0.02966	-2.861	-3.373	0.432	-0.417	1.021	-0.173	
13.27748	94561	2.749	0.000	-3.142	-4.328	68.621	-7.179	-17.118	-0.526	0.583	-0.191	-0.076	1.231	0.202	-1.136	-0.268	0.799	0.574	0.00027	657.960	22.962	-134.815	0.03859	-3.121	-5.787	0.187	-0.748	0.998	-0.212	
0.38140	94843	2.749	0.000	-3.142	-4.276	68.417	-7.101	-17.006	-0.534	0.555	-0.189	-0.076	1.234	0.202	-1.135	-0.268	0.797	0.574	0.00016	657.991	23.009	-135.192	0.00308	-3.539	-5.835	0.210	-0.734	1.076	-0.216	
0.01173	95036	2.749	0.000	-3.141	-4.264	68.351	-7.101	-16.830	-0.556	0.483	-0.190	-0.076	1.234	0.202	-1.135	-0.268	0.797	0.574	0.00002	657.991	22.997	-135.193	0.00002	-3.755	-5.717	0.245	-0.731	1.111	-0.219	
0.00341	95233	2.749	0.000	-3.141	-1.864	68.507	-4.945	-17.348	0.036	0.128	0.018	-0.076	1.234	0.202	-1.135	-0.268	0.797	0.574	0.00000	657.993	22.995	-135.193	0.00000	-2.007	-5.218	0.399	-0.707	0.577	-0.149	
2.75808	95515	2.749	-0.000	-3.141	-0.376	69.453	-3.632	-17.425	0.456	-0.195	0.071	-0.076	1.238	0.202	-1.125	-0.267	0.803	0.571	0.00035	660.605	22.109	-135.160	0.01246	-0.859	-0.040	0.879	-0.260	0.240	0.016	
2.03702	95796	2.749	-0.000	-3.141	-0.056	69.059	-3.566	-17.288	0.514	-0.079	0.030	-0.077	1.243	0.202	-1.114	-0.266	0.809	0.567	0.00043	662.421	21.189	-135.221	0.01415	-1.385	0.370	1.187	-0.084	0.509	0.002	
0.10330	96079	2.749	-0.000	-3.141	-0.214	69.242	-3.626	-17.327	0.526	-0.074	0.097	-0.077	1.243	0.202	-1.114	-0.266	0.809	0.567	0.00027	662.449	21.104	-135.169	0.00027	-1.356	0.382	1.141	-0.101	0.521	0.011	
0.00690	96310	2.780	-0.000	-3.141	-0.254	69.123	-3.557	-17.230	0.497	-0.068	0.048	-0.077	1.243	0.202	-1.114	-0.266	0.809	0.551	0.03058	662.443	21.106	-135.173	0.01676	-1.222	0.343	1.122	-0.082	0.418	0.076	
0.00976	96589	2.951	-0.000	-3.141	-0.273	69.139	-3.691	-17.331	0.500	-0.115	0.058	-0.077	1.243	0.202	-1.114	-0.266	0.809	0.403	0.17133	662.443	21.115	-135.177	0.14722	-1.212	0.078	1.088	-0.146	0.377	0.079	
0.01499	96871	3.117	-0.000	-3.141	-0.224	69.090	-3.629	-17.282	0.490	-0.094	0.135	-0.077	1.243	0.202	-1.114	-0.266	0.809	0.217	0.16590	662.458	21.115	-135.178	0.18596	-1.205	0.014	1.124	-0.144	0.362	0.102	
0.01551	97151	-3.141	-0.000	-3.141	-0.187	69.111	-3.605	-17.296	0.485	-0.097	0.060	-0.077	1.243	0.202	-1.114	-0.266	0.809	0.175	0.02485	662.473	21.114	-135.172	0.04283	-1.244	-0.143	1.132	-0.231	0.387	0.025	
0.00174	97418	-3.142	-0.000	-3.141	-0.222	70.861	-3.689	-16.852	0.476	0.033	0.012	-0.077	1.243	0.202	-1.114	-0.266	0.809	0.175	0.00001	662.475	21.114	-135.172	0.00001	-1.397	-0.238	1.012	-0.254	0.461	0.019	
4.04733	97670	3.141	-0.000	-3.142	0.239	68.889	-3.411	-16.353	0.639	0.039	-0.047	-0.078	1.237	0.202	-1.128	-0.267	0.802	0.177	0.00030	658.427	21.110	-135.163	0.01694	-2.709	0.125	0.931	-0.167	1.141	-0.011	
5.88268	97952	-3.142	0.000	-3.142	-0.039	68.734	-3.682	-16.894	0.617	0.079	-0.031	-0.081	1.224	0.202	-1.159	-0.271	0.784	0.183	0.00015	652.545	21.120	-135.149	0.03813	-2.342	-0.034	1.055	-0.254	0.953	-0.013	
0.06666	98215	-3.142	0.000	-3.142	-0.065	68.434	-3.646	-16.792	0.615	0.074	-0.025	-0.081	1.224	0.202	-1.159	-0.271	0.784	0.183	0.00004	652.582	21.120	-135.204	0.00119	-2.304	-0.053	1.316	-0.260	0.932	-0.011	
1.57422	98452	-3.142	-0.000	-3.142	-0.122	68.234	-3.895	-16.247	0.620	0.121	-0.055	-0.081	1.223	0.202	-1.161	-0.271	0.783	0.183	0.00032	651.010	21.195	-135.188	0.00231	-2.680	0.090	1.957	-0.220	1.183	-0.020	
7.01499	98733	-3.142	-0.000	-3.142	-0.122	67.738	-3.781	-16.245	0.603	0.135	-0.001	-0.083	1.210	0.202	-1.192	-0.275	0.766	0.189	0.00025	643.995	21.158	-135.173	0.03795	-2.674	0.108	1.268	-0.202	1.155	-0.021	
1.46748	99019	3.142	-0.000	-3.142	-0.138	67.575	-3.774	-16.304	0.607	0.136	-0.006	-0.084	1.205	0.202	-1.203	-0.276	0.759	0.192	0.00005	642.528	21.155	-135.236	0.01419	-2.319	-0.129	1.034	-0.288	0.999	0.003	
0.08616	99224	3.141	0.000	-3.142	-0.019	67.627	-3.730	-16.617	0.679	0.130	-0.069	-0.084	1.205	0.202	-1.203	-0.276	0.759	0.192	0.00013	642.561	21.090	-135.190	0.00009	-3.118	0.198	1.223	-0.187	1.284	-0.027	
6.05660	99501	3.141	0.000	3.142	0.112	66.579	-3.645	-16.645	0.693	0.304	-0.069	-0.086	1.197	0.202	-1.224	-0.279	0.747	0.196	0.00014	636.505	21.170	-135.135	0.02618	-2.663	0.006	1.533	-0.279	1.184	-0.020	
3.91811	99782	-3.142	0.000	-3.142	-0.075	66.702	-3.750	-15.873	0.586	0.115	-0.031	-0.087	1.188	0.202	-1.246	-0.281	0.735	0.201	0.00019	632.588	21.113	-135.158	0.02667	-2.220	-0.057	1.297	-0.276	0.960	-0.021	
0.01773	100016	-3.142	0.000	-3.142	-0.055	66.648	-3.745	-15.657	0.575	0.107	-0.035	-0.087	1.188	0.202	-1.246	-0.281	0.735	0.201	0.00000	632.591	21.121	-135.173	0.00012	-2.197	-0.020	1.155	-0.253	0.938	-0.017	
2.78183	100250	3.142	-0.000	-3.142	-0.008	66.019	-3.722	-15.442	0.651	0.205	-0.079	-0.088	1.186	0.202	-1.251	-0.282	0.732	0.202	0.00026	629.811	21.167	-135.262	0.00728	-2.738	0.150	1.464	-0.195	1.190	-0.018	
6.82136	100534	-3.141	0.000	-3.142	-0.142	66.060	-3.788	-15.643	0.622	0.124	-0.037	-0.090	1.173	0.202	-1.281	-0.286	0.715	0.208	0.00028	622.991	21.148	-135.151	0.03669	-2.482	-0.136	1.643	-0.321	1.074	-0.039	
0.43252	100766	3.142	0.000	-3.142	0.032	65.915	-3.718	-15.440	0.588	0.106	-0.033	-0.090	1.171	0.202	-1.287	-0.287	0.712	0.209	0.00014	622.560	21.130	-135.190	0.00748	-2.143	0.014	1.149	-0.260	0.922	-0.014	
0.02236	100996	3.142	-0.000	-3.142	-0.168	65.501	-3.764	-15.382	0.658	0.259	-0.095	-0.090	1.171	0.202	-1.287	-0.287	0.712	0.209	0.00002	622.543	21.125	-135.202	0.00002	-2.734	-0.082	1.385	-0.311	1.193	-0.044	
6.38731	101284	3.142	-0.000	3.142	0.938	65.070	-2.362	-13.858	1.022	-0.852	0.005	-0.092	1.163	0.202	-1.307	-0.290	0.700	0.214	0.00026	616.155	21.149	-135.182	0.02568	-2.545	0.030	1.217	-0.277	1.133	-0.020	
3.41984	101565	-3.141	0.000	3.142	1.627	62.950	-1.653	-12.551	1.071	-1.162	0.057	-0.093	1.155	0.202	-1.326	-0.293	0.689	0.219	0.00029	612.740	21.278	-135.055	0.02396	-4.600	2.505	0.671	-0.082	0.894	0.078	
0.20687	101784	-3.142	-0.000	-3.142	-0.469	65.554	-3.835	-15.099	0.398	-0.178	0.079	-0.093	1.155	0.202	-1.326	-0.293	0.689	0.219	0.00027	612.614	21.176	-135.184	0.00046	-2.551	1.083	1.185	-0.332	0.524	0.042	
3.30478	102067	-3.142	-0.000	3.141	-0.280	65.759	-3.611	-14.277	0.328	-0.293	0.096	-0.092	1.160	0.202	-1.315	-0.291	0.696	0.216	0.00021	615.919	21.191	-135.240	0.01373	-0.901	-0.464	1.332	-0.388	0.234	0.010	
1.61982	102348	-3.142	-0.000	3.141	-0.359	65.708	-3.813	-15.491	0.409	-0.048	0.065	-0.092	1.163	0.202	-1.306	-0.290	0.701	0.214	0.00007	617.538	21.225	-135.203	0.01121	-1.301	-0.608	1.372	-0.483	0.466	-0.017	
0.03058	102596	-3.142	-0.000	3.141	-0.433	65.464	-3.833	-15.297	0.407	-0.048	-0.042	-0.092	1.163	0.202	-1.306	-0.290	0.701	0.214	0.00004	617.552	21.219	-135.177	0.00006	-1.305	-0.455	1.249	-0.436	0.474	-0.022	
0.00173	102830	3.109	-0.000	3.142	-0.360	65.611	-3.779	-15.314	0.410	-0.078	-0.123	-0.092	1.163	0.202	-1.306	-0.290	0.701	0.232	0.03284	617.553	21.219	-135.175	0.01795	-1.501	-0.665	1.192	-0.604	0.576	-0.176	
0.00799	103111	2.935	-0.000	3.142	-0.469	65.495	-3.750	-15.254	0.414	-0.048	-0.204	-0.092	1.163	0.202	-1.306	-0.290	0.701	0.383	0.17403	617.557	21.212	-135.174	0.15094	-1.621	-0.449	1.129	-0.544	0.701	-0.204	
0.01755	103392	2.773	-0.000	-3.142	-0.387	65.540	-3.805	-15.296	0.424	-0.059	-0.149	-0.092	1.163	0.202	-1.306	-0.290	0.701	0.566	0.16142	617.558	21.230	-135.174	0.18325	-1.669	-0.266	1.178	-0.470	0.760	-0.207	
0.00154	103672	2.749	-0.000	-3.142	-0.391	65.552	-3.809	-15.301	0.425	-0.062	-0.064	-0.092	1.163	0.202	-1.306	-0.290	0.701	0.607	0.02454	617.559	21.228	-135.173	0.04079	-1.567	-0.125	1.193	-0.383	0.690	-0.114	
0.00074	103939	2.749	-0.000	-3.142	-1.475	66.386	-4.427	-14.421	0.416	-0.038	-0.146	-0.092	1.163	0.202	-1.306	-0.290	0.701	0.607	0.00000	617.559	21.228	-135.173	0.00001	-1.566	-0.108	1.230	-0.374	0.695	-0.116	
3.63653	104172	2.749	0.000	-3.142	-0.700	65.403	-3.769	-15.179	0.672	0.196	-0.158	-0.091	1.159	0.202	-1.316	-0.292	0.695	0.610	0.00040	614.211	22.645	-135.096	0.01205	-3.082	-0.027	1.337	-0.473	1.537	-0.168	
6.36674	104455	2.749	-0.000	-3.141	-0.558	64.607	-3.767	-14.745	0.534	0.120	-0.137	-0.088	1.149	0.202	-1.341	-0.295	0.681	0.621	0.00033	608.311	25.037	-135.182	0.03266	-2.448	-0.158	0.821	-0.482	1.290	-0.170	
0.16561	104687	2.749	0.000	3.141	-0.647	64.805	-3.831	-14.851	0.522	0.120	-0.127	-0.088	1.149	0.202	-1.342	-0.296	0.680	0.621	0.00048	608.473	25.061	-135.155	0.00209	-2.358	-0.272	1.047	-0.520	1.240	-0.177	
0.52279	104923	2.749	-0.000	-3.141	-0.745	64.896	-3.772	-14.264	0.639	0.051	-0.144	-0.088	1.149	0.202	-1.342	-0.296	0.680	0.621	0.00043	607.964	25.148	-135.240	0.00006	-2.679	-0.020	1.281	-0.492	1.454	-0.173	
6.83363	105201	2.749	-0.000	-3.142	0.222	63.517	-3.313	-14.673	0.634	0.181	-0.132	-0.085	1.140	0.202	-1.364	-0.299	0.668	0.630	0.00020	601.670	27.807	-135.162	0.02812	-3.273	-0.420	1.107	-0.680	1.683	-0.183	
2.67809	105483	2.749	0.000	3.142	-0.668	64.293	-3.868	-14.494	0.544	0.101	-0.115	-0.084	1.135	0.202	-1.377	-0.302	0.660	0.636	0.00023	599.206	28.858	-135.166	0.01786	-2.428	-0.302	1.143	-0.555	1.264	-0.155	
0.05376	105686	2.749	-0.000	-3.142	-2.041	64.310	-4.528	-13.963	0.549	0.146	-0.166	-0.084	1.135	0.202	-1.377	-0.302	0.660	0.636	0.00006	599.180	28.889	-135.201	0.00008	-2.439	-0.252	0.926	-0.545	1.279	-0.158	
3.98208	105934	2.749	0.000	3.142	1.709	60.704	-1.734	-10.647	0.774	-1.836	0.095	-0.083	1.131	0.202	-1.387	-0.304	0.654	0.641	0.00011	595.499	30.406	-135.134	0.01301	-4.857	3.550	0.656	-0.213	1.222	-0.016	
1.00264	106193	2.749	0.000	3.141	1.491	59.007	-0.857	-9.226	1.033	-2.401	0.149	-0.081	1.128	0.202	-1.395	-0.305	0.649	0.645	0.00027	594.623	30.871	-134.987	0.01035	-7.762	6.887	-0.563	-0.156	1.431	0.062	
1.04591	106451	2.749	-0.001	-3.141	-0.179	63.555	-3.851	-14.463	0.342	-0.098	0.060	-0.082	1.129	0.202	-1.392	-0.304	0.652	0.643	0.00158	595.263	30.222	-135.499	0.00437	-1.078	0.148	1.220	-0.339	0.373	-0.004	
3.94052	106732	2.749	-0.000	-3.141	-0.137	64.273	-3.834	-14.714	0.404	-0.032	0.051	-0.084	1.134	0.202	-1.380	-0.302	0.659	0.637	0.00099	598.895	28.712	-135.250	0.01621	-1.126	0.587	1.182	-0.047	0.478	-0.013	
0.25797	106967	2.749	-0.000	-3.141	-0.113	63.924	-3.771	-14.433	0.394	-0.044	0.043	-0.084	1.135	0.202	-1.378	-0.302	0.660	0.637	0.00033	598.906	28.952	-135.156	0.00215	-1.296	0.257	1.220	-0.129	0.540	-0.006	
0.05038	107203	2.747	-0.000	-3.142	-0.325	63.985	-3.919	-14.439	0.357	-0.066	-0.147	-0.084	1.135	0.202	-1.378	-0.302	0.660	0.637	0.00204	598.950	28.959	-135.133	0.00011	-1.525	0.098	1.155	-0.261	0.679	-0.151	
0.02826	107485	2.646	-0.000	-3.141	-0.171	64.036	-3.822	-14.546	0.416	-0.063	-0.333	-0.084	1.135	0.202	-1.378	-0.302	0.660	0.713	0.10069	598.964	28.935	-135.130	0.07613	-1.503	0.218	1.184	-0.232	0.721	-0.180	
0.01511	107764	2.441	-0.000	-3.141	-0.285	64.001	-3.860	-14.454	0.408	-0.061	-0.153	-0.084	1.135	0.202	-1.378	-0.302	0.660	0.915	0.20505	598.978	28.942	-135.130	0.20178	-1.356	0.543	1.176	-0.086	0.707	-0.175	
0.01372	108045	2.357	-0.000	-3.141	-0.212	64.008	-3.845	-14.489	0.414	-0.061	-0.126	-0.084	1.135	0.202	-1.378	-0.302	0.660	1.026	0.08457	598.991	28.945	-135.128	0.11087	-1.298	0.587	1.128	-0.058	0.686	-0.148	
0.00445	108311	2.356	-0.000	-3.141	-0.183	64.016	-3.823	-14.494	0.413	-0.062	-0.121	-0.084	1.135	0.202	-1.378	-0.302	0.660	1.029	0.00038	598.995	28.946	-135.127	0.00394	-1.290	0.589	1.144	-0.055	0.678	-0.136	
0.51992	108547	2.356	-0.000	-3.141	-0.942	63.496	-3.960	-14.193	0.559	0.160	-0.148	-0.084	1.135	0.202	-1.378	-0.302	0.660	1.029	0.00030	598.580	29.240	-135.233	0.00003	-2.596	1.075	0.995	0.059	1.459	-0.192	
6.90660	108828	2.356	-0.000	-3.141	0.609	63.083	-3.367	-14.229	0.604	0.167	-0.145	-0.077	1.128	0.202	-1.394	-0.305	0.650	1.041	0.00033	593.721	34.148	-135.183	0.02361	-2.769	0.885	1.198	-0.004	1.696	-0.196	
2.58082	109111	2.356	-0.000	-3.142	-0.758	63.520	-3.843	-14.054	0.531	0.079	-0.109	-0.073	1.125	0.202	-1.403	-0.307	0.645	1.048	0.00018	591.916	35.993	-135.183	0.01448	-2.290	0.810	1.124	-0.016	1.348	-0.151	
0.06617	109346	2.356	-0.000	-3.141	-2.718	63.652	-4.811	-12.974	0.464	0.059	-0.164	-0.073	1.125	0.202	-1.403	-0.307	0.645	1.048	0.00009	591.888	36.046	-135.211	0.00010	-2.274	0.789	1.201	-0.023	1.345	-0.153	
3.65172	109581	2.356	-0.000	-3.141	-0.367	63.117	-3.710	-14.207	0.645	0.238	-0.133	-0.071	1.122	0.202	-1.409	-0.308	0.641	1.053	0.00014	589.314	38.635	-135.159	0.00928	-2.882	1.139	1.329	0.089	1.737	-0.168	
6.27448	109862	2.356	0.000	-3.142	-0.414	63.274	-3.716	-13.781	0.555	0.034	-0.121	-0.063	1.116	0.202	-1.427	-0.311	0.631	1.066	0.00014	584.904	43.099	-135.103	0.02601	-2.213	0.710	0.962	-0.076	1.333	-0.154	
0.15789	110111	2.356	-0.000	-3.141	-0.602	63.147	-3.806	-13.842	0.551	0.039	-0.114	-0.063	1.115	0.202	-1.428	-0.311	0.630	1.067	0.00028	584.804	43.073	-135.223	0.00205	-2.360	0.640	1.205	-0.124	1.406	-0.157	
0.39272	110347	2.356	-0.000	-3.141	-0.617	63.092	-3.803	-13.466	0.615	0.117	-0.135	-0.063	1.115	0.202	-1.428	-0.311	0.630	1.067	0.00029	584.502	43.316	-135.163	0.00009	-2.975	1.037	1.260	0.017	1.816	-0.196	
6.77996	110628	2.356	0.000	3.142	0.792	59.335	-2.180	-9.814	0.665	-1.721	0.057	-0.056	1.109	0.202	-1.443	-0.314	0.622	1.079	0.00059	579.841	48.239	-135.078	0.02264	-5.173	5.214	1.279	0.194	1.776	-0.055	
0.70944	110869	2.356	0.000	3.141	0.488	58.262	-1.954	-8.076	0.683	-2.469	0.102	-0.054	1.108	0.202	-1.447	-0.315	0.619	1.083	0.00011	579.387	48.781	-135.023	0.00700	-6.097	8.817	-0.357	0.417	1.496	0.039	
0.74553	111093	2.356	-0.001	-3.141	-0.422	62.908	-3.990	-14.132	0.359	-0.059	0.089	-0.054	1.108	0.202	-1.446	-0.315	0.620	1.082	0.00101	579.563	48.136	-135.352	0.00160	-1.215	2.650	0.692	0.049	0.362	0.057	
3.69649	111374	2.356	-0.000	-3.141	-0.032	63.086	-3.720	-13.892	0.405	-0.052	0.059	-0.058	1.112	0.202	-1.438	-0.313	0.625	1.075	0.00041	582.159	45.504	-135.307	0.01339	-0.621	0.732	1.125	0.035	0.231	0.022	
0.50775	111624	2.356	-0.000	-3.141	-0.104	62.766	-3.860	-13.790	0.382	-0.056	0.052	-0.059	1.112	0.202	-1.435	-0.313	0.626	1.073	0.00034	582.582	45.266	-135.159	0.00367	-0.847	0.876	1.166	0.108	0.422	0.010	
0.02995	111868	2.356	-0.000	-3.141	-0.082	62.739	-3.810	-13.814	0.397	-0.068	-0.155	-0.059	1.112	0.202	-1.435	-0.313	0.626	1.073	0.00013	582.584	45.236	-135.156	0.00007	-1.192	0.731	1.103	0.027	0.617	-0.103	
0.00699	112154	2.281	-0.000	-3.141	-0.019	62.733	-3.892	-13.752	0.371	-0.075	-0.212	-0.059	1.112	0.202	-1.435	-0.313	0.626	1.126	0.07561	582.582	45.242	-135.157	0.05272	-1.146	0.868	1.169	0.074	0.638	-0.143	
0.00823	112435	2.078	-0.000	-3.141	-0.030	62.767	-3.827	-13.832	0.434	-0.061	-0.148	-0.059	1.112	0.202	-1.435	-0.313	0.626	1.318	0.20221	582.577	45.246	-135.163	0.19218	-0.957	1.003	1.098	0.158	0.616	-0.147	
0.02979	112715	1.967	-0.000	-3.141	-0.161	62.725	-3.859	-13.797	0.404	-0.069	-0.114	-0.059	1.112	0.202	-1.435	-0.313	0.626	1.454	0.11087	582.606	45.248	-135.156	0.13649	-0.865	1.030	1.119	0.182	0.593	-0.138	
0.00200	112979	1.964	-0.000	-3.141	-0.147	62.743	-3.831	-13.805	0.411	-0.071	-0.107	-0.059	1.112	0.202	-1.435	-0.313	0.626	1.466	0.00397	582.608	45.248	-135.156	0.01145	-0.805	1.045	1.113	0.187	0.560	-0.112	
0.01746	113212	1.964	-0.000	-3.141	-0.746	62.525	-3.887	-13.752	0.504	0.117	-0.153	-0.059	1.112	0.202	-1.435	-0.313	0.626	1.466	0.00002	582.607	45.265	-135.156	0.00001	-1.877	1.210	1.390	0.282	1.182	-0.190	
5.89469	113495	1.963	0.000	-3.141	0.085	62.240	-3.417	-13.727	0.591	0.155	-0.151	-0.052	1.110	0.202	-1.440	-0.314	0.623	1.475	0.00014	580.398	50.730	-135.157	0.01353	-2.373	1.546	1.085	0.521	1.630	-0.213	
4.04009	113774	1.964	0.000	-3.141	-0.801	62.443	-3.941	-13.563	0.503	0.073	-0.105	-0.044	1.108	0.202	-1.446	-0.315	0.619	1.485	0.00025	578.880	54.475	-135.164	0.01490	-1.868	1.543	1.048	0.458	1.279	-0.153	
0.04261	114040	1.964	0.000	-3.141	-0.815	62.625	-3.911	-13.568	0.510	0.077	-0.108	-0.044	1.108	0.202	-1.446	-0.315	0.619	1.485	0.00005	578.876	54.517	-135.162	0.00008	-1.787	1.549	1.030	0.462	1.257	-0.153	
2.30636	114275	1.963	-0.000	-3.142	-0.337	63.022	-3.522	-13.372	0.581	0.148	-0.193	-0.042	1.108	0.202	-1.447	-0.315	0.619	1.487	0.00023	578.021	56.659	-135.189	0.00301	-2.438	2.248	1.480	0.761	1.712	-0.221	
7.03599	114556	1.964	-0.000	-3.141	-0.489	62.106	-3.728	-13.422	0.530	0.141	-0.123	-0.031	1.105	0.202	-1.455	-0.317	0.615	1.501	0.00020	575.249	63.126	-135.188	0.01998	-1.957	2.116	1.394	0.736	1.448	-0.178	
0.59212	114823	1.964	0.000	-3.141	-0.676	62.444	-3.792	-13.455	0.526	0.132	-0.114	-0.028	1.104	0.202	-1.457	-0.317	0.613	1.504	0.00011	575.049	63.683	-135.168	0.00505	-2.037	1.711	1.106	0.583	1.423	-0.172	
0.05182	115013	1.964	0.000	-3.141	-0.988	63.188	-4.059	-13.756	0.580	0.215	-0.160	-0.028	1.104	0.202	-1.457	-0.317	0.613	1.504	0.00008	575.048	63.735	-135.169	0.00012	-2.589	1.705	1.173	0.588	1.697	-0.211	
4.98165	115256	1.964	0.000	-3.141	-0.961	62.321	-3.779	-13.642	0.624	0.216	-0.167	-0.022	1.103	0.202	-1.461	-0.318	0.611	1.512	0.00028	573.039	68.293	-135.160	0.01048	-2.313	1.891	1.184	0.674	1.668	-0.221	
5.04945	115538	1.964	0.000	-3.141	-0.745	62.110	-3.871	-13.287	0.537	0.121	-0.094	-0.012	1.100	0.202	-1.467	-0.319	0.607	1.524	0.00026	571.209	73.000	-135.136	0.01742	-1.734	1.775	1.028	0.609	1.303	-0.138	
0.05688	115789	1.964	0.000	-3.141	-0.613	62.283	-3.801	-13.347	0.541	0.112	-0.088	-0.012	1.100	0.202	-1.467	-0.319	0.607	1.524	0.00007	571.185	72.978	-135.183	0.00018	-1.872	1.762	1.130	0.592	1.352	-0.144	
1.23233	116023	1.963	-0.000	-3.141	1.454	59.909	-2.806	-11.250	0.523	-0.862	-0.042	-0.012	1.100	0.202	-1.467	-0.319	0.607	1.524	0.00050	570.696	74.108	-135.209	0.00069	-3.776	5.165	1.506	0.929	1.829	-0.151	
2.69221	116302	1.964	0.000	3.141	-0.421	59.041	-3.078	-9.496	0.462	-1.537	0.002	-0.006	1.099	0.202	-1.470	-0.320	0.605	1.531	0.00081	569.854	76.662	-135.073	0.01020	-2.755	7.508	0.153	0.920	1.373	-0.080	
0.84456	116536	1.964	-0.000	-3.141	0.413	61.185	-3.246	-12.077	0.403	-0.749	0.091	-0.006	1.099	0.202	-1.470	-0.320	0.605	1.531	0.00054	569.953	75.832	-135.194	0.00084	-0.805	4.649	1.021	0.401	0.481	0.052	
3.55922	116819	1.964	-0.000	-3.141	-0.147	62.356	-3.850	-13.501	0.369	-0.030	0.023	-0.012	1.101	0.202	-1.467	-0.319	0.608	1.524	0.00073	570.976	72.427	-135.363	0.00990	-0.625	1.025	1.271	0.182	0.405	0.006	
0.71415	117098	1.964	-0.000	-3.141	-0.204	62.165	-3.840	-13.447	0.374	-0.035	0.022	-0.014	1.101	0.202	-1.466	-0.319	0.608	1.522	0.00069	571.519	72.018	-135.143	0.00321	-0.720	1.164	1.274	0.270	0.503	-0.030	
0.02108	117328	1.963	-0.000	-3.141	-0.180	62.185	-3.823	-13.441	0.389	-0.051	-0.142	-0.014	1.101	0.202	-1.466	-0.319	0.608	1.522	0.00011	571.520	71.998	-135.150	0.00006	-0.886	1.210	1.275	0.284	0.636	-0.126	
0.00774	117615	1.887	-0.000	-3.141	-0.153	62.163	-3.862	-13.451	0.308	-0.087	-0.065	-0.014	1.101	0.202	-1.466	-0.319	0.608	1.576	0.07669	571.525	72.004	-135.148	0.05408	-0.815	1.286	1.296	0.326	0.648	-0.166	
0.00596	117893	1.684	0.000	-3.141	-0.198	62.227	-3.844	-13.474	0.400	-0.039	-0.192	-0.014	1.101	0.202	-1.466	-0.319	0.608	1.766	0.20239	571.530	72.001	-135.150	0.19013	-0.575	1.411	1.303	0.444	0.606	-0.196	
0.00558	118178	1.574	0.000	-3.141	-0.210	62.166	-3.837	-13.454	0.405	-0.061	-0.128	-0.014	1.101	0.202	-1.465	-0.319	0.608	1.903	0.10996	571.536	72.001	-135.151	0.13753	-0.446	1.420	1.274	0.459	0.543	-0.164	
0.00288	118458	1.571	0.000	-3.141	-0.204	62.181	-3.831	-13.453	0.401	-0.061	-0.125	-0.014	1.101	0.202	-1.465	-0.319	0.608	1.915	0.00371	571.538	72.002	-135.150	0.01115	-0.394	1.384	1.263	0.440	0.510	-0.137	
0.05990	118696	1.571	0.000	-3.141	-0.456	62.458	-3.618	-13.816	0.412	-0.105	-0.180	-0.014	1.101	0.202	-1.465	-0.319	0.608	1.915	0.00009	571.534	72.062	-135.153	0.00000	-1.669	1.404	1.274	0.497	1.203	-0.244	
6.19903	118992	1.571	0.000	-3.141	0.130	62.200	-3.390	-13.496	0.322	-0.128	-0.202	-0.005	1.102	0.202	-1.463	-0.319	0.609	1.922	0.00021	571.600	78.260	-135.173	0.01231	-1.666	1.397	1.083	0.485	1.302	-0.323	
3.71795	119274	1.571	0.000	-3.141	-0.784	62.219	-3.879	-13.471	0.320	-0.107	-0.139	0.004	1.103	0.202	-1.461	-0.318	0.611	1.930	0.00031	571.528	81.978	-135.192	0.01225	-1.325	1.491	1.239	0.503	1.047	-0.238	
0.04974	119524	1.571	0.000	-3.141	-1.260	62.291	-4.059	-13.465	0.325	-0.103	-0.152	0.004	1.103	0.202	-1.461	-0.318	0.611	1.930	0.00003	571.524	82.025	-135.177	0.00013	-1.265	1.515	1.215	0.521	1.047	-0.238	
2.65137	119773	1.571	0.000	-3.141	-1.010	62.220	-3.950	-13.522	0.286	-0.122	-0.196	0.006	1.103	0.202	-1.460	-0.318	0.611	1.933	0.00032	571.634	84.673	-135.116	0.00329	-1.860	1.462	1.205	0.524	1.375	-0.317	
6.82161	120051	1.571	0.000	-3.141	-0.570	62.178	-3.794	-13.540	0.311	-0.038	-0.139	0.019	1.104	0.202	-1.456	-0.317	0.614	1.944	0.00022	571.613	91.495	-135.160	0.01731	-1.753	1.475	1.084	0.571	1.291	-0.290	
0.46062	120300	1.571	0.000	-3.141	-0.772	62.508	-3.836	-13.613	0.330	-0.043	-0.142	0.021	1.105	0.202	-1.455	-0.317	0.614	1.946	0.00043	571.541	91.949	-135.181	0.00382	-1.441	1.614	1.141	0.626	1.111	-0.257	
0.06758	120484	1.571	0.000	-3.141	-0.669	62.197	-3.742	-13.447	0.280	-0.159	-0.202	0.021	1.105	0.202	-1.455	-0.317	0.614	1.946	0.00009	571.530	92.016	-135.181	0.00008	-2.309	1.549	1.171	0.626	1.568	-0.335	
5.97396	120768	1.571	0.000	-3.141	0.376	62.364	-3.198	-13.563	0.313	-0.184	-0.188	0.030	1.106	0.202	-1.452	-0.316	0.616	1.953	0.00045	571.654	97.989	-135.155	0.01156	-1.488	1.268	1.073	0.443	1.214	-0.302	
4.00506	121050	1.571	0.000	-3.141	-0.785	62.530	-3.819	-13.639	0.338	-0.130	-0.130	0.039	1.107	0.202	-1.449	-0.316	0.618	1.961	0.00044	571.547	101.992	-135.184	0.01301	-1.394	1.358	1.142	0.458	1.087	-0.241	
0.03095	121315	1.571	0.000	-3.141	-0.839	62.407	-3.876	-13.655	0.338	-0.113	-0.137	0.039	1.107	0.202	-1.449	-0.316	0.618	1.961	0.00006	571.522	102.011	-135.182	0.00014	-1.366	1.385	1.070	0.486	1.100	-0.238	
2.30969	121549	1.571	0.000	-3.141	-0.914	62.286	-3.948	-13.589	0.280	-0.146	-0.204	0.041	1.107	0.202	-1.448	-0.316	0.618	1.963	0.00029	571.604	104.318	-135.106	0.00256	-1.463	1.185	0.975	0.422	1.210	-0.329	
6.88570	121830	1.571	0.000	-3.141	-2.468	64.642	-6.040	-16.736	-0.153	1.669	-0.265	0.053	1.109	0.202	-1.443	-0.314	0.621	1.974	0.00047	571.416	111.200	-135.217	0.01751	-5.326	-1.817	0.086	0.509	1.532	-0.407	
0.37183	122080	1.571	0.000	-3.141	-3.331	65.484	-7.297	-17.917	-0.352	2.214	-0.291	0.056	1.110	0.202	-1.443	-0.314	0.622	1.976	0.00027	571.491	111.564	-135.231	0.00374	-7.653	-4.737	1.029	0.198	1.496	-0.425	
1.08461	122343	1.571	-0.000	3.141	-0.379	62.451	-3.939	-13.562	0.454	0.097	0.031	0.054	1.109	0.202	-1.443	-0.314	0.621	1.974	0.00094	571.831	110.564	-134.985	0.00228	-0.036	1.651	1.093	0.654	0.208	-0.002	
3.83347	122627	1.571	0.000	-3.141	-0.200	62.591	-3.745	-13.549	0.479	0.100	-0.014	0.048	1.108	0.202	-1.445	-0.315	0.620	1.969	0.00059	571.597	106.748	-135.271	0.00873	0.186	2.107	1.153	0.843	0.269	-0.038	
0.12695	122891	1.571	0.000	-3.141	-0.288	62.651	-3.831	-13.613	0.474	0.020	-0.022	0.047	1.108	0.202	-1.446	-0.315	0.620	1.968	0.00014	571.600	106.662	-135.178	0.00150	-0.104	1.966	1.253	0.728	0.416	-0.051	
0.02868	123079	1.573	0.000	-3.141	-0.220	62.551	-3.771	-13.568	0.501	0.038	0.077	0.047	1.108	0.202	-1.446	-0.315	0.620	1.968	0.00182	571.603	106.633	-135.178	0.00007	-0.058	1.859	1.190	0.678	0.368	0.006	
0.00889	123359	1.674	0.000	-3.141	-0.289	62.647	-3.773	-13.624	0.539	0.054	-0.031	0.047	1.108	0.202	-1.446	-0.315	0.620	1.893	0.10075	571.603	106.642	-135.178	0.07496	-0.342	1.891	1.260	0.667	0.475	0.004	
0.00357	123640	1.879	0.000	-3.141	-0.254	62.582	-3.772	-13.587	0.497	0.052	0.083	0.047	1.108	0.202	-1.446	-0.315	0.620	1.691	0.20506	571.605	106.639	-135.179	0.20273	-0.674	1.792	1.187	0.574	0.587	0.033	
0.00480	123922	1.963	0.000	-3.141	-0.286	62.598	-3.783	-13.574	0.472	0.038	0.059	0.047	1.108	0.202	-1.446	-0.315	0.620	1.580	0.08456	571.608	106.635	-135.179	0.11092	-0.776	1.743	1.220	0.545	0.640	0.011	
0.00127	124186	1.964	0.000	-3.141	-0.276	62.598	-3.786	-13.586	0.470	0.038	0.052	0.047	1.108	0.202	-1.446	-0.315	0.620	1.576	0.00043	571.607	106.636	-135.179	0.00390	-0.782	1.732	1.217	0.540	0.647	0.002	
0.31986	124375	1.963	0.000	-3.141	-0.423	62.599	-3.426	-13.375	0.537	0.079	-0.095	0.047	1.108	0.202	-1.446	-0.315	0.620	1.576	0.00011	571.514	106.942	-135.190	0.00002	-1.685	1.936	0.944	0.676	1.300	-0.160	
6.84396	124656	1.963	0.000	-3.141	1.385	63.266	-2.712	-14.134	0.578	0.150	-0.112	0.057	1.107	0.202	-1.450	-0.316	0.617	1.587	0.00009	568.883	113.260	-135.155	0.01577	-2.277	2.224	1.274	0.801	1.654	-0.212	
