arturo-sol653/Programmierung-und-Regelung-fuer-Mensch-Roboterinteraktion/Robot Programming/iiwa-exercises/logs/log_wireloop_small.log
TRANS_DIST	JS_DIST	ROT_DIST	X	Y	Z	A	B	C	TIME	MT0	MT1	MT2	MT3	MT4	MT5	MT6	FX	FY	FZ	TA	TB	TC	J0	J1	J2	J3	J4	J5	J6	
0.00000	0.00000	0.00000	449.239	69.991	-135.156	-1.571	0.000	3.141	0	0.004	52.605	-6.479	-7.566	0.238	-0.048	0.098	-0.333	-0.985	1.596	-0.439	-0.031	0.021	-0.143	0.998	0.355	-1.861	-0.781	0.427	-0.781	
0.06638	0.00010	0.00011	449.297	69.972	-135.131	-1.571	0.000	3.142	233	-0.156	52.644	-6.544	-7.526	0.239	-0.029	0.090	-0.152	-1.104	1.423	-0.530	-0.112	0.000	-0.143	0.998	0.355	-1.861	-0.781	0.427	-0.781	
0.11158	0.00016	0.00018	449.404	69.951	-135.107	-1.571	0.000	-3.142	515	0.046	52.586	-6.428	-7.538	0.247	-0.027	0.104	-0.186	-1.074	1.346	-0.529	-0.098	-0.000	-0.143	0.998	0.355	-1.861	-0.781	0.427	-0.781	
2.37842	0.00342	0.00016	449.424	67.573	-135.113	-1.571	0.000	-3.141	701	-0.339	52.559	-6.769	-7.375	0.557	0.145	0.150	-0.988	-1.723	1.498	-0.905	0.225	0.168	-0.145	0.997	0.355	-1.861	-0.782	0.427	-0.783	
6.99495	0.02056	0.00030	449.413	60.578	-135.109	-1.571	0.000	-3.141	982	0.009	52.654	-6.403	-7.418	0.520	0.118	0.120	-0.696	-1.907	1.416	-1.065	0.081	0.141	-0.161	0.997	0.355	-1.864	-0.785	0.425	-0.795	
0.58859	0.00487	0.00043	449.329	59.996	-135.138	-1.571	0.000	-3.142	1204	1.139	52.469	-5.873	-7.326	0.590	0.098	0.166	-0.648	-1.782	1.310	-0.973	0.099	0.127	-0.165	0.997	0.355	-1.865	-0.786	0.425	-0.798	
4.73282	0.01039	0.00039	449.476	55.266	-135.109	-1.571	0.000	-3.141	1462	0.130	52.505	-6.385	-7.344	0.619	0.132	0.147	-0.964	-1.965	1.562	-1.043	0.239	0.176	-0.173	0.996	0.355	-1.866	-0.787	0.424	-0.805	
5.43759	0.01905	0.00058	449.245	49.833	-135.107	-1.571	-0.000	3.141	1745	0.195	52.527	-6.355	-7.401	0.556	0.135	0.109	-0.430	-1.960	1.204	-1.136	-0.068	0.115	-0.188	0.995	0.355	-1.869	-0.789	0.423	-0.816	
0.39607	0.00023	0.00020	449.362	49.455	-135.090	-1.571	-0.000	-3.142	1962	0.226	52.629	-6.331	-7.330	0.628	0.140	0.145	-0.656	-1.906	1.537	-1.042	0.130	0.181	-0.188	0.995	0.355	-1.869	-0.789	0.423	-0.816	
6.89001	0.01831	0.00017	449.404	42.565	-135.108	-1.571	0.000	-3.141	2242	-1.005	52.537	-7.119	-7.112	0.586	0.175	0.132	-1.273	-1.836	1.581	-0.950	0.400	0.199	-0.201	0.995	0.355	-1.871	-0.791	0.422	-0.828	
2.63680	0.01120	0.00016	449.439	39.929	-135.072	-1.570	-0.000	-3.141	2523	0.399	52.352	-6.314	-7.316	0.557	0.129	0.120	-0.622	-1.901	1.108	-1.063	0.032	0.126	-0.210	0.995	0.355	-1.872	-0.793	0.421	-0.835	
2.38639	0.00338	0.00024	449.386	37.544	-135.126	-1.571	0.000	-3.142	2712	0.296	52.442	-6.550	-7.251	0.617	0.167	0.138	-1.281	-1.864	1.681	-0.966	0.398	0.197	-0.212	0.995	0.355	-1.872	-0.793	0.421	-0.837	
6.97789	0.02144	0.00024	449.290	30.566	-135.121	-1.571	-0.000	3.141	2995	0.046	52.359	-6.447	-7.245	0.564	0.149	0.119	-1.014	-1.917	1.607	-1.003	0.277	0.171	-0.228	0.994	0.355	-1.874	-0.795	0.421	-0.851	
0.60991	0.00519	0.00042	449.389	29.966	-135.086	-1.570	0.000	-3.141	3239	1.058	52.361	-6.023	-7.319	0.592	0.097	0.156	-0.983	-1.685	1.664	-0.824	0.301	0.173	-0.232	0.994	0.355	-1.874	-0.795	0.420	-0.855	
4.82477	0.01100	0.00032	449.323	25.141	-135.102	-1.571	0.000	-3.142	3506	0.511	52.373	-6.306	-7.204	0.611	0.139	0.143	-1.226	-1.806	1.683	-0.912	0.434	0.208	-0.241	0.994	0.355	-1.875	-0.796	0.420	-0.862	
5.23544	0.01936	0.00021	449.444	19.907	-135.102	-1.571	0.000	-3.141	3790	0.301	52.389	-6.385	-7.262	0.564	0.140	0.104	-0.780	-1.954	1.406	-1.027	0.151	0.141	-0.255	0.994	0.355	-1.876	-0.797	0.419	-0.875	
0.27535	0.00016	0.00004	449.437	19.632	-135.093	-1.571	0.000	-3.141	3991	0.324	52.260	-6.547	-7.075	0.592	0.151	0.153	-1.411	-1.765	1.703	-0.852	0.501	0.211	-0.255	0.994	0.355	-1.876	-0.797	0.419	-0.875	
6.86634	0.01831	0.00028	449.377	12.766	-135.122	-1.571	-0.000	3.142	4273	-1.308	52.338	-7.359	-7.074	0.594	0.196	0.143	-1.587	-1.743	1.803	-0.819	0.601	0.225	-0.268	0.994	0.355	-1.876	-0.797	0.419	-0.888	
2.85210	0.01249	0.00027	449.277	9.916	-135.126	-1.570	-0.000	3.141	4554	0.538	52.309	-6.311	-7.223	0.560	0.134	0.121	-0.854	-1.856	1.389	-0.976	0.187	0.148	-0.277	0.993	0.355	-1.877	-0.798	0.419	-0.896	
2.51437	0.00405	0.00026	449.350	7.403	-135.105	-1.571	-0.000	3.142	4759	0.633	52.454	-6.315	-7.134	0.586	0.123	0.151	-1.422	-1.658	1.782	-0.773	0.570	0.221	-0.280	0.993	0.355	-1.877	-0.798	0.419	-0.899	
6.91728	0.02180	0.00021	449.265	0.486	-135.105	-1.570	-0.000	3.141	5037	0.168	52.427	-6.456	-7.223	0.560	0.143	0.108	-1.450	-1.752	1.793	-0.832	0.541	0.191	-0.296	0.993	0.355	-1.877	-0.798	0.419	-0.914	
0.54171	0.00536	0.00013	449.284	-0.055	-135.095	-1.570	-0.000	3.142	5259	1.023	52.227	-6.083	-7.276	0.526	0.108	0.136	-1.284	-1.641	1.742	-0.783	0.501	0.184	-0.299	0.993	0.355	-1.877	-0.798	0.419	-0.918	
4.80821	0.01143	0.00030	449.323	-4.863	-135.102	-1.571	0.000	3.142	5520	0.563	52.376	-6.485	-7.212	0.372	0.110	0.158	-1.664	-1.316	1.942	-0.521	0.763	0.191	-0.307	0.993	0.355	-1.877	-0.798	0.419	-0.926	
5.21690	0.02031	0.00019	449.372	-10.080	-135.125	-1.571	0.000	-3.142	5806	0.437	52.290	-6.348	-7.284	0.327	0.112	0.110	-0.878	-1.331	1.563	-0.609	0.355	0.094	-0.322	0.993	0.355	-1.877	-0.798	0.419	-0.941	
0.29253	0.00017	0.00002	449.375	-10.372	-135.131	-1.571	0.000	-3.142	6009	0.582	52.320	-6.359	-7.289	0.300	0.083	0.141	-1.203	-1.117	1.843	-0.438	0.591	0.168	-0.322	0.993	0.355	-1.877	-0.797	0.419	-0.941	
6.76493	0.01913	0.00029	449.482	-17.136	-135.098	-1.571	0.000	-3.141	6288	-1.213	52.356	-7.344	-7.067	0.217	0.050	0.135	-2.243	-0.689	2.372	-0.054	1.146	0.153	-0.335	0.994	0.355	-1.876	-0.797	0.419	-0.955	
2.86704	0.01303	0.00007	449.529	-20.003	-135.098	-1.571	0.000	-3.141	6570	0.979	52.165	-6.120	-7.299	0.244	-0.004	0.104	-0.957	-0.955	1.760	-0.313	0.430	0.060	-0.344	0.994	0.355	-1.875	-0.796	0.419	-0.964	
2.48569	0.00408	0.00008	449.468	-22.488	-135.102	-1.571	0.000	-3.141	6773	0.641	52.268	-6.458	-7.415	0.208	-0.015	0.152	-1.719	-0.564	2.120	-0.005	0.931	0.136	-0.346	0.994	0.355	-1.875	-0.796	0.419	-0.967	
6.97703	0.02351	0.00031	449.363	-29.464	-135.158	-1.571	0.000	-3.142	7057	0.409	52.336	-6.422	-7.307	0.237	0.003	0.096	-1.376	-0.561	2.108	-0.015	0.741	0.107	-0.362	0.994	0.355	-1.874	-0.795	0.420	-0.984	
0.55585	0.00508	0.00020	449.353	-30.020	-135.141	-1.571	0.000	3.141	7272	2.594	52.451	-5.426	-7.601	0.245	-0.039	0.132	-0.874	-0.862	1.817	-0.263	0.454	0.073	-0.366	0.994	0.355	-1.874	-0.794	0.420	-0.988	
3.72255	0.00817	0.00036	449.438	-33.741	-135.112	-1.571	0.000	-3.141	7493	1.054	52.466	-6.244	-7.614	0.211	-0.082	0.115	-1.683	-0.345	2.146	0.141	0.956	0.128	-0.371	0.994	0.355	-1.873	-0.794	0.420	-0.994	
6.30489	0.02311	0.00023	449.322	-40.045	-135.145	-1.571	0.000	3.142	7774	0.629	52.172	-6.341	-7.318	0.225	-0.086	0.102	-1.228	-0.490	1.987	0.010	0.664	0.101	-0.386	0.995	0.355	-1.872	-0.792	0.421	-1.011	
0.02629	0.00185	0.00025	449.345	-40.034	-135.151	-1.571	0.000	3.142	7975	0.508	52.094	-6.451	-7.352	0.181	-0.105	0.117	-2.035	-0.258	2.135	0.212	1.140	0.158	-0.387	0.995	0.355	-1.872	-0.792	0.421	-1.013	
6.08741	0.01631	0.00016	449.254	-46.121	-135.158	-1.571	0.000	3.141	8260	-0.073	52.568	-6.849	-7.358	0.180	-0.080	0.121	-2.103	-0.302	2.283	0.239	1.227	0.156	-0.398	0.995	0.355	-1.870	-0.791	0.422	-1.025	
3.85040	0.01742	0.00031	449.343	-49.970	-135.169	-1.571	0.000	-3.142	8542	0.516	52.500	-6.389	-7.474	0.226	-0.087	0.073	-1.253	-0.576	1.787	-0.025	0.658	0.080	-0.409	0.996	0.355	-1.869	-0.789	0.423	-1.038	
1.36536	0.00110	0.00030	449.372	-51.334	-135.127	-1.571	0.000	-3.141	8745	0.885	52.453	-6.465	-7.426	0.162	-0.100	0.133	-2.372	-0.443	2.384	0.214	1.336	0.150	-0.410	0.996	0.355	-1.869	-0.789	0.423	-1.039	
7.04584	0.02332	0.00015	449.317	-58.380	-135.143	-1.571	0.000	-3.142	9025	0.751	52.307	-6.252	-7.425	0.210	-0.111	0.105	-1.037	-0.431	2.175	0.111	0.747	0.113	-0.425	0.996	0.355	-1.866	-0.786	0.424	-1.057	
1.59803	0.00963	0.00024	449.242	-59.976	-135.173	-1.571	0.000	3.141	9306	1.907	52.431	-5.840	-7.619	0.219	-0.119	0.125	-1.375	-0.667	1.982	-0.031	0.781	0.080	-0.430	0.997	0.355	-1.865	-0.785	0.425	-1.064	
2.06617	0.00483	0.00034	449.405	-62.035	-135.117	-1.571	0.000	-3.141	9538	0.558	52.317	-6.530	-7.454	0.170	-0.097	0.114	-1.904	-0.301	2.363	0.216	1.176	0.139	-0.434	0.997	0.355	-1.864	-0.785	0.425	-1.068	
3.10461	0.01201	0.00031	449.350	-65.139	-135.135	-1.571	-0.000	3.141	9820	0.613	52.430	-6.431	-7.613	0.193	-0.076	0.067	-1.335	-0.685	2.068	-0.028	0.757	0.073	-0.441	0.997	0.355	-1.863	-0.783	0.426	-1.077	
0.12202	0.00073	0.00542	449.251	-65.071	-135.157	-1.565	-0.000	3.141	10056	0.519	52.599	-6.469	-7.609	0.204	0.004	0.121	-1.452	-0.802	2.047	-0.127	0.853	0.125	-0.441	0.997	0.355	-1.863	-0.783	0.426	-1.078	
0.15033	0.15802	0.19941	449.362	-64.973	-135.132	-1.366	0.000	3.142	10337	0.436	52.533	-6.475	-7.562	0.432	0.034	0.039	-0.861	-1.256	1.729	-0.440	0.508	0.141	-0.441	0.997	0.355	-1.863	-0.783	0.426	-1.236	
0.15397	0.22056	0.18518	449.467	-64.865	-135.100	-1.181	0.000	-3.141	10617	0.402	52.506	-6.451	-7.540	0.337	0.040	0.072	-0.425	-1.407	1.616	-0.540	0.254	0.097	-0.441	0.997	0.355	-1.863	-0.783	0.426	-1.456	
0.01945	0.01329	0.00282	449.485	-64.870	-135.094	-1.178	0.000	-3.141	10831	0.514	52.244	-6.588	-7.498	0.157	-0.109	0.163	-2.005	-1.346	1.959	-0.353	1.377	0.182	-0.441	0.997	0.355	-1.863	-0.783	0.426	-1.469	
6.12042	0.02280	0.00033	451.688	-70.580	-135.110	-1.178	0.000	-3.142	11115	-0.590	52.981	-7.430	-7.503	0.151	-0.097	0.140	-1.469	-0.996	2.313	-0.207	1.100	0.147	-0.449	0.999	0.355	-1.856	-0.776	0.430	-1.487	
3.78956	0.02293	0.00010	453.162	-74.071	-135.129	-1.178	0.000	-3.142	11395	0.618	53.035	-6.491	-7.794	0.221	-0.042	0.082	-0.955	-1.283	1.940	-0.398	0.713	0.093	-0.458	1.001	0.355	-1.848	-0.768	0.434	-1.505	
1.39864	0.00125	0.00049	453.843	-75.290	-135.046	-1.178	-0.000	-3.141	11584	0.632	53.047	-6.800	-7.619	0.151	-0.124	0.148	-1.881	-1.106	2.517	-0.257	1.363	0.176	-0.458	1.001	0.355	-1.847	-0.768	0.434	-1.506	
7.12202	0.03159	0.00070	456.336	-81.961	-135.124	-1.178	0.000	3.141	11865	1.039	53.410	-6.355	-8.092	0.217	-0.120	0.087	-1.173	-1.189	2.354	-0.282	0.988	0.146	-0.469	1.004	0.355	-1.836	-0.757	0.441	-1.530	
1.49966	0.01246	0.00011	456.930	-83.338	-135.156	-1.178	0.000	3.141	12108	1.511	53.080	-6.174	-8.379	0.193	-0.114	0.148	-1.155	-1.188	2.045	-0.315	0.861	0.115	-0.474	1.006	0.355	-1.832	-0.753	0.443	-1.539	
2.28954	0.00748	0.00034	457.921	-85.402	-135.150	-1.178	0.000	-3.141	12350	0.566	53.484	-6.821	-8.227	0.190	-0.077	0.148	-1.635	-1.151	2.082	-0.295	1.211	0.161	-0.476	1.006	0.355	-1.829	-0.750	0.445	-1.545	
2.82195	0.01494	0.00028	458.938	-88.034	-135.128	-1.178	0.000	3.142	12631	0.543	53.675	-6.711	-8.144	0.268	-0.034	0.112	-1.064	-1.417	1.896	-0.462	0.776	0.135	-0.481	1.008	0.355	-1.823	-0.745	0.448	-1.556	
0.13896	0.00015	0.00408	458.839	-87.939	-135.148	-1.174	0.000	3.141	12818	0.566	53.653	-6.623	-8.275	0.528	0.077	0.143	-0.693	-1.584	1.763	-0.564	0.578	0.165	-0.481	1.008	0.355	-1.824	-0.745	0.448	-1.556	
0.67438	0.15036	0.19586	458.721	-87.275	-135.125	-0.978	-0.000	-3.141	13099	0.231	53.443	-6.560	-7.989	0.541	0.063	0.117	0.668	-1.555	1.369	-0.562	-0.371	0.170	-0.481	1.008	0.355	-1.824	-0.746	0.447	-1.707	
0.68108	0.22127	0.18923	458.442	-86.655	-135.095	-0.789	-0.000	-3.142	13379	0.218	53.566	-6.588	-8.097	0.501	0.083	0.082	0.979	-1.428	1.457	-0.493	-0.530	0.126	-0.479	1.007	0.355	-1.826	-0.748	0.447	-1.928	
0.04153	0.01580	0.00373	458.482	-86.662	-135.091	-0.785	-0.000	-3.141	13603	1.238	53.376	-6.502	-8.205	0.192	-0.107	0.176	-0.189	-1.538	2.244	-0.588	0.444	0.155	-0.479	1.007	0.355	-1.826	-0.748	0.446	-1.944	
6.38296	0.02753	0.00009	463.010	-91.162	-135.094	-0.785	-0.000	-3.141	13894	0.274	53.676	-6.943	-7.432	0.141	-0.180	0.131	-1.081	-1.835	1.807	-0.806	1.106	0.191	-0.484	1.011	0.355	-1.813	-0.736	0.454	-1.963	
3.53911	0.02463	0.00009	465.504	-93.672	-135.103	-0.785	-0.000	-3.141	14177	1.036	53.880	-6.453	-8.661	0.270	-0.094	0.114	-0.402	-1.600	1.803	-0.632	0.551	0.111	-0.488	1.015	0.355	-1.801	-0.725	0.461	-1.979	
2.89588	0.00841	0.00005	467.538	-95.734	-135.094	-0.785	-0.000	-3.142	14411	0.816	54.302	-6.552	-8.727	0.217	-0.139	0.180	-1.223	-1.802	2.160	-0.808	1.100	0.186	-0.489	1.016	0.355	-1.796	-0.722	0.463	-1.985	
6.76348	0.03550	0.00027	472.280	-100.556	-135.134	-0.785	0.000	3.141	14693	0.745	54.593	-6.646	-8.923	0.252	-0.082	0.112	-0.826	-2.050	1.964	-0.831	0.812	0.150	-0.494	1.021	0.355	-1.779	-0.707	0.473	-2.009	
0.19841	0.00662	0.00018	472.415	-100.702	-135.133	-0.785	0.000	3.141	14923	0.794	54.735	-6.671	-8.770	0.228	-0.149	0.150	-0.576	-1.920	2.082	-0.823	0.854	0.170	-0.495	1.022	0.355	-1.775	-0.705	0.475	-2.013	
3.34871	0.01369	0.00015	474.741	-103.110	-135.140	-0.785	0.000	3.141	15210	0.265	54.465	-7.030	-8.417	0.194	-0.132	0.134	-1.234	-1.902	2.229	-0.850	1.083	0.184	-0.498	1.024	0.355	-1.768	-0.699	0.479	-2.022	
1.68150	0.01127	0.00015	475.950	-104.279	-135.125	-0.785	0.000	3.141	15491	0.706	55.117	-6.716	-9.174	0.258	-0.071	0.144	-0.384	-1.815	2.055	-0.761	0.571	0.127	-0.499	1.026	0.355	-1.762	-0.695	0.482	-2.030	
0.06904	0.02001	0.04377	475.889	-104.248	-135.123	-0.742	0.000	3.141	15694	0.609	55.108	-6.737	-8.896	0.442	-0.018	0.242	0.287	-1.975	1.819	-0.843	0.179	0.178	-0.499	1.026	0.355	-1.762	-0.695	0.482	-2.050	
0.41032	0.23201	0.25392	475.697	-103.886	-135.096	-0.488	-0.000	-3.141	15975	0.466	55.091	-6.657	-8.937	0.517	0.034	0.118	1.244	-1.527	1.751	-0.601	-0.390	0.172	-0.499	1.026	0.355	-1.763	-0.696	0.482	-2.282	
0.11911	0.13819	0.09499	475.679	-103.773	-135.129	-0.393	-0.000	-3.141	16254	0.442	55.021	-6.696	-8.929	0.493	0.046	0.083	1.341	-1.394	1.721	-0.516	-0.437	0.138	-0.499	1.026	0.355	-1.764	-0.697	0.481	-2.420	
1.55227	0.00194	0.00016	477.108	-104.379	-135.092	-0.393	-0.000	-3.141	16474	0.411	55.069	-6.692	-9.510	0.238	-0.103	0.109	0.269	-0.901	1.528	-0.412	0.210	0.069	-0.499	1.026	0.355	-1.763	-0.696	0.481	-2.421	
7.00411	0.03571	0.00011	483.574	-107.071	-135.114	-0.393	-0.000	-3.141	16756	0.637	55.581	-6.612	-9.567	0.289	-0.093	0.082	0.775	-0.678	1.600	-0.232	-0.013	0.050	-0.498	1.033	0.355	-1.741	-0.680	0.494	-2.441	
1.31155	0.01314	0.00021	484.778	-107.591	-135.139	-0.393	-0.000	-3.142	16993	0.453	54.935	-6.538	-10.203	0.229	-0.143	0.116	0.807	-0.871	1.508	-0.339	-0.044	0.060	-0.498	1.035	0.355	-1.733	-0.675	0.498	-2.448	
3.89503	0.01379	0.00014	488.388	-109.052	-135.165	-0.393	-0.000	-3.141	17226	0.147	55.897	-6.876	-9.376	0.176	-0.146	0.120	0.628	-0.597	1.611	-0.179	-0.004	0.036	-0.498	1.038	0.355	-1.725	-0.669	0.503	-2.455	
6.04433	0.03399	0.00040	493.940	-111.441	-135.142	-0.393	0.000	3.141	17506	0.254	56.229	-6.797	-9.898	0.277	-0.068	0.047	0.977	-0.483	1.623	-0.115	-0.202	0.008	-0.497	1.044	0.355	-1.703	-0.655	0.515	-2.473	
0.06557	0.00202	0.00016	493.881	-111.419	-135.125	-0.393	0.000	3.141	17696	0.089	56.838	-6.864	-9.939	0.204	-0.196	0.114	0.518	-0.696	1.365	-0.240	0.056	0.044	-0.497	1.045	0.355	-1.702	-0.654	0.516	-2.474	
6.07326	0.02407	0.00004	499.491	-113.745	-135.159	-0.393	0.000	3.141	17975	0.102	57.011	-6.839	-10.170	0.260	-0.094	0.113	0.463	-0.385	1.039	-0.082	0.037	0.032	-0.497	1.050	0.355	-1.687	-0.645	0.525	-2.486	
3.84297	0.02504	0.00017	503.044	-115.210	-135.172	-0.393	0.000	3.141	18256	0.148	57.340	-6.926	-10.342	0.306	-0.049	0.065	0.895	-0.280	1.160	-0.035	-0.195	0.028	-0.496	1.055	0.355	-1.670	-0.636	0.534	-2.499	
1.30121	0.00150	0.00065	504.255	-115.677	-135.073	-0.393	-0.000	-3.142	18456	0.399	57.783	-6.151	-11.085	0.433	-0.076	0.065	0.511	-0.342	1.558	-0.053	-0.003	0.017	-0.496	1.056	0.355	-1.669	-0.635	0.534	-2.499	
2.99647	0.01726	0.00104	507.054	-116.726	-135.276	-0.392	0.001	3.141	18735	4.376	60.447	-2.578	-14.130	1.432	-0.013	-0.088	-4.263	-6.189	0.935	-0.371	0.222	-0.115	-0.496	1.060	0.355	-1.658	-0.629	0.541	-2.508	
0.67589	0.00531	0.00035	507.655	-117.028	-135.214	-0.392	0.000	3.142	18946	5.404	62.981	-1.855	-14.648	1.572	-0.167	-0.099	-5.237	-8.480	2.549	-0.686	0.288	-0.131	-0.495	1.061	0.355	-1.655	-0.627	0.543	-2.510	
7.05157	0.01269	0.00110	507.079	-116.994	-128.186	-0.393	-0.001	-3.142	19177	0.788	57.784	-6.521	-11.815	0.381	-0.049	0.112	-0.638	-4.191	2.267	-0.631	0.074	0.013	-0.496	1.052	0.355	-1.659	-0.620	0.545	-2.514	
20.64572	0.07598	0.00040	503.919	-115.773	-107.820	-0.393	-0.000	3.141	19457	0.522	56.297	-6.296	-11.038	0.316	-0.056	0.094	1.713	-0.615	1.820	-0.166	-0.341	0.032	-0.496	1.000	0.354	-1.687	-0.582	0.561	-2.539	
2.67150	0.02027	0.00048	503.420	-115.349	-105.230	-0.393	0.000	-3.142	19740	0.184	56.285	-6.596	-11.381	0.328	-0.034	-0.097	1.291	-0.580	1.769	-0.145	-0.345	0.015	-0.495	0.987	0.355	-1.695	-0.571	0.565	-2.546	
0.17400	0.04020	0.07147	503.523	-115.407	-105.103	-0.464	-0.000	-3.142	19971	0.039	56.421	-6.620	-11.225	-0.129	-0.166	0.449	1.630	-0.624	1.762	-0.083	-0.562	-0.094	-0.495	0.987	0.355	-1.695	-0.571	0.565	-2.505	
0.02430	0.31371	0.35644	503.532	-115.384	-105.102	-0.821	-0.000	-3.142	20254	0.206	56.327	-6.612	-11.227	0.210	-0.064	-0.110	1.070	-1.336	1.670	-0.366	-0.424	-0.070	-0.495	0.987	0.355	-1.695	-0.571	0.565	-2.192	
0.00237	0.43653	0.43619	503.531	-115.382	-105.102	-1.257	-0.000	-3.141	20533	0.114	56.329	-6.598	-11.282	0.329	-0.063	-0.003	0.569	-1.588	1.718	-0.505	-0.331	-0.096	-0.495	0.987	0.355	-1.695	-0.571	0.565	-1.755	
0.01002	0.44430	0.43902	503.530	-115.372	-105.102	-1.696	-0.000	-3.141	20814	0.172	56.414	-6.605	-11.318	0.370	-0.041	-0.031	-0.112	-1.764	1.669	-0.672	-0.107	-0.125	-0.495	0.987	0.355	-1.695	-0.571	0.565	-1.311	
0.01442	0.30087	0.25298	503.520	-115.361	-105.102	-1.949	-0.000	-3.141	21096	0.187	56.379	-6.591	-11.278	0.261	-0.051	-0.054	-0.436	-1.612	1.799	-0.595	0.061	-0.123	-0.495	0.987	0.355	-1.695	-0.571	0.565	-1.010	
0.00573	0.03498	0.01449	503.519	-115.356	-105.102	-1.963	0.000	-3.141	21346	0.171	56.367	-6.598	-11.248	0.271	-0.057	-0.139	-0.454	-1.575	1.776	-0.587	0.059	-0.112	-0.495	0.987	0.355	-1.695	-0.571	0.565	-0.975	
0.00226	0.07073	0.11007	503.517	-115.354	-105.102	-2.073	0.000	-3.141	21615	0.113	56.235	-6.609	-11.252	0.172	0.021	0.145	-0.769	-1.554	1.694	-0.673	0.144	-0.117	-0.495	0.987	0.355	-1.695	-0.571	0.565	-0.904	
0.00246	0.35708	0.39336	503.515	-115.354	-105.102	-2.467	0.000	-3.142	21897	0.175	56.347	-6.667	-11.248	0.149	-0.089	0.050	-1.340	-1.129	1.702	-0.587	0.394	-0.117	-0.495	0.987	0.355	-1.695	-0.571	0.565	-0.547	
0.00156	0.44128	0.43792	503.513	-115.353	-105.102	-2.905	0.000	-3.142	22178	0.171	56.386	-6.621	-11.236	0.369	-0.058	0.028	-1.713	-0.441	1.706	-0.391	0.604	-0.112	-0.495	0.987	0.355	-1.695	-0.571	0.565	-0.106	
0.00167	0.44041	0.43109	503.512	-115.352	-105.103	2.947	0.000	-3.142	22461	0.122	56.382	-6.547	-11.314	0.313	-0.047	-0.072	-1.744	0.151	1.679	-0.205	0.710	-0.144	-0.495	0.987	0.355	-1.695	-0.571	0.565	0.335	
0.00057	0.24629	0.19487	503.512	-115.352	-105.103	2.753	0.000	3.142	22739	0.172	56.360	-6.588	-11.277	0.312	-0.032	-0.100	-1.680	0.364	1.685	-0.120	0.693	-0.125	-0.495	0.987	0.355	-1.695	-0.571	0.565	0.581	
0.00952	0.01502	0.00354	503.507	-115.349	-105.111	2.749	0.000	3.142	22964	0.359	54.222	-6.430	-11.120	0.544	0.132	-0.162	-1.459	0.419	1.367	-0.089	0.773	-0.075	-0.495	0.987	0.355	-1.695	-0.571	0.565	0.596	
15.02511	0.04261	0.00042	503.361	-115.331	-120.135	2.749	-0.000	-3.141	23254	0.056	58.549	-7.402	-11.274	0.622	0.245	-0.132	-1.186	1.095	-0.009	0.270	0.721	-0.023	-0.496	1.013	0.355	-1.686	-0.595	0.553	0.613	
15.01470	0.06831	0.00029	503.450	-115.339	-135.149	2.749	-0.000	3.142	23535	0.358	57.370	-6.940	-10.483	0.563	0.066	-0.086	-1.488	1.049	0.981	0.242	0.746	0.014	-0.496	1.055	0.355	-1.670	-0.635	0.535	0.642	
0.22225	0.00137	0.00070	503.616	-115.406	-135.018	2.750	0.000	3.142	23743	0.376	57.153	-6.962	-10.364	0.665	0.121	0.145	-1.068	1.176	1.103	0.371	0.490	0.150	-0.496	1.055	0.355	-1.670	-0.635	0.534	0.642	
0.16854	0.11745	0.16394	503.516	-115.350	-135.141	2.914	0.000	3.142	24033	0.475	57.183	-6.907	-10.373	0.538	0.096	0.145	-1.407	0.911	1.195	0.264	0.612	0.164	-0.496	1.056	0.355	-1.670	-0.635	0.534	0.525	
0.01068	0.24380	0.21569	503.526	-115.352	-135.139	3.129	0.000	-3.142	24313	0.382	57.172	-6.930	-10.356	0.547	0.085	0.108	-1.513	0.747	1.152	0.199	0.659	0.181	-0.496	1.056	0.355	-1.670	-0.635	0.534	0.281	
0.00234	0.03122	0.01244	503.528	-115.353	-135.138	-3.142	0.000	-3.142	24542	-0.255	57.003	-7.040	-10.482	0.269	-0.044	0.129	-0.962	0.441	0.857	0.042	0.411	0.138	-0.496	1.056	0.355	-1.670	-0.635	0.534	0.250	
5.23573	0.01798	0.00020	508.763	-115.331	-135.161	-3.142	0.000	3.142	24814	0.227	57.840	-6.696	-10.777	0.291	-0.140	0.139	-0.552	0.067	1.394	-0.135	0.124	0.045	-0.493	1.060	0.355	-1.657	-0.628	0.541	0.244	
4.78034	0.02765	0.00028	513.544	-115.317	-135.164	3.142	0.000	-3.142	25094	-0.042	58.059	-7.061	-10.734	0.322	-0.048	0.111	-1.017	0.108	1.236	-0.109	0.340	0.051	-0.487	1.066	0.355	-1.637	-0.618	0.552	0.234	
1.67495	0.00135	0.00036	515.208	-115.434	-135.018	3.141	0.000	-3.141	25328	-0.099	58.506	-7.061	-10.874	0.252	-0.196	0.124	-0.570	0.229	0.827	-0.033	0.080	0.042	-0.487	1.066	0.355	-1.636	-0.618	0.552	0.234	
7.01206	0.03202	0.00014	522.220	-115.383	-135.072	3.141	0.000	-3.142	25611	0.038	58.629	-7.063	-11.274	0.308	-0.091	0.097	-0.935	0.127	1.720	-0.121	0.220	0.034	-0.481	1.074	0.355	-1.614	-0.606	0.565	0.223	
1.28572	0.01207	0.00036	523.505	-115.418	-135.085	3.141	-0.000	-3.141	25846	-0.758	58.186	-7.309	-12.047	0.303	-0.086	0.128	-1.027	0.216	1.395	-0.045	0.284	0.043	-0.479	1.077	0.355	-1.605	-0.602	0.571	0.219	
3.80501	0.01224	0.00012	527.308	-115.320	-135.146	3.142	-0.000	-3.142	26081	-0.258	59.030	-7.216	-11.323	0.254	-0.107	0.126	-0.583	-0.020	1.160	-0.161	0.095	0.030	-0.476	1.080	0.355	-1.596	-0.598	0.576	0.215	
6.07912	0.03108	0.00031	533.387	-115.279	-135.186	-3.141	-0.000	-3.142	26361	-0.070	59.300	-7.136	-11.632	0.313	-0.064	0.108	-1.060	0.091	1.441	-0.105	0.326	0.042	-0.471	1.088	0.355	-1.574	-0.588	0.588	0.206	
0.09265	0.00196	0.00012	533.414	-115.345	-135.127	-3.141	-0.000	-3.142	26551	1.420	61.015	-5.747	-14.310	0.809	0.511	0.036	0.853	1.605	0.709	0.075	-0.022	0.024	-0.470	1.089	0.355	-1.572	-0.587	0.589	0.205	
2.98516	0.01270	0.00103	536.346	-114.885	-135.450	-3.141	-0.001	3.141	26842	6.487	66.765	-1.935	-21.603	2.303	2.450	-0.256	10.068	10.560	0.102	0.516	-0.634	-0.247	-0.468	1.092	0.355	-1.563	-0.583	0.594	0.201	
1.58448	0.01000	0.00009	537.929	-114.953	-135.448	-3.141	-0.001	3.141	27123	7.541	68.967	-1.136	-24.759	2.908	3.316	-0.344	13.522	15.141	1.511	0.839	-0.489	-0.363	-0.466	1.095	0.355	-1.556	-0.580	0.599	0.198	
0.85341	0.02024	0.04500	538.227	-115.529	-134.893	-3.096	0.001	-3.141	27310	-1.499	58.922	-7.702	-10.837	0.437	0.056	0.333	-0.393	5.994	1.774	0.384	0.788	0.075	-0.466	1.094	0.355	-1.556	-0.581	0.598	0.178	
5.52258	0.23030	0.25492	532.713	-115.834	-134.907	-2.841	0.000	-3.141	27591	0.505	59.628	-7.138	-11.596	0.649	0.173	0.146	-2.649	0.079	2.116	-0.003	1.094	0.194	-0.471	1.088	0.354	-1.572	-0.588	0.589	-0.051	
2.10630	0.13260	0.09230	530.650	-115.467	-135.123	-2.749	0.000	-3.141	27873	0.573	59.663	-7.104	-11.455	0.535	0.065	0.058	-2.309	0.003	1.786	-0.019	0.921	0.137	-0.473	1.085	0.355	-1.582	-0.592	0.583	-0.183	
1.50965	0.00194	0.00043	532.020	-114.833	-135.146	-2.749	0.000	-3.141	28077	-0.204	59.265	-7.177	-11.979	0.322	-0.079	0.118	-0.712	-0.528	1.355	-0.289	0.150	0.037	-0.472	1.086	0.355	-1.581	-0.591	0.584	-0.183	
7.00582	0.02733	0.00039	538.469	-112.096	-135.144	-2.749	-0.000	-3.141	28358	0.019	60.166	-7.041	-11.724	0.357	-0.078	0.098	-1.287	-0.012	1.528	-0.038	0.322	0.043	-0.462	1.093	0.355	-1.561	-0.583	0.595	-0.187	
1.28805	0.00992	0.00024	539.667	-111.622	-135.156	-2.749	-0.000	-3.141	28604	-0.195	59.679	-7.054	-11.313	0.264	-0.153	0.117	-0.471	-0.539	1.448	-0.338	0.065	0.038	-0.459	1.095	0.355	-1.554	-0.580	0.599	-0.188	
5.14369	0.01528	0.00020	544.404	-109.617	-135.161	-2.749	-0.000	-3.141	28875	-0.056	60.292	-7.125	-11.904	0.225	-0.200	0.112	-0.745	-0.672	1.488	-0.306	0.095	0.015	-0.453	1.099	0.355	-1.543	-0.575	0.606	-0.189	
4.89835	0.02432	0.00025	548.920	-107.721	-135.147	-2.749	-0.000	3.142	29156	-0.065	60.776	-7.280	-12.134	0.317	-0.063	0.090	-1.035	-0.339	1.162	-0.169	0.300	0.038	-0.444	1.105	0.355	-1.525	-0.568	0.615	-0.192	
1.47771	0.00086	0.00038	550.334	-107.314	-135.010	-2.749	0.000	-3.141	29389	-0.110	60.849	-7.239	-12.442	0.270	-0.125	0.120	-0.441	-0.522	1.038	-0.222	0.022	0.019	-0.444	1.106	0.355	-1.524	-0.568	0.616	-0.192	
7.03087	0.02783	0.00033	556.759	-104.464	-135.167	-2.749	-0.000	-3.142	29670	-0.301	61.270	-7.163	-12.618	0.361	-0.018	0.058	-0.628	0.202	1.421	-0.079	0.166	0.027	-0.434	1.113	0.355	-1.504	-0.560	0.627	-0.195	
1.46732	0.01099	0.00013	558.111	-103.894	-135.160	-2.749	-0.000	3.142	29909	-0.465	61.412	-7.148	-14.649	0.578	0.560	0.026	-0.839	0.143	1.245	-0.183	0.283	0.000	-0.430	1.116	0.355	-1.496	-0.557	0.632	-0.196	
1.90983	0.00605	0.00093	559.632	-102.768	-135.420	-2.749	-0.001	3.141	30136	2.398	67.371	-6.127	-22.015	1.476	3.262	-0.220	7.445	7.903	0.285	0.354	-0.462	-0.201	-0.428	1.118	0.355	-1.491	-0.555	0.634	-0.197	
2.82161	0.01355	0.00046	562.136	-101.481	-135.603	-2.748	-0.001	3.141	30421	5.069	69.929	-3.880	-22.790	2.198	2.952	-0.265	8.589	13.968	3.347	0.660	-0.223	-0.299	-0.423	1.122	0.355	-1.482	-0.551	0.640	-0.199	
0.99758	0.00136	0.00537	562.784	-102.005	-135.054	-2.743	0.000	-3.141	30622	1.194	61.904	-6.854	-12.611	0.622	0.083	0.176	0.944	8.447	2.560	0.387	0.709	0.018	-0.423	1.122	0.355	-1.481	-0.551	0.640	-0.199	
4.98335	0.15873	0.19987	558.562	-104.641	-134.807	-2.543	0.001	-3.140	30904	0.393	61.470	-7.272	-12.309	0.714	0.114	0.194	-2.660	-0.908	1.940	-0.322	1.103	0.214	-0.430	1.116	0.354	-1.492	-0.556	0.633	-0.357	
4.96846	0.21896	0.18477	553.737	-105.781	-135.132	-2.359	0.000	-3.141	31185	0.468	61.342	-7.341	-12.366	0.539	0.131	0.105	-2.399	-0.764	1.587	-0.278	1.041	0.186	-0.437	1.111	0.355	-1.509	-0.562	0.623	-0.574	
0.02127	0.01249	0.00246	553.758	-105.781	-135.132	-2.356	0.000	-3.141	31398	0.574	60.990	-6.933	-12.831	0.344	-0.069	-0.034	-1.343	-1.272	1.476	-0.457	0.466	0.034	-0.437	1.111	0.355	-1.510	-0.563	0.623	-0.587	
6.05815	0.01522	0.00014	558.053	-101.509	-135.135	-2.356	0.000	-3.141	31684	1.109	61.642	-6.508	-12.576	0.342	-0.168	-0.059	-0.282	-1.157	0.990	-0.460	-0.050	-0.099	-0.429	1.114	0.355	-1.501	-0.559	0.628	-0.584	
3.83617	0.01630	0.00044	560.707	-98.739	-135.160	-2.356	0.000	-3.141	31966	-0.097	61.477	-7.232	-12.581	0.346	-0.035	-0.015	-0.781	-1.103	1.223	-0.484	0.193	-0.060	-0.420	1.118	0.355	-1.490	-0.555	0.634	-0.581	
1.46889	0.00061	0.00054	561.868	-97.850	-135.021	-2.356	0.000	-3.141	32167	-0.210	61.642	-7.342	-12.802	0.298	-0.148	-0.063	-0.738	-0.796	1.293	-0.345	0.053	-0.108	-0.419	1.118	0.355	-1.490	-0.555	0.634	-0.581	
6.84066	0.02186	0.00066	566.553	-92.867	-135.140	-2.356	-0.000	-3.141	32447	-0.188	61.770	-7.262	-12.797	0.327	-0.127	-0.050	-0.707	-0.590	1.203	-0.266	0.086	-0.100	-0.408	1.123	0.355	-1.475	-0.550	0.643	-0.578	
1.61295	0.00905	0.00020	567.665	-91.699	-135.168	-2.356	-0.000	3.142	32698	-1.977	61.553	-8.114	-13.561	0.317	-0.015	-0.054	-0.740	-0.785	1.080	-0.342	0.123	-0.072	-0.403	1.126	0.355	-1.469	-0.548	0.646	-0.576	
3.76948	0.00817	0.00022	570.312	-89.016	-135.153	-2.356	-0.000	-3.142	32934	-0.055	61.774	-7.164	-13.250	0.312	-0.081	-0.084	-0.138	-0.724	0.917	-0.327	-0.132	-0.123	-0.398	1.128	0.355	-1.464	-0.546	0.649	-0.575	
6.31523	0.02213	0.00011	574.830	-84.603	-135.132	-2.356	-0.000	-3.141	33213	-0.051	62.088	-7.123	-12.957	0.344	-0.081	-0.060	-0.470	-0.969	1.081	-0.451	0.045	-0.107	-0.387	1.133	0.355	-1.449	-0.541	0.657	-0.572	
0.04362	0.00188	0.00020	574.828	-84.647	-135.133	-2.357	-0.000	-3.141	33415	-0.355	62.232	-7.264	-13.392	0.312	-0.126	-0.088	-0.266	-0.876	0.894	-0.400	-0.082	-0.127	-0.386	1.134	0.355	-1.448	-0.541	0.658	-0.572	
3.25774	0.00850	0.00037	577.094	-82.307	-135.170	-2.356	-0.000	-3.141	33698	0.897	62.498	-6.715	-13.333	0.318	-0.156	-0.085	0.176	-1.023	0.900	-0.503	-0.255	-0.161	-0.381	1.136	0.355	-1.442	-0.539	0.661	-0.571	
1.67937	0.00771	0.00041	578.227	-81.067	-135.175	-2.356	-0.000	3.142	33982	-0.116	62.560	-7.217	-13.237	0.363	-0.056	0.024	-0.544	-1.140	1.205	-0.539	0.069	-0.088	-0.377	1.138	0.355	-1.437	-0.537	0.664	-0.570	
0.43173	0.02137	0.04396	578.069	-81.468	-135.139	-2.313	0.000	-3.141	34200	0.784	62.970	-7.125	-13.093	0.551	0.074	0.142	-1.907	-1.381	1.673	-0.610	0.729	0.154	-0.378	1.137	0.355	-1.438	-0.537	0.664	-0.591	
3.60293	0.23614	0.25444	575.530	-84.024	-135.151	-2.058	-0.000	-3.141	34481	0.281	62.362	-7.385	-13.054	0.641	0.144	0.135	-2.164	-1.543	1.958	-0.619	0.940	0.223	-0.383	1.135	0.355	-1.445	-0.540	0.660	-0.827	
1.23237	0.13807	0.09480	574.657	-84.893	-135.186	-1.963	-0.000	-3.141	34763	0.340	62.396	-7.311	-12.956	0.548	0.089	0.108	-1.884	-1.867	1.774	-0.702	0.787	0.169	-0.386	1.133	0.355	-1.449	-0.541	0.657	-0.965	
1.29639	0.00097	0.00041	575.148	-83.693	-135.170	-1.964	-0.000	-3.141	34983	0.173	62.545	-7.015	-13.006	0.349	-0.135	-0.099	0.205	-1.472	1.191	-0.614	-0.281	-0.135	-0.386	1.133	0.355	-1.448	-0.541	0.657	-0.964	
7.20487	0.01725	0.00027	577.990	-77.072	-135.170	-1.964	-0.000	-3.141	35264	-0.407	62.514	-7.311	-13.190	0.364	-0.079	-0.066	-0.570	-1.003	1.197	-0.385	0.032	-0.131	-0.373	1.136	0.355	-1.442	-0.539	0.661	-0.955	
1.43002	0.00679	0.00021	578.548	-75.756	-135.134	-1.964	-0.000	-3.141	35548	-2.908	62.516	-8.493	-13.210	0.335	-0.030	-0.099	-0.061	-1.290	1.186	-0.517	-0.152	-0.097	-0.368	1.137	0.355	-1.439	-0.538	0.662	-0.952	
3.91502	0.00656	0.00029	579.922	-72.090	-135.159	-1.964	-0.000	-3.141	35799	0.331	62.647	-6.867	-13.025	0.298	-0.204	-0.117	-0.037	-1.231	1.190	-0.448	-0.232	-0.162	-0.363	1.138	0.355	-1.437	-0.537	0.664	-0.949	
6.13317	0.01755	0.00019	582.233	-66.409	-135.184	-1.964	-0.000	-3.142	36080	-0.138	62.904	-7.221	-13.448	0.370	-0.116	-0.051	-0.042	-1.187	1.230	-0.427	-0.176	-0.110	-0.351	1.140	0.355	-1.430	-0.535	0.668	-0.940	
0.08541	0.00107	0.00029	582.226	-66.492	-135.167	-1.964	-0.000	3.142	36282	0.126	62.134	-6.855	-13.089	0.337	-0.178	-0.098	0.440	-1.380	1.034	-0.518	-0.380	-0.125	-0.350	1.141	0.355	-1.429	-0.535	0.668	-0.939	
2.62193	0.00496	0.00019	583.163	-64.043	-135.177	-1.964	-0.000	3.142	36518	0.132	63.028	-7.053	-13.581	0.328	-0.143	-0.093	0.284	-1.050	1.065	-0.392	-0.324	-0.155	-0.347	1.141	0.355	-1.427	-0.534	0.669	-0.937	
2.44292	0.00769	0.00007	584.119	-61.795	-135.188	-1.964	-0.000	3.142	36802	-0.284	63.103	-7.299	-13.500	0.340	-0.072	-0.054	-0.076	-0.959	1.004	-0.345	-0.137	-0.110	-0.341	1.143	0.355	-1.424	-0.534	0.671	-0.933	
0.02417	0.00674	0.02175	584.115	-61.812	-135.171	-1.942	-0.000	3.142	37034	0.007	62.883	-7.198	-13.355	0.349	-0.024	0.045	-0.465	-1.198	1.351	-0.416	0.114	0.072	-0.341	1.142	0.355	-1.424	-0.533	0.671	-0.940	
0.10099	0.20508	0.23505	584.088	-61.909	-135.175	-1.707	-0.000	3.142	37317	-0.073	62.915	-7.210	-13.352	0.472	-0.011	0.130	-0.147	-1.385	1.289	-0.497	0.024	0.082	-0.342	1.142	0.355	-1.424	-0.533	0.671	-1.145	
0.09258	0.17912	0.13613	584.122	-61.990	-135.145	-1.571	-0.000	-3.141	37595	0.028	62.883	-7.172	-13.348	0.391	0.003	0.102	-0.016	-1.498	1.310	-0.539	-0.027	0.049	-0.342	1.142	0.355	-1.425	-0.533	0.671	-1.324	
0.35181	0.00238	0.00021	584.079	-61.642	-135.166	-1.571	-0.000	-3.142	37814	0.429	63.225	-6.915	-13.432	0.533	0.056	-0.075	0.161	-1.980	0.933	-0.784	-0.295	-0.095	-0.342	1.142	0.355	-1.425	-0.533	0.671	-1.327	
6.92688	0.01526	0.00030	584.136	-54.715	-135.117	-1.571	-0.000	-3.141	38094	1.823	62.992	-6.176	-13.428	0.592	0.052	-0.074	0.892	-2.385	1.424	-1.032	-0.699	-0.125	-0.332	1.141	0.355	-1.427	-0.534	0.669	-1.316	
2.69892	0.00994	0.00006	584.103	-52.017	-135.147	-1.571	-0.000	-3.141	38375	-0.520	62.832	-7.311	-13.147	0.462	0.077	-0.053	0.542	-2.316	1.595	-0.961	-0.453	-0.077	-0.325	1.141	0.355	-1.428	-0.535	0.669	-1.308	
2.61170	0.00310	0.00032	583.995	-49.408	-135.191	-1.571	-0.000	3.142	38578	-0.113	62.704	-7.078	-13.028	0.563	0.078	-0.097	0.676	-2.503	1.426	-1.078	-0.615	-0.112	-0.323	1.141	0.355	-1.429	-0.535	0.668	-1.306	
6.96221	0.01799	0.00024	584.047	-42.446	-135.147	-1.571	-0.000	-3.141	38861	-0.148	62.872	-7.179	-13.223	0.566	0.088	-0.067	0.876	-2.265	1.251	-1.001	-0.660	-0.105	-0.311	1.140	0.355	-1.431	-0.535	0.667	-1.293	
0.41150	0.00388	0.00012	584.090	-42.037	-135.129	-1.571	-0.000	-3.141	39082	-1.040	62.994	-7.627	-13.167	0.550	0.120	-0.087	0.861	-2.286	1.362	-1.003	-0.668	-0.107	-0.309	1.140	0.355	-1.431	-0.536	0.667	-1.290	
4.98349	0.00942	0.00004	584.152	-37.054	-135.094	-1.571	-0.000	-3.141	39359	-0.177	62.908	-7.079	-13.183	0.583	0.095	-0.109	1.090	-2.356	1.277	-1.058	-0.784	-0.122	-0.302	1.139	0.355	-1.432	-0.536	0.666	-1.283	
5.13674	0.01534	0.00029	584.170	-31.917	-135.134	-1.571	-0.000	-3.141	39639	-0.340	62.907	-7.241	-13.273	0.553	0.054	-0.074	0.448	-2.218	1.380	-0.942	-0.480	-0.085	-0.292	1.139	0.355	-1.434	-0.536	0.665	-1.272	
0.17588	0.00014	0.00007	584.184	-31.742	-135.124	-1.571	-0.000	-3.141	39843	-0.812	62.782	-7.453	-13.270	0.545	0.104	-0.081	0.874	-2.194	1.120	-0.972	-0.687	-0.124	-0.292	1.139	0.355	-1.434	-0.536	0.665	-1.272	
6.80390	0.01425	0.00035	584.116	-24.939	-135.095	-1.571	-0.000	-3.141	40125	1.664	62.735	-6.293	-13.265	0.592	0.066	-0.098	0.682	-2.308	1.478	-1.058	-0.620	-0.123	-0.282	1.138	0.355	-1.435	-0.537	0.665	-1.262	
2.94562	0.01031	0.00016	584.034	-21.995	-135.133	-1.571	-0.000	-3.142	40403	-0.368	62.805	-7.265	-13.155	0.548	0.099	-0.075	0.601	-2.263	1.374	-1.009	-0.532	-0.095	-0.275	1.138	0.355	-1.435	-0.537	0.665	-1.254	
2.35192	0.00291	0.00010	584.037	-19.643	-135.150	-1.571	-0.000	-3.142	40623	-0.290	62.848	-7.132	-13.144	0.585	0.105	-0.092	0.556	-2.359	1.231	-1.066	-0.572	-0.120	-0.273	1.138	0.355	-1.435	-0.537	0.665	-1.252	
6.95036	0.01708	0.00035	584.179	-12.694	-135.085	-1.571	-0.000	-3.141	40905	-0.066	62.681	-7.151	-13.138	0.563	0.106	-0.070	0.598	-2.300	1.288	-1.061	-0.586	-0.112	-0.261	1.138	0.355	-1.436	-0.537	0.664	-1.240	
0.65804	0.00443	0.00009	584.160	-12.037	-135.097	-1.571	-0.000	-3.141	41134	-2.472	62.641	-8.197	-12.935	0.519	0.138	-0.105	0.420	-2.268	1.312	-1.025	-0.471	-0.092	-0.258	1.138	0.355	-1.436	-0.537	0.664	-1.237	
3.64612	0.00608	0.00012	584.162	-8.390	-135.121	-1.571	-0.000	-3.141	41357	-0.134	62.754	-6.970	-13.126	0.572	0.089	-0.096	0.500	-2.305	1.301	-1.064	-0.560	-0.127	-0.254	1.138	0.355	-1.436	-0.537	0.664	-1.232	
6.40347	0.01665	0.00006	584.139	-1.987	-135.110	-1.571	-0.000	-3.141	41637	-0.417	62.832	-7.251	-13.191	0.556	0.104	-0.040	0.588	-2.204	1.264	-1.011	-0.548	-0.081	-0.242	1.138	0.355	-1.437	-0.537	0.664	-1.220	
0.01705	0.00156	0.00012	584.144	-1.977	-135.098	-1.571	-0.000	-3.141	41850	0.229	62.815	-6.831	-13.256	0.570	0.085	-0.128	1.162	-2.291	1.247	-1.082	-0.866	-0.161	-0.241	1.138	0.355	-1.437	-0.537	0.664	-1.219	
6.07306	0.01197	0.00003	584.113	4.096	-135.110	-1.571	-0.000	-3.141	42141	0.614	62.809	-6.611	-13.329	0.570	0.063	-0.089	1.341	-2.095	1.279	-0.996	-0.905	-0.144	-0.233	1.138	0.355	-1.437	-0.537	0.664	-1.211	
3.94769	0.01239	0.00004	584.110	8.043	-135.133	-1.571	-0.000	-3.141	42421	-0.387	62.688	-7.230	-13.089	0.527	0.065	-0.056	0.620	-1.997	1.333	-0.908	-0.547	-0.100	-0.224	1.138	0.355	-1.437	-0.537	0.664	-1.202	
1.41054	0.00089	0.00013	584.116	9.454	-135.127	-1.571	-0.000	-3.141	42640	-0.366	62.665	-7.178	-13.118	0.494	0.014	-0.114	0.487	-1.928	1.382	-0.874	-0.558	-0.147	-0.223	1.138	0.355	-1.437	-0.537	0.664	-1.202	
7.06364	0.01660	0.00014	584.064	16.517	-135.178	-1.571	-0.000	-3.141	42921	-0.718	62.834	-7.373	-13.222	0.445	0.006	-0.056	0.168	-1.616	1.199	-0.711	-0.398	-0.128	-0.212	1.138	0.355	-1.436	-0.537	0.664	-1.190	
1.48155	0.00643	0.00039	584.153	17.996	-135.170	-1.571	-0.000	-3.141	43201	-2.620	62.668	-8.256	-13.057	0.418	0.038	-0.081	0.652	-1.712	1.291	-0.739	-0.546	-0.113	-0.207	1.138	0.355	-1.436	-0.537	0.664	-1.185	
3.78052	0.00610	0.00038	584.076	21.776	-135.141	-1.571	-0.000	-3.141	43437	-0.491	62.774	-7.216	-13.165	0.417	-0.064	-0.111	1.094	-1.452	1.073	-0.651	-0.775	-0.191	-0.203	1.138	0.355	-1.436	-0.537	0.665	-1.181	
6.23894	0.01657	0.00017	584.090	28.014	-135.160	-1.571	-0.000	-3.141	43717	-0.483	62.716	-7.205	-13.280	0.397	-0.069	-0.061	0.738	-1.376	1.129	-0.543	-0.565	-0.139	-0.191	1.139	0.355	-1.434	-0.537	0.665	-1.170	
0.11617	0.00138	0.00046	584.005	27.940	-135.183	-1.571	-0.000	3.141	43926	-0.747	62.662	-7.249	-13.174	0.391	-0.071	-0.103	0.989	-1.496	1.096	-0.635	-0.705	-0.163	-0.190	1.139	0.355	-1.434	-0.537	0.666	-1.169	
5.02264	0.00899	0.00029	584.080	32.962	-135.152	-1.571	-0.000	-3.141	44170	-0.594	62.529	-7.197	-13.293	0.350	-0.104	-0.116	1.091	-1.154	1.002	-0.473	-0.737	-0.207	-0.183	1.139	0.355	-1.434	-0.536	0.666	-1.163	
5.14927	0.01493	0.00043	583.936	38.108	-135.213	-1.571	-0.000	3.141	44452	-0.583	62.895	-7.429	-13.307	0.392	-0.093	-0.042	0.547	-1.265	1.169	-0.467	-0.486	-0.123	-0.172	1.140	0.355	-1.432	-0.536	0.667	-1.153	
0.27533	0.00029	0.00032	583.938	38.384	-135.203	-1.571	-0.000	3.141	44669	-0.262	62.838	-7.121	-13.438	0.340	-0.109	-0.112	0.883	-1.271	1.024	-0.502	-0.680	-0.181	-0.172	1.140	0.355	-1.432	-0.536	0.667	-1.153	
6.98075	0.01445	0.00038	584.070	45.363	-135.178	-1.571	-0.000	-3.141	44948	0.962	62.637	-6.505	-13.442	0.357	-0.146	-0.123	1.678	-1.290	1.134	-0.518	-0.990	-0.231	-0.162	1.140	0.355	-1.431	-0.535	0.667	-1.143	
2.63705	0.00934	0.00023	584.064	48.000	-135.186	-1.571	-0.000	-3.142	45232	-0.893	62.860	-7.404	-13.306	0.339	-0.092	-0.075	0.806	-1.302	1.301	-0.501	-0.581	-0.153	-0.155	1.141	0.355	-1.429	-0.535	0.668	-1.137	
2.37945	0.00260	0.00044	584.188	50.375	-135.113	-1.571	-0.000	-3.141	45435	-0.882	62.807	-7.370	-13.580	0.341	-0.095	-0.103	1.321	-1.092	1.091	-0.442	-0.844	-0.214	-0.153	1.141	0.355	-1.429	-0.535	0.668	-1.135	
6.89987	0.01689	0.00040	584.075	57.274	-135.171	-1.571	-0.000	-3.142	45717	-0.263	62.567	-7.073	-13.324	0.353	-0.104	-0.041	1.093	-1.236	0.983	-0.501	-0.750	-0.198	-0.140	1.142	0.355	-1.427	-0.534	0.669	-1.124	
0.67796	0.00430	0.00012	584.089	57.952	-135.176	-1.571	-0.000	-3.142	45966	-1.034	62.651	-7.344	-13.408	0.354	-0.110	-0.120	1.027	-1.283	1.032	-0.528	-0.745	-0.183	-0.137	1.142	0.355	-1.426	-0.534	0.670	-1.121	
5.02114	0.00872	0.00029	584.105	62.973	-135.158	-1.571	-0.000	-3.141	46244	-0.540	62.920	-7.193	-13.436	0.320	-0.141	-0.095	1.570	-1.178	0.903	-0.482	-0.977	-0.231	-0.131	1.142	0.355	-1.425	-0.533	0.671	-1.116	
5.08839	0.01504	0.00038	584.015	68.060	-135.192	-1.571	-0.000	3.141	46526	-0.659	63.126	-7.330	-13.421	0.356	-0.117	-0.049	0.736	-1.141	1.007	-0.442	-0.577	-0.145	-0.120	1.143	0.355	-1.422	-0.533	0.672	-1.106	
0.17347	0.00018	0.00013	584.055	68.227	-135.165	-1.571	-0.000	3.142	46731	-0.858	62.814	-7.303	-13.386	0.315	-0.132	-0.117	1.178	-1.048	0.837	-0.440	-0.810	-0.204	-0.120	1.143	0.355	-1.422	-0.533	0.672	-1.106	
6.80690	0.01374	0.00014	584.030	75.034	-135.194	-1.571	-0.000	3.142	47013	1.666	63.056	-6.175	-13.553	0.358	-0.176	-0.084	0.837	-1.133	1.031	-0.455	-0.692	-0.215	-0.110	1.144	0.355	-1.420	-0.532	0.674	-1.097	
3.01140	0.00998	0.00027	584.129	78.043	-135.181	-1.571	-0.000	-3.141	47293	-0.852	62.793	-7.293	-13.376	0.362	-0.110	-0.066	0.840	-1.287	1.063	-0.508	-0.619	-0.155	-0.102	1.145	0.355	-1.417	-0.531	0.674	-1.091	
2.32389	0.00284	0.00028	584.152	80.366	-135.105	-1.571	-0.000	-3.141	47513	-0.781	62.396	-7.063	-13.288	0.336	-0.155	-0.112	1.672	-1.032	0.694	-0.443	-1.000	-0.219	-0.100	1.145	0.355	-1.417	-0.531	0.675	-1.089	
6.99827	0.01658	0.00009	584.168	87.364	-135.162	-1.571	-0.000	-3.141	47793	-0.359	62.731	-7.048	-13.368	0.337	-0.059	-0.082	1.244	-1.226	0.683	-0.557	-0.805	-0.215	-0.088	1.147	0.355	-1.413	-0.530	0.677	-1.079	
0.62508	0.00434	0.00041	584.039	87.975	-135.192	-1.571	-0.000	3.142	48024	-0.940	62.641	-7.303	-13.510	0.342	-0.116	-0.110	1.116	-1.248	0.753	-0.573	-0.779	-0.203	-0.085	1.147	0.355	-1.412	-0.530	0.678	-1.076	
4.99236	0.00873	0.00019	583.992	92.967	-135.210	-1.571	-0.000	3.142	48296	-0.527	63.365	-7.114	-13.804	0.357	-0.116	-0.096	1.596	-0.896	0.450	-0.400	-0.964	-0.214	-0.078	1.148	0.355	-1.410	-0.529	0.679	-1.071	
5.10108	0.01526	0.00016	584.026	98.068	-135.191	-1.571	-0.000	3.141	48582	-0.679	63.393	-7.306	-13.626	0.368	-0.111	-0.043	0.891	-0.931	0.582	-0.393	-0.623	-0.138	-0.067	1.149	0.355	-1.406	-0.528	0.681	-1.062	
0.13796	0.00018	0.00014	584.004	98.203	-135.173	-1.571	-0.000	3.141	48782	-0.652	62.805	-7.020	-13.378	0.327	-0.166	-0.120	1.132	-0.927	0.424	-0.441	-0.824	-0.220	-0.067	1.149	0.355	-1.406	-0.528	0.681	-1.062	
3.54695	0.00741	0.00015	584.035	101.749	-135.176	-1.571	-0.000	-3.142	49064	-0.902	64.037	-7.985	-14.766	0.230	0.641	-0.150	2.061	0.136	0.446	-0.344	-0.870	-0.243	-0.062	1.150	0.355	-1.404	-0.527	0.682	-1.058	
1.27932	0.00453	0.00027	584.040	103.029	-135.199	-1.571	-0.000	3.142	49337	-0.169	63.860	-7.147	-14.234	0.401	0.189	0.111	2.621	1.206	1.041	-0.363	-0.854	-0.194	-0.058	1.151	0.355	-1.403	-0.527	0.683	-1.055	
0.61209	0.04295	0.07377	584.048	102.427	-135.087	-1.497	-0.000	3.142	49581	-0.138	63.303	-7.164	-13.514	0.504	0.024	0.010	-0.001	-1.534	1.237	-0.606	-0.128	0.082	-0.059	1.150	0.355	-1.403	-0.527	0.683	-1.098	
2.01466	0.25326	0.25644	584.187	100.420	-135.194	-1.241	-0.000	-3.141	49860	-0.212	63.328	-7.295	-13.520	0.570	0.085	0.158	0.213	-1.789	1.166	-0.705	-0.181	0.127	-0.062	1.150	0.355	-1.405	-0.528	0.682	-1.351	
0.53693	0.10104	0.06312	584.134	99.886	-135.202	-1.178	-0.000	-3.141	50141	-0.594	63.303	-7.401	-13.485	0.499	0.081	0.048	0.461	-1.780	1.146	-0.716	-0.321	0.075	-0.064	1.150	0.355	-1.405	-0.528	0.681	-1.452	
2.49518	0.00372	0.00058	583.149	102.178	-135.221	-1.178	-0.000	-3.142	50361	-0.957	62.712	-7.201	-13.091	0.558	0.089	-0.054	1.861	-1.993	1.268	-0.880	-1.210	-0.139	-0.062	1.149	0.355	-1.406	-0.528	0.681	-1.449	
6.91050	0.01881	0.00018	580.447	108.538	-135.245	-1.178	-0.000	3.141	50641	-0.548	63.118	-7.143	-13.388	0.553	0.054	-0.034	1.817	-1.776	1.295	-0.756	-1.191	-0.140	-0.051	1.147	0.355	-1.412	-0.530	0.678	-1.435	
0.54944	0.00462	0.00052	580.438	109.080	-135.156	-1.178	-0.000	-3.141	50874	-1.401	63.813	-7.557	-13.656	0.581	0.164	-0.085	2.030	-1.741	0.896	-0.740	-1.297	-0.153	-0.049	1.147	0.355	-1.413	-0.530	0.677	-1.432	
5.05083	0.01011	0.00032	578.455	113.726	-135.193	-1.178	-0.000	-3.141	51141	-1.215	63.298	-7.429	-13.267	0.570	0.154	-0.069	2.232	-1.906	1.170	-0.872	-1.424	-0.168	-0.043	1.146	0.355	-1.416	-0.531	0.675	-1.425	
5.01940	0.01662	0.00022	576.597	118.388	-135.136	-1.178	-0.001	-3.141	51422	-0.702	63.379	-7.269	-13.414	0.550	0.100	-0.045	1.680	-1.923	1.304	-0.833	-1.096	-0.129	-0.033	1.144	0.355	-1.420	-0.533	0.673	-1.412	
0.26712	0.00016	0.00006	576.517	118.643	-135.147	-1.178	-0.001	-3.141	51658	-0.956	63.254	-7.330	-13.282	0.571	0.123	-0.065	1.878	-2.117	1.063	-0.947	-1.298	-0.181	-0.033	1.144	0.355	-1.420	-0.533	0.673	-1.412	
6.89950	0.01585	0.00019	573.799	124.984	-135.144	-1.178	-0.000	-3.141	51940	0.770	63.252	-6.499	-13.923	0.632	0.070	-0.071	2.476	-1.903	1.289	-0.908	-1.536	-0.184	-0.023	1.142	0.355	-1.425	-0.534	0.670	-1.401	
2.82854	0.01061	0.00012	572.693	127.587	-135.181	-1.178	-0.000	-3.141	52222	-0.995	63.235	-7.328	-13.339	0.542	0.062	-0.042	1.624	-1.817	1.265	-0.773	-1.081	-0.124	-0.017	1.141	0.355	-1.427	-0.535	0.669	-1.393	
1.52117	0.00224	0.00063	571.909	128.888	-135.277	-1.178	-0.000	3.141	52425	-4.962	64.326	-11.840	-15.562	-0.422	2.277	-0.276	6.325	2.803	0.661	-0.718	-1.671	-0.336	-0.016	1.141	0.355	-1.428	-0.535	0.669	-1.391	
2.82034	0.00891	0.00100	570.401	131.262	-135.479	-1.179	-0.001	3.141	52707	-7.739	67.195	-16.977	-19.991	-1.379	4.865	-0.452	13.034	12.724	1.686	-0.120	-2.171	-0.568	-0.011	1.141	0.354	-1.430	-0.536	0.668	-1.384	
0.88807	0.00203	0.00123	570.600	132.104	-135.277	-1.178	-0.000	3.141	52915	-5.003	68.377	-13.480	-19.955	-0.347	3.876	-0.105	12.730	13.864	2.591	0.118	-1.735	-0.435	-0.009	1.140	0.355	-1.431	-0.536	0.667	-1.383	
1.94729	0.07559	0.11392	572.350	131.497	-134.676	-1.064	-0.000	-3.139	53157	-0.784	62.848	-7.356	-13.421	0.327	0.013	0.216	0.881	-1.018	1.713	-0.350	-0.339	0.076	-0.011	1.140	0.355	-1.429	-0.535	0.668	-1.459	
5.26439	0.26434	0.24278	573.134	126.317	-135.198	-0.821	-0.000	3.141	53436	-0.319	62.922	-7.136	-13.264	0.370	-0.099	0.166	0.513	-1.011	1.307	-0.223	-0.240	0.078	-0.018	1.142	0.355	-1.426	-0.534	0.670	-1.723	
0.74157	0.06687	0.03600	573.455	125.649	-135.217	-0.785	-0.000	3.141	53711	-2.215	63.341	-8.121	-12.802	0.376	0.005	0.001	0.658	-1.128	1.231	-0.249	-0.330	0.026	-0.020	1.142	0.355	-1.426	-0.534	0.670	-1.790	
3.91508	0.00973	0.00027	570.605	128.333	-135.261	-0.786	-0.000	3.141	53951	-1.406	62.463	-7.281	-12.916	0.583	0.177	-0.037	2.785	-1.366	1.102	-0.408	-1.721	-0.169	-0.017	1.140	0.355	-1.431	-0.536	0.667	-1.784	
6.11132	0.02406	0.00035	566.335	132.705	-135.204	-0.785	-0.000	3.141	54230	-0.530	62.842	-7.008	-13.053	0.539	0.045	0.023	2.028	-1.147	0.870	-0.285	-1.318	-0.108	-0.009	1.135	0.355	-1.445	-0.540	0.660	-1.768	
0.09781	0.00164	0.00017	566.308	132.657	-135.285	-0.785	-0.000	3.141	54414	-0.531	62.661	-6.834	-13.045	0.651	0.134	-0.060	2.975	-0.873	1.070	-0.246	-1.872	-0.190	-0.009	1.135	0.355	-1.445	-0.540	0.659	-1.767	
6.09627	0.01734	0.00013	562.027	136.997	-135.249	-0.785	-0.000	3.141	54699	-0.113	61.869	-6.627	-12.825	0.623	0.135	-0.049	2.788	-1.206	0.856	-0.367	-1.795	-0.177	-0.003	1.131	0.355	-1.455	-0.543	0.654	-1.756	
3.86709	0.01801	0.00016	559.315	139.754	-135.242	-0.785	-0.001	3.142	54981	-0.809	61.978	-7.104	-12.757	0.568	0.095	0.006	2.082	-1.271	1.083	-0.375	-1.397	-0.114	0.003	1.128	0.355	-1.465	-0.547	0.649	-1.744	
1.38947	0.00087	0.00026	558.319	140.721	-135.293	-0.786	-0.000	3.142	55182	-0.782	62.223	-7.106	-13.045	0.625	0.212	-0.046	2.541	-1.394	0.880	-0.450	-1.691	-0.166	0.004	1.127	0.355	-1.465	-0.547	0.648	-1.743	
7.01767	0.02402	0.00018	553.370	145.697	-135.241	-0.786	-0.000	3.142	55461	-1.030	61.768	-7.261	-12.610	0.548	0.041	-0.022	1.955	-1.571	1.207	-0.521	-1.479	-0.167	0.012	1.123	0.355	-1.478	-0.551	0.641	-1.727	
1.58252	0.00989	0.00021	552.284	146.848	-135.235	-0.785	-0.001	-3.142	55709	-1.762	61.647	-7.452	-12.069	0.524	0.083	-0.062	1.884	-1.472	1.170	-0.415	-1.301	-0.123	0.016	1.121	0.355	-1.483	-0.553	0.638	-1.721	
2.10251	0.00544	0.00042	550.647	148.166	-135.279	-0.786	-0.000	3.141	55943	-7.170	61.415	-14.112	-12.761	-1.183	2.095	-0.304	7.850	3.741	0.655	-0.198	-2.204	-0.351	0.018	1.120	0.355	-1.486	-0.554	0.637	-1.717	
2.60865	0.01138	0.00058	548.626	149.816	-135.264	-0.786	-0.001	3.141	56225	-10.796	61.544	-18.443	-13.708	-2.182	3.495	-0.404	15.262	11.927	0.304	0.246	-2.479	-0.564	0.021	1.118	0.354	-1.492	-0.556	0.634	-1.709	
0.35164	0.00055	0.00453	548.709	150.157	-135.241	-0.782	-0.000	3.141	56428	-2.933	63.626	-10.988	-15.193	-0.134	1.773	0.150	8.590	14.329	-1.085	0.649	-1.416	-0.276	0.022	1.118	0.355	-1.492	-0.556	0.634	-1.709	
3.57472	0.15363	0.19148	551.895	148.542	-135.093	-0.590	-0.000	-3.140	56710	-0.633	61.573	-7.128	-12.748	0.375	-0.099	0.143	0.730	-0.602	1.171	-0.044	-0.208	0.068	0.019	1.120	0.356	-1.485	-0.554	0.636	-1.863	
5.23064	0.24048	0.19168	554.854	144.232	-135.252	-0.398	-0.000	3.141	56992	-0.121	61.853	-6.995	-12.728	0.349	-0.105	0.083	1.044	-0.655	1.269	0.021	-0.437	-0.010	0.011	1.123	0.355	-1.476	-0.550	0.642	-2.103	
0.20439	0.02011	0.00564	554.870	144.030	-135.274	-0.393	-0.000	3.141	57210	-0.169	62.026	-6.823	-12.719	0.540	0.139	-0.055	2.175	-0.486	1.103	0.098	-1.052	-0.099	0.011	1.124	0.355	-1.476	-0.550	0.643	-2.123	
5.21898	0.01794	0.00020	550.042	146.010	-135.252	-0.393	-0.000	3.141	57477	-0.696	60.970	-6.858	-12.147	0.579	0.095	-0.066	2.899	-0.430	1.068	0.220	-1.765	-0.187	0.013	1.119	0.355	-1.487	-0.554	0.636	-2.113	
4.69734	0.02557	0.00017	545.726	147.863	-135.239	-0.393	-0.000	3.141	57761	-0.803	61.280	-7.044	-12.398	0.556	0.090	-0.019	2.534	-0.425	0.973	0.221	-1.551	-0.154	0.017	1.113	0.355	-1.504	-0.560	0.627	-2.099	
1.72474	0.00174	0.00039	544.101	148.428	-135.368	-0.393	0.000	3.141	57980	-0.746	60.929	-6.955	-11.817	0.590	0.084	-0.065	3.130	-0.370	0.753	0.270	-1.931	-0.203	0.018	1.113	0.355	-1.505	-0.561	0.626	-2.098	
6.87159	0.03015	0.00041	537.812	151.195	-135.277	-0.393	-0.000	3.141	58260	-1.011	60.780	-7.048	-12.031	0.554	0.123	-0.029	2.914	-0.705	0.848	0.141	-1.826	-0.183	0.022	1.106	0.355	-1.525	-0.568	0.615	-2.081	
1.31459	0.01109	0.00017	536.601	151.706	-135.260	-0.393	-0.000	3.142	58506	-0.450	60.377	-6.752	-12.275	0.650	0.244	-0.068	3.530	-0.060	1.235	0.398	-2.117	-0.214	0.024	1.103	0.355	-1.532	-0.571	0.611	-2.075	
5.43905	0.01772	0.00032	531.565	153.762	-135.249	-0.393	-0.000	3.141	58775	-0.937	59.858	-6.844	-11.455	0.606	0.086	-0.084	3.337	-0.371	0.615	0.271	-2.059	-0.197	0.027	1.099	0.355	-1.543	-0.576	0.605	-2.065	
4.63570	0.02545	0.00022	527.307	155.595	-135.255	-0.393	-0.000	3.141	59055	-0.863	60.070	-7.058	-11.640	0.546	0.060	-0.009	2.509	-0.334	0.932	0.260	-1.572	-0.141	0.032	1.094	0.355	-1.559	-0.582	0.596	-2.050	
1.14277	0.00122	0.00055	526.209	155.889	-135.368	-0.393	0.000	3.141	59273	-1.217	59.819	-6.995	-11.536	0.583	0.162	-0.050	3.221	-0.134	0.804	0.338	-2.039	-0.198	0.032	1.093	0.355	-1.560	-0.582	0.596	-2.049	
3.17388	0.01529	0.00070	523.276	157.094	-135.241	-0.393	-0.000	3.141	59555	-5.022	58.557	-11.952	-11.004	-0.744	1.297	-0.181	7.108	4.940	1.248	0.606	-2.225	-0.328	0.035	1.090	0.355	-1.569	-0.586	0.591	-2.040	
0.55551	0.00485	0.00028	522.787	157.358	-135.217	-0.393	-0.000	3.141	59778	-3.771	60.225	-10.615	-12.465	-0.335	1.221	0.050	6.927	8.300	-0.699	0.780	-1.803	-0.249	0.035	1.089	0.354	-1.572	-0.588	0.589	-2.037	
1.27894	0.07030	0.10687	524.059	157.483	-135.163	-0.286	0.000	-3.142	60039	-0.239	59.617	-7.028	-11.547	0.027	-0.157	-0.029	1.018	0.075	0.903	0.301	-0.423	-0.000	0.035	1.090	0.355	-1.569	-0.586	0.591	-2.108	
4.49397	0.26845	0.24727	527.929	155.203	-135.283	-0.039	0.000	3.141	60321	-0.339	59.736	-6.979	-11.520	0.317	-0.078	0.119	1.056	-0.051	1.129	0.276	-0.327	-0.009	0.032	1.094	0.355	-1.558	-0.581	0.597	-2.376	
0.61166	0.07110	0.03883	528.460	154.900	-135.291	-0.000	0.000	3.141	60600	-0.320	59.769	-6.945	-11.455	0.330	-0.038	0.017	1.434	-0.000	1.051	0.331	-0.563	-0.082	0.031	1.095	0.355	-1.555	-0.580	0.599	-2.447	
2.68941	0.00753	0.00032	525.773	154.985	-135.249	-0.000	-0.000	3.141	60789	-0.433	59.421	-7.050	-11.290	0.581	0.137	-0.067	3.042	0.077	1.193	0.528	-1.533	-0.137	0.031	1.093	0.355	-1.560	-0.583	0.596	-2.443	
6.90523	0.03290	0.00036	518.868	154.878	-135.271	0.000	0.000	3.141	61067	-0.308	59.564	-6.790	-11.277	0.556	0.087	-0.072	2.922	0.493	1.440	0.760	-1.541	-0.172	0.031	1.085	0.355	-1.583	-0.592	0.583	-2.428	
0.33438	0.00692	0.00020	518.538	154.928	-135.282	0.000	0.000	3.141	61312	-0.481	59.296	-6.686	-10.967	0.605	0.064	-0.096	3.063	0.212	1.156	0.644	-1.606	-0.171	0.031	1.084	0.355	-1.588	-0.594	0.580	-2.424	
5.13455	0.01894	0.00015	513.404	154.942	-135.220	-0.000	-0.000	3.141	61582	-0.516	59.105	-6.759	-11.507	0.676	0.219	-0.097	3.272	0.552	0.635	0.816	-1.792	-0.167	0.032	1.079	0.355	-1.600	-0.600	0.573	-2.415	
4.77580	0.02887	0.00028	508.628	155.001	-135.245	-0.000	-0.000	3.141	61862	-0.794	58.484	-6.974	-10.855	0.565	0.129	-0.055	2.705	0.604	0.854	0.822	-1.552	-0.161	0.032	1.072	0.355	-1.620	-0.610	0.562	-2.401	
1.58646	0.00162	0.00028	507.045	154.944	-135.324	-0.000	0.000	3.141	62096	-0.778	58.490	-6.828	-11.228	0.663	0.256	-0.077	2.799	0.684	0.900	0.909	-1.720	-0.178	0.032	1.072	0.355	-1.621	-0.610	0.562	-2.400	
6.87505	0.03351	0.00037	500.171	155.003	-135.237	-0.000	-0.000	3.141	62377	-0.954	58.010	-6.951	-10.449	0.552	0.141	-0.037	2.978	0.544	0.624	0.825	-1.750	-0.172	0.033	1.065	0.355	-1.643	-0.621	0.549	-2.383	
1.36278	0.01258	0.00021	498.808	155.025	-135.207	-0.000	-0.000	3.141	62615	-0.823	57.688	-6.872	-9.798	0.531	0.065	-0.059	2.759	0.808	0.827	0.940	-1.562	-0.156	0.033	1.062	0.355	-1.651	-0.626	0.544	-2.376	
1.86657	0.00557	0.00029	496.942	155.019	-135.255	0.000	-0.000	3.141	62816	-3.229	56.243	-9.858	-8.422	-0.339	0.240	-0.219	4.861	2.466	0.765	1.041	-2.010	-0.234	0.033	1.061	0.355	-1.655	-0.628	0.542	-2.373	
2.67114	0.01644	0.00101	494.292	154.859	-134.964	-0.000	-0.001	3.141	63095	-7.731	52.044	-14.218	-4.478	-1.938	0.335	-0.396	13.084	11.797	-0.605	1.575	-2.377	-0.521	0.034	1.057	0.354	-1.665	-0.634	0.537	-2.364	
0.30933	0.00198	0.00036	494.043	155.007	-135.072	-0.000	-0.001	3.142	63282	-9.351	60.010	-17.172	-7.074	-2.462	0.620	-0.275	14.899	12.873	-0.021	1.528	-2.237	-0.572	0.034	1.056	0.355	-1.666	-0.634	0.536	-2.363	
11.15208	0.02945	0.00110	494.371	155.123	-123.925	0.000	0.000	3.141	63530	0.286	56.672	-6.008	-11.335	0.295	-0.136	0.117	7.035	8.550	3.383	1.498	-1.281	-0.286	0.034	1.040	0.355	-1.672	-0.617	0.545	-2.377	
18.48825	0.07728	0.00046	495.949	154.864	-105.506	-0.000	-0.000	3.141	63812	-0.544	56.293	-6.552	-11.324	0.309	-0.029	0.088	1.857	0.366	1.944	0.568	-0.786	-0.096	0.034	0.995	0.355	-1.684	-0.572	0.569	-2.411	
0.44300	0.00723	0.00032	496.139	154.710	-105.137	-0.000	-0.000	3.141	64056	-0.587	56.621	-6.588	-11.391	0.319	-0.037	-0.110	2.081	0.558	1.276	0.692	-0.991	-0.182	0.034	0.990	0.355	-1.684	-0.568	0.571	-2.414	
0.04282	0.07529	0.11556	496.102	154.728	-105.150	-0.116	-0.000	3.141	64329	-0.628	56.535	-6.511	-11.308	0.228	-0.083	-0.067	2.237	0.310	1.090	0.579	-1.186	-0.231	0.034	0.990	0.355	-1.684	-0.568	0.571	-2.339	
0.08147	0.35700	0.39504	496.061	154.794	-105.174	-0.511	-0.000	3.141	64608	-0.704	56.422	-6.537	-11.393	0.320	-0.060	-0.145	2.246	-0.559	1.013	0.048	-1.381	-0.242	0.034	0.990	0.355	-1.684	-0.568	0.571	-1.982	
0.14916	0.44438	0.43671	495.986	154.919	-105.204	-0.948	-0.000	3.141	64890	-0.722	56.527	-6.530	-11.248	0.058	-0.036	-0.097	1.959	-1.499	1.027	-0.602	-1.386	-0.271	0.034	0.990	0.355	-1.684	-0.568	0.571	-1.538	
0.09289	0.43403	0.42752	495.938	154.999	-105.212	-1.375	-0.000	3.141	65168	-0.727	56.551	-6.523	-11.381	0.274	-0.065	-0.098	1.342	-2.096	0.987	-1.090	-1.102	-0.274	0.034	0.991	0.355	-1.684	-0.567	0.571	-1.104	
0.03817	0.24543	0.19291	495.917	155.030	-105.215	-1.568	-0.000	3.141	65448	-0.788	56.534	-6.546	-11.333	0.281	-0.058	-0.002	1.069	-2.093	0.958	-1.151	-0.951	-0.227	0.034	0.991	0.355	-1.684	-0.567	0.571	-0.858	
0.00874	0.01413	0.00283	495.913	155.038	-105.216	-1.571	-0.000	3.141	65670	-0.692	56.496	-6.490	-11.320	0.333	-0.042	-0.086	1.057	-2.215	0.913	-1.247	-0.976	-0.263	0.034	0.991	0.355	-1.684	-0.567	0.571	-0.844	
0.00352	0.10908	0.15563	495.913	155.034	-105.217	-1.727	-0.000	3.141	65952	-0.769	56.461	-6.533	-11.393	0.265	-0.038	-0.067	0.469	-2.449	0.932	-1.498	-0.648	-0.266	0.034	0.991	0.355	-1.684	-0.567	0.571	-0.735	
0.01017	0.38447	0.41322	495.916	155.025	-105.219	-2.140	-0.000	3.142	66230	-0.811	56.588	-6.608	-11.376	0.342	-0.039	-0.199	-0.645	-2.395	0.957	-1.639	0.049	-0.256	0.034	0.991	0.355	-1.684	-0.567	0.571	-0.351	
0.00718	0.44139	0.43979	495.921	155.019	-105.219	-2.580	-0.000	-3.141	66512	-0.784	56.554	-6.500	-11.328	0.443	-0.081	-0.282	-1.619	-1.879	0.921	-1.500	0.739	-0.258	0.034	0.991	0.355	-1.684	-0.567	0.571	0.091	
0.00555	0.43002	0.41149	495.923	155.014	-105.220	-2.991	-0.000	-3.141	66793	-0.708	56.601	-6.568	-11.370	0.213	-0.139	-0.128	-2.198	-1.289	0.904	-1.223	1.231	-0.300	0.034	0.991	0.355	-1.684	-0.567	0.571	0.521	
0.00213	0.20223	0.15061	495.924	155.012	-105.220	3.141	-0.000	-3.141	67073	-0.722	56.567	-6.540	-11.386	0.358	-0.060	-0.068	-2.151	-1.050	0.913	-1.094	1.227	-0.236	0.034	0.991	0.355	-1.684	-0.567	0.571	0.723	
0.44046	0.00380	0.00055	495.777	154.922	-105.625	-3.141	-0.001	-3.141	67309	-0.870	58.326	-7.012	-12.078	0.586	0.245	-0.153	-1.827	-0.779	-0.771	-0.896	1.288	-0.194	0.034	0.991	0.355	-1.684	-0.567	0.571	0.727	
18.07908	0.05496	0.00116	496.248	154.435	-123.692	3.141	0.000	-3.141	67592	-7.923	54.184	-15.353	-6.943	-1.705	1.429	-0.388	-8.952	-11.965	-0.342	-1.475	2.070	-0.443	0.033	1.024	0.354	-1.672	-0.599	0.556	0.749	
11.45598	0.05553	0.00067	496.064	154.895	-135.137	3.141	0.000	-3.141	67875	-9.131	52.904	-16.614	-5.856	-2.182	1.297	-0.404	-11.111	-15.412	-1.291	-1.518	2.013	-0.462	0.033	1.059	0.355	-1.659	-0.630	0.540	0.772	
0.16592	0.00054	0.00661	495.960	154.963	-135.247	-3.135	-0.000	-3.141	68092	-3.644	57.078	-10.529	-10.244	-0.631	0.611	0.051	-5.410	-12.005	-0.707	-1.312	1.055	-0.250	0.034	1.059	0.355	-1.659	-0.630	0.540	0.771	
2.28578	0.16474	0.20153	498.114	155.716	-135.370	-2.934	-0.001	3.141	68372	-0.336	57.921	-6.913	-10.307	0.279	-0.147	0.194	-1.148	-0.748	1.110	-0.699	0.456	-0.048	0.034	1.062	0.356	-1.653	-0.627	0.544	0.607	
2.86236	0.22615	0.18240	500.882	155.002	-135.222	-2.751	-0.000	-3.141	68653	-0.358	57.890	-6.854	-10.598	0.276	-0.090	0.041	-1.148	-0.741	1.107	-0.779	0.464	-0.087	0.033	1.064	0.355	-1.644	-0.622	0.549	0.381	
0.06014	0.01467	0.00236	500.929	154.969	-135.203	-2.749	-0.000	-3.141	68873	-0.434	57.752	-7.073	-10.424	0.569	0.209	-0.050	-2.009	-0.811	1.078	-0.951	1.059	-0.101	0.033	1.064	0.355	-1.643	-0.621	0.549	0.366	
6.44784	0.02490	0.00015	494.986	152.467	-135.204	-2.749	-0.000	-3.141	69168	-0.832	57.383	-7.192	-11.202	0.675	0.224	-0.105	-2.887	-0.617	0.930	-0.913	1.442	-0.088	0.030	1.059	0.355	-1.661	-0.631	0.539	0.376	
3.43317	0.02244	0.00017	491.825	151.129	-135.206	-2.749	-0.000	-3.141	69450	-0.090	57.027	-6.676	-9.673	0.518	0.100	-0.070	-2.210	-0.775	0.953	-0.951	1.162	-0.089	0.027	1.054	0.355	-1.676	-0.640	0.531	0.385	
2.93540	0.00811	0.00011	489.106	150.022	-135.241	-2.749	-0.000	-3.141	69686	-0.156	56.796	-6.782	-9.539	0.604	0.109	-0.077	-2.504	-0.804	0.905	-0.952	1.344	-0.079	0.026	1.052	0.355	-1.682	-0.643	0.528	0.389	
6.78576	0.03369	0.00021	482.833	147.434	-135.234	-2.749	0.000	-3.141	69968	-0.320	56.774	-6.876	-9.754	0.550	0.049	-0.073	-2.479	-0.719	1.517	-0.978	1.248	-0.101	0.021	1.045	0.355	-1.704	-0.656	0.515	0.403	
0.21176	0.00580	0.00010	482.633	147.367	-135.249	-2.749	0.000	-3.141	70194	-0.151	56.719	-6.686	-9.912	0.645	0.190	-0.093	-2.742	-0.818	1.075	-0.998	1.416	-0.101	0.020	1.043	0.355	-1.708	-0.659	0.512	0.405	
3.25837	0.01307	0.00025	479.640	146.079	-135.227	-2.749	0.000	-3.141	70479	-0.491	56.344	-7.017	-9.788	0.637	0.184	-0.096	-2.668	-0.727	1.263	-1.002	1.453	-0.101	0.019	1.040	0.355	-1.716	-0.664	0.508	0.411	
1.59485	0.01086	0.00026	478.175	145.450	-135.194	-2.749	0.000	-3.141	70760	-0.220	56.180	-6.756	-9.576	0.531	0.122	-0.013	-2.308	-0.717	0.992	-0.929	1.218	-0.092	0.017	1.038	0.355	-1.723	-0.669	0.504	0.416	
0.13373	0.02017	0.04250	478.045	145.444	-135.224	-2.707	0.000	-3.141	70964	-0.126	56.300	-6.713	-9.613	0.496	0.073	-0.039	-2.000	-0.657	1.329	-0.806	0.931	0.034	0.017	1.038	0.355	-1.724	-0.669	0.504	0.396	
0.08754	0.22982	0.25167	477.957	145.446	-135.225	-2.455	-0.000	-3.141	71244	-0.241	56.053	-6.727	-9.494	0.462	0.023	0.150	-1.656	-1.062	1.348	-0.946	0.617	0.034	0.017	1.038	0.355	-1.724	-0.669	0.504	0.166	
0.05900	0.14295	0.09846	477.901	145.428	-135.227	-2.356	-0.000	-3.141	71528	-0.298	56.106	-6.720	-9.505	0.400	0.009	0.068	-1.538	-1.276	1.357	-1.045	0.543	-0.035	0.017	1.038	0.355	-1.724	-0.669	0.504	0.023	
1.82992	0.00187	0.00043	476.515	144.238	-135.335	-2.356	-0.001	3.142	71744	-0.500	55.453	-6.823	-8.919	0.570	0.139	-0.049	-2.112	-1.778	1.101	-1.434	0.925	-0.060	0.017	1.038	0.355	-1.725	-0.669	0.504	0.024	
6.98092	0.02974	0.00048	471.663	139.220	-135.255	-2.356	-0.000	-3.142	72024	-0.278	55.216	-6.489	-9.081	0.526	0.098	-0.062	-1.796	-1.950	0.701	-1.496	0.801	-0.087	0.007	1.032	0.355	-1.745	-0.683	0.492	0.031	
1.12978	0.01024	0.00028	470.898	138.389	-135.226	-2.356	-0.000	-3.141	72265	0.954	56.514	-6.212	-8.917	0.607	0.133	-0.094	-1.618	-1.889	1.058	-1.522	0.719	-0.105	0.004	1.030	0.355	-1.751	-0.688	0.488	0.034	
4.26421	0.01308	0.00026	467.868	135.389	-135.246	-2.356	-0.000	-3.142	72494	-0.199	55.241	-6.578	-9.535	0.695	0.222	-0.058	-1.927	-1.535	1.038	-1.389	0.919	-0.052	-0.000	1.027	0.355	-1.760	-0.694	0.484	0.038	
5.65637	0.02874	0.00038	463.934	131.325	-135.184	-2.356	0.000	-3.141	72776	-0.153	55.148	-6.555	-8.714	0.498	0.041	-0.036	-1.600	-1.623	0.801	-1.361	0.651	-0.080	-0.010	1.021	0.355	-1.778	-0.708	0.473	0.047	
0.66342	0.00068	0.00061	463.397	130.942	-135.257	-2.356	-0.000	3.142	72993	0.005	54.523	-6.595	-8.197	0.592	0.137	-0.076	-2.247	-1.785	0.945	-1.496	1.027	-0.067	-0.010	1.021	0.355	-1.778	-0.708	0.473	0.047	
6.89620	0.02696	0.00057	458.572	126.015	-135.215	-2.356	0.000	-3.141	73274	-0.950	54.301	-6.914	-8.430	0.598	0.178	-0.058	-2.170	-1.552	1.124	-1.391	1.021	-0.047	-0.019	1.016	0.355	-1.795	-0.721	0.464	0.055	
2.47769	0.01586	0.00006	456.772	124.313	-135.225	-2.356	0.000	-3.141	73545	-0.036	54.517	-6.527	-7.922	0.635	0.151	-0.068	-1.686	-2.077	0.879	-1.641	0.797	-0.090	-0.024	1.014	0.355	-1.805	-0.729	0.458	0.060	
2.31835	0.00744	0.00025	455.104	122.702	-135.234	-2.356	0.000	3.142	73790	-0.797	51.840	-7.028	-4.861	-0.015	-0.716	-0.166	-3.574	-3.506	0.887	-1.563	1.074	-0.101	-0.026	1.012	0.355	-1.810	-0.733	0.456	0.062	
2.34476	0.01406	0.00101	453.804	120.763	-135.018	-2.357	0.001	-3.141	74072	-2.234	47.713	-7.752	-0.327	-0.955	-1.788	-0.269	-8.318	-10.242	-0.627	-1.850	1.080	-0.289	-0.031	1.009	0.355	-1.817	-0.741	0.450	0.067	
0.65736	0.00672	0.02101	453.202	120.845	-135.269	-2.336	-0.000	3.141	74305	0.007	54.617	-6.502	-9.028	0.163	-0.050	0.214	-2.021	-7.188	0.255	-1.439	0.150	-0.133	-0.031	1.010	0.354	-1.818	-0.741	0.451	0.060	
3.19142	0.20152	0.22836	455.171	123.355	-135.365	-2.107	-0.001	3.141	74584	-0.668	53.701	-6.595	-8.280	0.303	-0.067	0.230	0.202	-1.379	0.522	-1.093	-0.356	-0.069	-0.026	1.012	0.355	-1.811	-0.734	0.455	-0.141	
2.32757	0.18988	0.14363	457.092	124.660	-135.210	-1.964	-0.000	3.141	74864	-0.785	53.829	-6.650	-8.543	0.247	-0.020	0.056	0.116	-1.815	0.564	-1.293	-0.314	-0.120	-0.023	1.014	0.355	-1.803	-0.728	0.459	-0.330	
0.39841	0.00337	0.00020	456.998	124.272	-135.206	-1.963	-0.000	3.142	75099	-0.391	53.662	-6.518	-7.834	0.562	0.116	0.043	-0.664	-1.827	0.885	-1.416	0.122	0.003	-0.023	1.014	0.355	-1.803	-0.728	0.459	-0.334	
7.05560	0.02105	0.00016	454.219	117.787	-135.217	-1.963	-0.000	3.141	75380	-1.169	53.157	-6.845	-8.109	0.584	0.174	0.031	-1.617	-1.901	0.841	-1.378	0.518	0.033	-0.035	1.011	0.355	-1.815	-0.738	0.453	-0.333	
2.46241	0.01222	0.00028	453.361	115.479	-135.189	-1.963	-0.000	-3.142	75659	0.249	53.824	-6.264	-8.027	0.534	0.114	0.036	-1.007	-2.191	1.061	-1.554	0.230	-0.018	-0.042	1.009	0.355	-1.822	-0.744	0.449	-0.333	
2.61021	0.00461	0.00014	452.294	113.098	-135.238	-1.963	-0.000	3.142	75845	0.081	53.310	-6.468	-7.397	0.601	0.135	0.019	-1.336	-2.319	1.142	-1.583	0.426	0.027	-0.045	1.008	0.355	-1.824	-0.746	0.448	-0.333	
6.86720	0.02321	0.00011	449.668	106.752	-135.223	-1.963	-0.000	3.142	76125	-0.196	53.357	-6.480	-7.752	0.556	0.123	0.020	-1.493	-2.047	1.109	-1.457	0.440	0.015	-0.059	1.004	0.355	-1.837	-0.758	0.440	-0.333	
0.44449	0.00542	0.00030	449.527	106.331	-135.207	-1.963	0.000	-3.142	76336	0.194	53.552	-6.296	-7.941	0.642	0.205	0.018	-1.879	-1.959	0.917	-1.319	0.604	0.036	-0.062	1.004	0.355	-1.840	-0.760	0.439	-0.333	
5.38541	0.01317	0.00039	447.449	101.363	-135.207	-1.963	-0.000	3.141	76608	0.099	53.127	-6.366	-7.581	0.637	0.180	0.014	-1.790	-2.362	1.260	-1.579	0.573	0.024	-0.070	1.002	0.355	-1.846	-0.767	0.435	-0.333	
4.70109	0.02015	0.00033	445.654	97.018	-135.227	-1.963	0.000	3.142	76893	-0.099	53.008	-6.473	-7.564	0.548	0.089	0.017	-0.939	-2.255	0.792	-1.607	0.171	-0.012	-0.082	0.999	0.355	-1.857	-0.777	0.429	-0.333	
0.38195	0.00014	0.00030	445.493	96.673	-135.258	-1.963	-0.000	3.141	77077	0.102	51.444	-6.075	-5.236	0.286	-0.550	-0.055	-2.047	-3.149	1.004	-1.566	0.508	0.006	-0.082	0.999	0.355	-1.857	-0.777	0.429	-0.333	
3.40023	0.01086	0.00114	444.747	93.365	-135.006	-1.963	0.000	-3.141	77360	-0.577	46.960	-5.955	0.960	-0.743	-2.445	-0.216	-6.347	-12.186	0.896	-2.320	0.601	-0.192	-0.089	0.997	0.355	-1.862	-0.783	0.426	-0.333	
1.02409	0.00558	0.00015	444.268	92.461	-135.054	-1.963	0.000	-3.141	77607	-2.361	44.504	-7.204	3.206	-1.340	-2.610	-0.077	-7.836	-16.323	-1.638	-2.125	0.566	-0.267	-0.092	0.996	0.355	-1.865	-0.786	0.424	-0.333	
1.45473	0.04525	0.07786	443.441	93.575	-135.491	-1.886	-0.001	3.140	77844	-0.216	52.880	-6.369	-7.513	0.058	-0.090	0.224	0.034	-2.172	1.127	-0.874	-0.385	-0.062	-0.091	0.997	0.355	-1.864	-0.784	0.425	-0.378	
4.63613	0.25649	0.25737	445.752	97.578	-135.132	-1.628	-0.000	3.141	78125	-0.356	52.633	-6.296	-7.537	0.173	-0.122	0.147	0.736	-1.340	0.861	-0.832	-0.712	-0.056	-0.082	0.999	0.355	-1.857	-0.777	0.430	-0.634	
0.99314	0.09171	0.05729	446.201	98.461	-135.213	-1.571	-0.000	3.141	78405	-0.094	52.790	-6.290	-7.677	0.258	-0.024	0.094	0.866	-1.571	0.725	-0.988	-0.772	-0.097	-0.079	1.000	0.355	-1.854	-0.774	0.431	-0.726	
2.59235	0.00402	0.00021	446.188	95.868	-135.228	-1.571	-0.000	3.141	78624	-0.184	53.019	-6.614	-7.718	0.564	0.170	0.156	-0.603	-1.943	0.953	-1.141	-0.037	0.112	-0.082	0.999	0.355	-1.855	-0.775	0.431	-0.728	
6.86711	0.02010	0.00049	446.273	89.002	-135.186	-1.570	-0.000	3.141	78902	-0.272	52.863	-6.586	-7.524	0.528	0.112	0.106	-0.886	-1.955	1.049	-1.155	0.067	0.107	-0.097	0.998	0.355	-1.859	-0.780	0.428	-0.738	
0.44574	0.00459	0.00015	446.247	88.557	-135.194	-1.570	-0.000	3.141	79116	0.492	53.130	-6.128	-7.548	0.577	0.130	0.158	-0.670	-1.990	1.325	-1.146	0.015	0.101	-0.101	0.998	0.355	-1.860	-0.780	0.428	-0.741	
5.04414	0.01079	0.00039	446.363	83.514	-135.182	-1.571	-0.000	3.142	79388	0.034	52.531	-6.345	-7.353	0.582	0.142	0.140	-0.139	-2.235	1.182	-1.335	-0.204	0.117	-0.110	0.997	0.355	-1.862	-0.783	0.427	-0.746	
5.04294	0.01795	0.00014	446.310	78.472	-135.176	-1.571	-0.000	3.142	79669	-0.073	52.762	-6.434	-7.355	0.531	0.126	0.108	-0.189	-2.279	1.147	-1.383	-0.281	0.065	-0.123	0.997	0.355	-1.866	-0.786	0.425	-0.756	
